<?xml version="1.0"?>
<VTKFile type="ImageData" version="0.1" byte_order="LittleEndian">
  <ImageData WholeExtent="0 31 0 31 0 31" Origin="0 0 0" Spacing="1 1 1">
    <Piece Extent="0 31 0 31 0 31">
      <PointData Scalars="concentration">
        <DataArray type="Float32" Name="concentration" format="ascii">
          4.53999e-05 6.63876e-05 9.32711e-05 0.000125903 0.000163287 0.000203468 0.000243596 0.000280202 0.000309671 0.00032882 0.000335463 0.00032882
          0.000309671 0.000280202 0.000243597 0.00020347 0.000163289 0.000125906 9.32751e-05 6.63925e-05 4.54057e-05 2.98362e-05 1.88376e-05 1.1428e-05
          6.6617e-06 3.73158e-06 2.00869e-06 1.03913e-06 5.16653e-07 2.46903e-07 1.13418e-07 5.00829e-08 7.19168e-05 0.000105163 0.000147748 0.000199439
          0.000258659 0.000322309 0.000385874 0.000443861 0.000490542 0.000520875 0.000531398 0.000520876 0.000490543 0.000443862 0.000385877 0.000322314
          0.000258666 0.00019945 0.000147762 0.00010518 7.19363e-05 4.72741e-05 2.98519e-05 1.81141e-05 1.0563e-05 5.91995e-06 3.18903e-06 1.65144e-06
          8.22226e-07 3.93649e-07 1.8125e-07 8.02684e-08 0.000109455 0.000160054 0.000224867 0.000303539 0.000393669 0.000490542 0.000587285 0.000675539
          0.000746586 0.000792752 0.000808768 0.000792754 0.000746589 0.000675544 0.000587295 0.000490557 0.000393692 0.000303571 0.00022491 0.000160107
          0.000109517 7.19848e-05 4.547e-05 2.76044e-05 1.61087e-05 9.03751e-06 4.87573e-06 2.53015e-06 1.26326e-06 6.07021e-07 2.808e-07 1.25072e-07
          0.000160054 0.000234044 0.00032882 0.000443861 0.000575656 0.000717312 0.000858778 0.00098783 0.00109172 0.00115923 0.00118265 0.00115923
          0.00109173 0.000987847 0.000858806 0.000717357 0.000575724 0.000443956 0.000328947 0.000234202 0.000160239 0.000105366 6.65969e-05 4.0469e-05
          2.36497e-05 1.3296e-05 7.19449e-06 3.74869e-06 1.88191e-06 9.10733e-07 4.25063e-07 1.91388e-07 0.000224867 0.00032882 0.000461975 0.000623601
          0.000808767 0.00100779 0.00120654 0.00138785 0.00153381 0.00162866 0.00166156 0.00162867 0.00153384 0.0013879 0.00120662 0.00100791
          0.000808957 0.00062387 0.000462331 0.000329263 0.000225385 0.000148317 9.38582e-05 5.71408e-05 3.34852e-05 1.89014e-05 1.02856e-05 5.40085e-06
          2.7391e-06 1.34289e-06 6.3684e-07 2.92198e-07 0.000303539 0.000443861 0.000623601 0.000841773 0.00109172 0.00136037 0.00162866 0.0018734
          0.00207043 0.00219846 0.00224288 0.00219849 0.0020705 0.00187352 0.00162887 0.0013607 0.00109222 0.000842481 0.000624539 0.000445028
          0.000304904 0.000200939 0.00012745 7.7863e-05 4.58659e-05 2.60835e-05 1.43415e-05 7.63571e-06 3.94227e-06 1.97583e-06 9.6172e-07 4.54434e-07
          0.000393669 0.000575656 0.000808767 0.00109172 0.00141589 0.0017643 0.00211225 0.00242967 0.00268521 0.00285126 0.00290889 0.00285133
          0.00268537 0.00242997 0.00211277 0.00176513 0.00141713 0.00109347 0.000811089 0.000578546 0.000397047 0.000262369 0.000167115 0.000102749
          6.10929e-05 3.52039e-05 1.97052e-05 1.07372e-05 5.70441e-06 2.95658e-06 1.49388e-06 7.34338e-07 0.000490542 0.000717312 0.00100779 0.00136037
          0.0017643 0.00219846 0.00263203 0.00302756 0.00334598 0.00355291 0.00362474 0.00355307 0.00334636 0.00302826 0.00263323 0.00220038
          0.00176719 0.00136444 0.00101318 0.00072403 0.000498397 0.000330936 0.000212369 0.000132037 7.97716e-05 4.69846e-05 2.70594e-05 1.52705e-05
          8.44911e-06 4.57741e-06 2.42049e-06 1.24366e-06 0.000587285 0.000858778 0.00120654 0.00162866 0.00211225 0.00263203 0.00315112 0.00362466
          0.00400589 0.00425365 0.0043397 0.004254 0.0040067 0.00362619 0.00315374 0.00263623 0.00211856 0.00163756 0.00121833 0.000873453
          0.000604442 0.000404716 0.000263037 0.000166591 0.000103256 6.28819e-05 3.77242e-05 2.2304e-05 1.29674e-05 7.37998e-06 4.08674e-06 2.18784e-06
          0.000675539 0.00098783 0.00138785 0.0018734 0.00242967 0.00302756 0.00362465 0.00416936 0.00460791 0.00489296 0.00499204 0.00489366
          0.00460957 0.0041725 0.00363004 0.00303618 0.00244262 0.00189166 0.00141204 0.00101794 0.000710741 0.000482523 0.000320092 0.000208613
          0.000134241 8.55619e-05 5.40242e-05 3.36804e-05 2.06064e-05 1.22796e-05 7.07297e-06 3.9111e-06 0.000746586 0.00109172 0.00153381 0.00207043
          0.0026852 0.00334597 0.00400587 0.00460789 0.0050926 0.00540772 0.00551742 0.00540908 0.00509581 0.00461394 0.00401625 0.00336259
          0.00271016 0.00210563 0.00158045 0.00114976 0.00081444 0.000565066 0.00038656 0.000262349 0.000177309 0.000119323 7.96028e-05 5.22416e-05
          3.34237e-05 2.06655e-05 1.22564e-05 6.93234e-06 0.000792752 0.00115923 0.00162866 0.00219846 0.00285125 0.00355289 0.0042536 0.00489288
          0.00540763 0.00574241 0.00585924 0.00574487 0.00541345 0.00490383 0.0042724 0.00358298 0.00289644 0.0022622 0.0017131 0.00126432
          0.000915621 0.00065582 0.000468049 0.000334384 0.000239092 0.000170168 0.000119452 8.18362e-05 5.41855e-05 3.4397e-05 2.08076e-05 1.19424e-05
          0.000808767 0.00118265 0.00166156 0.00224287 0.00290885 0.00362467 0.00433956 0.0049918 0.00551708 0.00585889 0.00597865 0.00586309
          0.00552697 0.00501044 0.00437154 0.00367586 0.00298573 0.0023513 0.00180521 0.00136142 0.00101777 0.000760947 0.000572298 0.000433017
          0.000327578 0.000245161 0.000179361 0.00012689 8.60554e-05 5.55926e-05 3.4057e-05 1.97255e-05 0.000792752 0.00115923 0.00162866 0.00219846
          0.00285126 0.00355291 0.00425368 0.00489309 0.00540816 0.00574362 0.00586189 0.00575033 0.00542396 0.00492286 0.00430478 0.00363472
          0.00297411 0.00237173 0.00185821 0.00144491 0.00112674 0.000887694 0.000707283 0.000566258 0.000450215 0.000350752 0.000264555 0.000191365
          0.000131853 8.61349e-05 5.31844e-05 3.09758e-05 0.000746586 0.00109172 0.00153381 0.00207044 0.00268522 0.00334603 0.00400604 0.00460832
          0.00509367 0.00541022 0.00552288 0.00542028 0.00511739 0.00465302 0.00408274 0.00346883 0.00286965 0.00233054 0.0018784 0.00152058
          0.00124797 0.0010412 0.000877811 0.000738485 0.000610836 0.000490138 0.000377561 0.000277152 0.000192909 0.000126906 7.87399e-05 4.6016e-05
          0.000675539 0.000987831 0.00138785 0.00187341 0.0024297 0.00302765 0.00362491 0.00417004 0.00460957 0.00489683 0.00500049 0.00491102
          0.00464302 0.00423307 0.00373307 0.00320083 0.00268978 0.00224022 0.0018738 0.00159261 0.0013826 0.00122042 0.00108141 0.000946506
          0.0008061 0.000660233 0.000515785 0.000382236 0.000267769 0.000176926 0.000110106 6.4481e-05 0.000587285 0.000858779 0.00120654 0.00162867
          0.0021123 0.00263216 0.00315147 0.00362558 0.00400817 0.00425895 0.00435127 0.00427775 0.00405248 0.00370909 0.00329476 0.00286158
          0.00245685 0.00211461 0.00185032 0.00165998 0.00152399 0.00141464 0.00130502 0.00117652 0.0010228 0.000849412 0.000669719 0.000499359
          0.00035125 0.000232725 0.000145104 8.50876e-05 0.000490542 0.000717313 0.00100779 0.00136038 0.00176436 0.00219861 0.00263247 0.00302872
          0.00334886 0.00355959 0.00363932 0.00358298 0.003404 0.00313265 0.0028108 0.00248413 0.00219316 0.00196515 0.00180899 0.00171443
          0.00165629 0.00160263 0.00152443 0.00140373 0.00123766 0.00103738 0.000822866 0.000615977 0.000434414 0.000288331 0.000179989 0.000105631
          0.000393669 0.000575658 0.000808773 0.00109174 0.00141595 0.00176449 0.00211277 0.00243103 0.00268858 0.0028591 0.002926 0.00288645
          0.00275305 0.00255254 0.00232126 0.00209829 0.00191727 0.00179878 0.00174547 0.0017414 0.00175656 0.00175551 0.00170765 0.00159589
          0.00142061 0.00119806 0.000954087 0.000716046 0.000505843 0.000336121 0.000209983 0.000123299 0.00030354 0.000443862 0.000623607 0.000841795
          0.00109179 0.00136057 0.00162923 0.0018749 0.00207414 0.00220708 0.00226171 0.00223712 0.00214495 0.00200835 0.00185821 0.00172719
          0.00164238 0.00161833 0.00165237 0.00172418 0.00180039 0.00184341 0.00182205 0.00172033 0.00154135 0.00130524 0.00104217 0.000783482
          0.0005541 0.00036846 0.000230302 0.000135276 0.000224868 0.000328822 0.000461981 0.000623623 0.000808837 0.00100799 0.00120713 0.0013894
          0.00153764 0.00163756 0.001681 0.00166855 0.0016107 0.00152708 0.00144337 0.00138625 0.00137691 0.00142481 0.0015234 0.00164978
          0.00176923 0.0018439 0.00184326 0.00175272 0.00157733 0.00133942 0.00107135 0.000806337 0.000570688 0.000379678 0.000237393 0.000139474
          0.000160054 0.000234046 0.000328826 0.000443882 0.000575724 0.000717515 0.000859347 0.000989329 0.00109543 0.00116786 0.00120149 0.00119789
          0.00116624 0.00112277 0.00108833 0.00108413 0.00112632 0.00122042 0.00135759 0.00151437 0.0016569 0.00174913 0.00176254 0.00168423
          0.00152031 0.00129346 0.00103584 0.000780208 0.000552474 0.000367684 0.000229946 0.00013512 0.000109455 0.000160055 0.000224873 0.000303559
          0.000393731 0.000490727 0.000587803 0.000676904 0.000749964 0.000800607 0.000825923 0.000827955 0.00081444 0.000798408 0.000796292 0.000824534
          0.00089505 0.0010106 0.00116157 0.0013258 0.00147235 0.00156877 0.00158976 0.00152438 0.00137894 0.00117473 0.000941537 0.000709559
          0.000502622 0.000334584 0.000209278 0.000122988 7.19172e-05 0.000105164 0.000147753 0.000199456 0.000258712 0.000322467 0.000386317 0.000445028
          0.000493431 0.000527594 0.000546072 0.000550986 0.000548581 0.000548956 0.000564647 0.000607987 0.000687513 0.000804221 0.000948953 0.00110228
          0.00123766 0.00132757 0.00135079 0.00129841 0.00117629 0.00100302 0.000804381 0.000606423 0.000429669 0.000286067 0.000178951 0.000105174
          4.54002e-05 6.63887e-05 9.32751e-05 0.000125916 0.00016333 0.000203595 0.000243952 0.00028114 0.000311993 0.000334219 0.000347254 0.000353014
          0.000356307 0.000364648 0.000387244 0.000433017 0.000507881 0.000611858 0.000737058 0.000867593 0.000982104 0.0010586 0.00108026 0.00104019
          0.00094336 0.000804932 0.000645791 0.000486992 0.000345109 0.000229795 0.000143761 8.4496e-05 2.75367e-05 4.0267e-05 5.65748e-05 7.6374e-05
          9.90708e-05 0.000123506 0.000148017 0.000170659 0.000189578 0.000203514 0.000212369 0.000217702 0.000223027 0.000233695 0.00025618 0.000296683
          0.000359152 0.000443182 0.000542527 0.000645047 0.000734597 0.000794647 0.000812627 0.000783482 0.000711098 0.000607042 0.000487171 0.000367447
          0.000260425 0.000173422 0.0001085 6.37735e-05 1.6047e-05 2.34656e-05 3.29692e-05 4.45081e-05 5.77374e-05 7.19848e-05 8.62907e-05 9.95408e-05
          0.000110697 0.000119113 0.000124882 0.000129173 0.000134417 0.00014424 0.000162989 0.000194786 0.000242163 0.000304614 0.000377561 0.000452319
          0.000517428 0.000561203 0.000574795 0.000554697 0.000503734 0.000430171 0.000345303 0.000260479 0.00018463 0.000122956 7.69291e-05 4.52184e-05
          8.98469e-06 1.31384e-05 1.84596e-05 2.49208e-05 3.23295e-05 4.03114e-05 4.83343e-05 5.57861e-05 6.21114e-05 6.69979e-05 7.0592e-05 7.36998e-05
          7.7912e-05 8.55619e-05 9.94266e-05 0.000122114 0.000155183 0.000198189 0.000248007 0.000298817 0.000342977 0.000372722 0.000382189 0.000369079
          0.000335309 0.000286416 0.000229946 0.000173478 0.000122971 8.18968e-05 5.12416e-05 3.01201e-05 4.83327e-06 7.06777e-06 9.93039e-06 1.34064e-05
          1.73928e-05 2.16893e-05 2.60123e-05 3.00392e-05 3.34852e-05 3.62103e-05 3.83439e-05 4.04042e-05 4.3373e-05 4.86724e-05 5.79851e-05 7.28803e-05
          9.42726e-05 0.000121835 0.000153578 0.000185841 0.00021384 0.000232725 0.000238841 0.000230765 0.000209715 0.00017917 0.000143862 0.000108542
          7.69441e-05 5.12455e-05 3.20642e-05 1.88478e-05 2.49809e-06 3.653e-06 5.1326e-06 6.92934e-06 8.99017e-06 1.12121e-05 1.34501e-05 1.55407e-05
          1.73437e-05 1.88009e-05 2.00049e-05 2.12663e-05 2.31564e-05 2.64946e-05 3.2246e-05 4.13058e-05 5.41855e-05 7.06711e-05 8.95785e-05 0.000108748
          0.000125367 0.000136586 0.000140265 0.000135573 0.000123235 0.0001053 8.45567e-05 6.38005e-05 4.52292e-05 3.01238e-05 1.88487e-05 1.10797e-05
          1.24052e-06 1.81404e-06 2.5488e-06 3.4411e-06 4.46469e-06 5.56871e-06 6.68174e-06 7.72412e-06 8.62956e-06 9.37565e-06 1.00203e-05 1.07372e-05
          1.18396e-05 1.37734e-05 1.70618e-05 2.2188e-05 2.94239e-05 3.86426e-05 4.91842e-05 5.98531e-05 6.90951e-05 7.53387e-05 7.74039e-05 7.48358e-05
          6.80365e-05 5.81409e-05 4.66905e-05 3.52308e-05 2.49764e-05 1.66352e-05 1.04089e-05 6.11863e-06 5.91868e-07 8.65505e-07 1.21608e-06 1.64184e-06
          2.1303e-06 2.65729e-06 3.18903e-06 3.68812e-06 4.12429e-06 4.48955e-06 4.8164e-06 5.19592e-06 5.78966e-06 6.82646e-06 8.57412e-06 1.12793e-05
          1.5079e-05 1.99042e-05 2.54102e-05 3.09758e-05 3.57944e-05 3.90513e-05 4.01351e-05 3.88113e-05 3.52893e-05 3.01589e-05 2.42204e-05 1.82763e-05
          1.2957e-05 8.62994e-06 5.39994e-06 3.17425e-06 8.43952e-05 0.00012341 0.000173384 0.000234044 0.000303539 0.000378233 0.000452827 0.000520875
          0.000575656 0.000611253 0.000623601 0.000611253 0.000575657 0.000520876 0.000452829 0.000378236 0.000303544 0.000234051 0.000173394 0.000123421
          8.44086e-05 5.54663e-05 3.50209e-05 2.12467e-05 1.23863e-05 6.93903e-06 3.73585e-06 1.93307e-06 9.61408e-07 4.59632e-07 2.11247e-07 9.33424e-08
          0.000133688 0.00019549 0.000274654 0.000370744 0.000480828 0.000599149 0.000717312 0.000825105 0.000911882 0.00096827 0.000987831 0.000968271
          0.000911884 0.000825109 0.000717319 0.00059916 0.000480845 0.000370767 0.000274685 0.000195529 0.000133734 8.78892e-05 5.55029e-05 3.36828e-05
          1.96449e-05 1.10125e-05 5.93441e-06 3.07461e-06 1.5318e-06 7.3399e-07 3.38322e-07 1.50031e-07 0.000203468 0.000297529 0.000418012 0.000564257
          0.000731802 0.000911882 0.00109172 0.00125578 0.00138785 0.00147367 0.00150344 0.00147367 0.00138786 0.00125579 0.00109174 0.000911917
          0.000731855 0.000564332 0.000418111 0.000297652 0.000203612 0.000133846 8.45582e-05 5.13463e-05 2.99737e-05 1.68248e-05 9.08346e-06 4.71833e-06
          2.35892e-06 1.13548e-06 5.2641e-07 2.351e-07 0.000297529 0.000435072 0.000611253 0.000825105 0.0010701 0.00133343 0.00159641 0.00183631
          0.00202943 0.00215493 0.00219846 0.00215493 0.00202945 0.00183634 0.00159647 0.00133354 0.00107026 0.000825328 0.000611548 0.000435439
          0.000297958 0.000195962 0.000123896 7.53235e-05 4.40493e-05 2.479e-05 1.34332e-05 7.01323e-06 3.53002e-06 1.71409e-06 8.03366e-07 3.63539e-07
          0.000418012 0.000611253 0.000858778 0.00115923 0.00150344 0.0018734 0.00224287 0.00257991 0.00285125 0.00302756 0.00308873 0.00302759
          0.0028513 0.00258002 0.00224305 0.0018737 0.00150388 0.00115985 0.000859606 0.000612283 0.000419217 0.000275977 0.000174749 0.000106486
          6.24881e-05 3.53428e-05 1.92861e-05 1.01651e-05 5.18064e-06 2.55552e-06 1.22087e-06 5.64947e-07 0.000564257 0.000825105 0.00115923 0.0015648
          0.00202943 0.00252883 0.00302756 0.00348252 0.00384878 0.00408679 0.00416937 0.00408685 0.00384893 0.0034828 0.00302804 0.0025296
          0.0020306 0.00156644 0.00116141 0.000827819 0.000567431 0.000374229 0.00023764 0.000145441 8.58977e-05 4.90316e-05 2.70972e-05 1.45243e-05
          7.56247e-06 3.82885e-06 1.88534e-06 9.0212e-07 0.000731802 0.0010701 0.00150344 0.00202943 0.00263203 0.00327971 0.00392653 0.00451659
          0.00499161 0.0053003 0.00540743 0.00530046 0.00499198 0.00451729 0.00392773 0.00328164 0.00263492 0.00203351 0.00150884 0.00107682
          0.000739657 0.000489455 0.00031244 0.000192733 0.000115142 6.67885e-05 3.77128e-05 2.07767e-05 1.11834e-05 5.88198e-06 3.01852e-06 1.50705e-06
          0.000911882 0.00133343 0.0018734 0.00252883 0.00327971 0.00408677 0.00489276 0.00562802 0.00621995 0.00660463 0.00673818 0.006605
          0.00622082 0.00562965 0.00489555 0.00409125 0.00328643 0.0025383 0.00188595 0.00134905 0.000930145 0.000619207 0.000398928 0.000249468
          0.000151951 9.04728e-05 5.2818e-05 3.02862e-05 1.70532e-05 9.40634e-06 5.06102e-06 2.64196e-06 0.00109172 0.00159641 0.00224287 0.00302756
          0.00392653 0.00489276 0.0058577 0.00673799 0.00744668 0.00790728 0.00806729 0.00790808 0.00744857 0.00674154 0.00586381 0.00490253
          0.0039412 0.00304825 0.00227028 0.00163053 0.00113161 0.000761122 0.000498028 0.000318464 0.000199944 0.000123733 7.5623e-05 4.56105e-05
          2.70475e-05 1.56787e-05 8.82338e-06 4.78802e-06 0.00125578 0.0018363 0.00257991 0.00348252 0.00451658 0.00562802 0.00673798 0.00775057
          0.00856581 0.00909575 0.00928004 0.00909739 0.00856968 0.00775786 0.0067505 0.00564806 0.00454669 0.00352498 0.00263617 0.00190631
          0.00133763 0.000914998 0.000613621 0.00040582 0.000265954 0.000173089 0.000111705 7.11225e-05 4.43425e-05 2.68482e-05 1.56646e-05 8.7498e-06
          0.00138785 0.00202943 0.00285124 0.00384878 0.0049916 0.00621993 0.00744664 0.00856577 0.00946685 0.0100527 0.0102569 0.0100559
          0.00947432 0.00857983 0.00747078 0.00625857 0.00504963 0.00393062 0.00295968 0.00216438 0.00154562 0.00108515 0.000754429 0.000522426
          0.000361235 0.000248867 0.000169715 0.000113523 7.37682e-05 4.61669e-05 2.76344e-05 1.57382e-05 0.00147367 0.00215492 0.00302756 0.00408678
          0.00530027 0.00660457 0.00790716 0.00909556 0.0100525 0.0106751 0.0108926 0.0106808 0.0100661 0.00912103 0.00795086 0.00667454
          0.00540535 0.00423498 0.0032239 0.00239928 0.00175935 0.00128203 0.000934969 0.0006845 0.000501729 0.00036532 0.000261417 0.000181841
          0.000121797 7.79771e-05 4.74631e-05 2.73635e-05 0.00150344 0.00219846 0.00308872 0.00416934 0.00540735 0.00673801 0.00806697 0.0092795
          0.0102561 0.0108918 0.0111151 0.0109016 0.0102791 0.00932282 0.00814131 0.00685704 0.0055861 0.00442144 0.00342271 0.00261412
          0.00198939 0.00152155 0.00117426 0.000911951 0.00070637 0.00053907 0.00040038 0.000286423 0.000195812 0.000127218 7.82503e-05 4.54516e-05
          0.00147367 0.00215492 0.00302756 0.00408678 0.00530029 0.00660463 0.00790735 0.00909605 0.0100538 0.0106779 0.0108988 0.0106935
          0.0100905 0.00916529 0.00802614 0.00679483 0.00558594 0.00448964 0.00356127 0.00281915 0.00225022 0.00182115 0.0014912 0.00122362
          0.000992605 0.000785189 0.000598791 0.000436504 0.00030238 0.000198272 0.000122741 7.16174e-05 0.00138785 0.00202943 0.00285125 0.00384879
          0.00499165 0.00622007 0.00744703 0.00856678 0.00946935 0.0100586 0.0102696 0.0100819 0.0095245 0.0086707 0.00762536 0.00650559
          0.00542045 0.00445356 0.00365245 0.00302655 0.0025536 0.0021922 0.00189662 0.00162948 0.00136921 0.00111104 0.000862489 0.000636456
          0.000444583 0.000293183 0.000182213 0.00010661 0.00125578 0.00183631 0.00257992 0.00348254 0.00451666 0.00562823 0.00673857 0.00775213
          0.00856968 0.00910475 0.00929971 0.00913774 0.00864746 0.00789869 0.00699006 0.00603088 0.00512136 0.0043354 0.00370979 0.00324246
          0.00289974 0.00263065 0.00238373 0.00212147 0.00182807 0.00150924 0.00118533 0.000881539 0.000619014 0.000409662 0.000255223 0.000149579
          0.00109172 0.00159641 0.00224288 0.00302759 0.00392663 0.00489305 0.00585852 0.00674013 0.00745198 0.00791961 0.0080942 0.00796331
          0.00755501 0.00693429 0.00619168 0.00542647 0.00472773 0.00415744 0.00373972 0.00345926 0.00326962 0.00310927 0.00292071 0.00266661
          0.00233796 0.00195247 0.00154506 0.0011548 0.000813578 0.000539621 0.000336698 0.000197536 0.000911883 0.00133343 0.00187341 0.00252887
          0.00327983 0.00408714 0.00489378 0.00563072 0.00622663 0.00662015 0.00677207 0.00667454 0.00635485 0.00587236 0.00530841 0.00475099
          0.00427683 0.00393499 0.00373626 0.00365179 0.00362232 0.00357599 0.00344957 0.00320625 0.00284413 0.00239322 0.00190312 0.00142697
          0.00100745 0.000669153 0.00041792 0.000245349 0.000731803 0.00107011 0.00150345 0.00202948 0.00263217 0.00328014 0.00392773 0.00451975
          0.00499945 0.00531852 0.00544722 0.00538211 0.00514936 0.00480226 0.00441248 0.00405627 0.00379778 0.0036734 0.00368134 0.00378055
          0.00390063 0.0039611 0.00389429 0.00366438 0.00327612 0.00277051 0.00221022 0.00166067 0.00117404 0.000780512 0.000487769 0.000286477
          0.000564258 0.000825109 0.00115924 0.00156485 0.00202959 0.0025293 0.00302888 0.003486 0.0038574 0.00410683 0.00421314 0.00417666
          0.00402205 0.00379627 0.00356127 0.0033817 0.00330975 0.00337034 0.00355119 0.00380194 0.00404453 0.00419308 0.00417771 0.00396429
          0.003563 0.00302316 0.00241687 0.00181842 0.00128672 0.00085593 0.000535116 0.000314372 0.000418013 0.000611257 0.000858793 0.00115928
          0.0015036 0.00187389 0.00224423 0.00258351 0.00286014 0.00304825 0.00313392 0.0031203 0.00303002 0.00290363 0.00279353 0.00275335
          0.0028244 0.00302209 0.00332666 0.00368259 0.00400876 0.00421832 0.00424224 0.00404883 0.00365204 0.00310565 0.00248634 0.0018724
          0.0013257 0.000882212 0.000551696 0.000324172 0.00029753 0.000435076 0.000611267 0.000825155 0.00107026 0.0013339 0.00159773 0.00183979
          0.00203806 0.00217498 0.00224227 0.00224482 0.0022027 0.00215006 0.00213012 0.00218631 0.00235043 0.00263065 0.00300321 0.00341191
          0.00377781 0.00401783 0.00406708 0.00389719 0.0035239 0.00300126 0.00240509 0.00181233 0.00128369 0.000854487 0.000534455 0.000314081
          0.000203469 0.000297532 0.000418026 0.000564303 0.000731946 0.000912311 0.00109293 0.00125895 0.0013957 0.00149193 0.00154333 0.00155552
          0.00154562 0.00154146 0.00157768 0.00168844 0.00189755 0.00220822 0.00259591 0.00300797 0.0033723 0.00361396 0.00367515 0.00353146
          0.00319866 0.00272714 0.00218689 0.00164861 0.00116805 0.000777655 0.00048646 0.000285901 0.000133689 0.000195493 0.000274665 0.000370782
          0.000480952 0.000599517 0.000718342 0.000827819 0.0009186 0.000983891 0.00102195 0.00103828 0.00104683 0.00106946 0.00113297 0.00126337
          0.00147794 0.0017769 0.00213751 0.00251385 0.00284413 0.00306468 0.00312678 0.00301047 0.00273004 0.00232934 0.00186876 0.00140921
          0.000998631 0.000664945 0.000415991 0.0002445 8.43959e-05 0.000123412 0.000173394 0.000234075 0.000303638 0.000378528 0.000453655 0.000523056
          0.000581055 0.000623805 0.000651017 0.000667506 0.000684087 0.000717219 0.000786819 0.000911951 0.00110474 0.00136392 0.00167023 0.00198627
          0.0022623 0.00244741 0.00250289 0.00241319 0.00219027 0.00186979 0.00150057 0.00113181 0.000802162 0.000534174 0.000334201 0.000196436
          5.11888e-05 7.48538e-05 0.00010517 0.000141979 0.00018418 0.000229633 0.000275278 0.000317573 0.000353228 0.000380218 0.000398928 0.000413206
          0.000431001 0.000464135 0.000526764 0.000632281 0.000788887 0.000994833 0.00123504 0.00148101 0.00169515 0.00183918 0.00188409 0.00181842
          0.00165147 0.00141036 0.00113214 0.000854047 0.000605361 0.000403148 0.000252237 0.000148264 2.98302e-05 4.36211e-05 6.12884e-05 8.27407e-05
          0.00010734 0.000133846 0.000160497 0.000185273 0.000206358 0.000222769 0.000235089 0.00024616 0.000261507 0.000289201 0.000338827 0.000419367
          0.000536142 0.000687505 0.000862489 0.00104074 0.00119558 0.00129992 0.00133334 0.00128783 0.00117012 0.000999564 0.000802522 0.000605462
          0.000429192 0.00028584 0.000178847 0.000105128 1.67019e-05 2.44236e-05 3.43158e-05 4.63282e-05 6.01053e-05 7.49571e-05 8.99091e-05 0.000103858
          0.000115846 0.000125442 0.000133185 0.000141024 0.000152584 0.000173089 0.000208702 0.000265155 0.000345748 0.000449188 0.00056803 0.000688645
          0.000793256 0.000863852 0.000886879 0.00085708 0.000779003 0.000665593 0.000534455 0.000403252 0.000285868 0.000190393 0.00011913 7.00268e-05
          8.98474e-06 1.31386e-05 1.84603e-05 2.4923e-05 3.23364e-05 4.0332e-05 4.8392e-05 5.59383e-05 6.24881e-05 6.78737e-05 7.25049e-05 7.76249e-05
          8.54778e-05 9.92618e-05 0.000122731 0.000159355 0.000211087 0.000277026 0.00035245 0.000428798 0.00049494 0.000539621 0.000554386 0.000535978
          0.000487273 0.000416397 0.000334389 0.000252315 0.000178875 0.000119137 7.4546e-05 4.382e-05 4.64378e-06 6.79074e-06 9.54137e-06 1.2882e-05
          1.67147e-05 2.08503e-05 2.50246e-05 2.89463e-05 3.23826e-05 3.52795e-05 3.79087e-05 4.10119e-05 4.58976e-05 5.44149e-05 6.87262e-05 9.08201e-05
          0.000121797 0.000161086 0.000205884 0.000251144 0.000290322 0.000316808 0.000325642 0.000314925 0.000286359 0.000244735 0.000196549 0.000148314
          0.000105148 7.00336e-05 4.38217e-05 2.57598e-05 2.30604e-06 3.3722e-06 4.73817e-06 6.39722e-06 8.30098e-06 1.03561e-05 1.24329e-05 1.43903e-05
          1.61201e-05 1.7611e-05 1.90251e-05 2.07767e-05 2.35838e-05 2.84553e-05 3.65672e-05 4.89971e-05 6.63329e-05 8.82432e-05 0.000113169 0.000138317
          0.000160073 0.000174788 0.00017973 0.000173853 0.000158105 0.000135134 0.000108533 8.19009e-05 5.80652e-05 3.86748e-05 2.42e-05 1.42256e-05
          1.10025e-06 1.60893e-06 2.26068e-06 3.05229e-06 3.96081e-06 4.94194e-06 5.93441e-06 6.87238e-06 7.70744e-06 8.44033e-06 9.15991e-06 1.00827e-05
          1.15795e-05 1.41692e-05 1.84551e-05 2.49886e-05 3.40674e-05 4.55134e-05 5.85138e-05 7.16174e-05 8.29485e-05 9.06156e-05 9.32026e-05 9.01695e-05
          8.20096e-05 7.00988e-05 5.6302e-05 4.24874e-05 3.01228e-05 2.00637e-05 1.25546e-05 7.38005e-06 0.000150733 0.000220415 0.000309671 0.000418012
          0.000542133 0.000675539 0.000808767 0.000930303 0.00102814 0.00109172 0.00111378 0.00109172 0.00102815 0.000930306 0.000808771 0.000675546
          0.000542143 0.000418027 0.000309691 0.00022044 0.000150762 9.90708e-05 6.25546e-05 3.79533e-05 2.21277e-05 1.23979e-05 6.67603e-06 3.4553e-06
          1.71907e-06 8.22226e-07 3.78112e-07 1.67193e-07 0.000238772 0.000349153 0.000490542 0.000662162 0.000858778 0.0010701 0.00128115 0.00147367
          0.00162866 0.00172937 0.0017643 0.00172937 0.00162866 0.00147368 0.00128116 0.00107013 0.000858814 0.000662214 0.00049061 0.000349238
          0.000238871 0.000156993 9.91507e-05 6.01786e-05 3.51046e-05 1.96842e-05 1.06115e-05 5.50072e-06 2.74248e-06 1.31535e-06 6.07021e-07 2.69587e-07
          0.000363402 0.000531398 0.000746586 0.00100779 0.00130703 0.00162866 0.00194986 0.00224287 0.00247875 0.00263203 0.0026852 0.00263204
          0.00247877 0.0022429 0.0019499 0.00162873 0.00130714 0.00100795 0.000746802 0.000531666 0.000363717 0.000239117 0.000151089 9.17693e-05
          5.35915e-05 3.00987e-05 1.62628e-05 8.45684e-06 4.23419e-06 2.04204e-06 9.48973e-07 4.25063e-07 0.000531398 0.000777055 0.00109172 0.00147367
          0.00191125 0.00238156 0.00285124 0.00327971 0.00362464 0.00384878 0.00392654 0.0038488 0.00362469 0.0032798 0.00285139 0.00238179
          0.00191159 0.00147416 0.00109237 0.000777857 0.000532336 0.000350183 0.000221478 0.000134719 7.88447e-05 4.44222e-05 2.41098e-05 1.26146e-05
          6.36766e-06 3.10334e-06 1.46107e-06 6.64712e-07 0.000746586 0.00109172 0.00153381 0.00207043 0.0026852 0.00334597 0.00400585 0.00460782
          0.00509244 0.00540734 0.0055166 0.0054074 0.00509256 0.00460806 0.00400625 0.00334661 0.00268617 0.00207179 0.00153562 0.00109397
          0.000749217 0.000493431 0.000312652 0.000190715 0.000112086 6.35339e-05 3.47754e-05 1.8404e-05 9.42926e-06 4.68179e-06 2.25408e-06 1.05226e-06
          0.00100779 0.00147367 0.00207043 0.00279479 0.00362464 0.00451658 0.00540733 0.00621992 0.00687408 0.00729917 0.00744667 0.00729931
          0.00687441 0.00622053 0.00540839 0.00451828 0.00362719 0.00279838 0.00207519 0.0014796 0.00101472 0.000669775 0.000425867 0.00026115
          0.00015468 8.86531e-05 4.92651e-05 2.65965e-05 1.39717e-05 7.14813e-06 3.56107e-06 1.72514e-06 0.00130703 0.00191125 0.0026852 0.00362464
          0.00470091 0.00585769 0.00701293 0.0080668 0.00891522 0.00946656 0.00965791 0.00946691 0.00891603 0.00806833 0.00701556 0.00586189
          0.00470722 0.00363354 0.00269699 0.00192592 0.00132418 0.000877621 0.000561573 0.000347663 0.000208776 0.000121962 6.9506e-05 3.87305e-05
          2.11245e-05 1.12719e-05 5.8708e-06 2.9736e-06 0.00162866 0.00238156 0.00334597 0.00451658 0.00585769 0.00729914 0.00873866 0.0100519
          0.0111091 0.0117962 0.0120347 0.011797 0.011111 0.0100554 0.00874476 0.00730891 0.00587236 0.00453728 0.00337338 0.00241568
          0.00166855 0.00111391 0.00072074 0.000453545 0.000278662 0.000167808 9.93326e-05 5.78648e-05 3.31328e-05 1.85821e-05 1.01543e-05 5.3742e-06
          0.00194986 0.00285124 0.00400585 0.00540733 0.00701293 0.00873866 0.0104621 0.0120343 0.0133001 0.0141228 0.0144087 0.0141246
          0.0133042 0.0120421 0.0104754 0.00876 0.00704498 0.00545253 0.00406573 0.00292577 0.00203698 0.00137684 0.000907495 0.000586232
          0.000372989 0.000234578 0.000145982 8.97019e-05 5.41508e-05 3.18949e-05 1.81946e-05 9.98344e-06 0.00224287 0.00327971 0.00460782 0.00621991
          0.0080668 0.0100519 0.0120343 0.0138428 0.015299 0.0162455 0.0165749 0.0162491 0.0153074 0.0138588 0.0120616 0.0100956
          0.00813255 0.00631266 0.00473069 0.00343262 0.00242164 0.00167001 0.00113288 0.000760601 0.000507593 0.000337018 0.000221907 0.000143935
          9.11863e-05 5.59381e-05 3.29752e-05 1.85655e-05 0.00247875 0.00362464 0.00509243 0.00687407 0.00891519 0.011109 0.0133 0.0152989
          0.0169083 0.017955 0.01832 0.0179619 0.0169246 0.0153296 0.0133527 0.0111934 0.00904195 0.00705284 0.00532927 0.00391939
          0.00282335 0.00200712 0.00141862 0.00100206 0.000707996 0.000498215 0.00034629 0.000235345 0.000154862 9.78498e-05 5.89894e-05 3.37722e-05
          0.00263203 0.00384878 0.00540733 0.00729914 0.00946649 0.011796 0.0141225 0.0162451 0.0179545 0.0190667 0.0194561 0.0190792
          0.017984 0.0163008 0.014218 0.0119489 0.00969601 0.00762285 0.00583618 0.00438249 0.00325601 0.00241467 0.00179878 0.00134747
          0.00100985 0.000749768 0.000545077 0.000383786 0.000259379 0.000167145 0.000102214 5.91269e-05 0.0026852 0.00392653 0.00551657 0.0074466
          0.00965775 0.0120344 0.014408 0.0165737 0.0183183 0.0194543 0.0198545 0.0194756 0.0183685 0.0166684 0.0145704 0.0122943
          0.0100482 0.00799724 0.00624607 0.00483441 0.00374662 0.00293005 0.00231653 0.00184129 0.00145509 0.0011283 0.000848076 0.000611943
          0.000420909 0.000274633 0.000169431 9.86218e-05 0.00263203 0.00384878 0.00540734 0.00729916 0.00946654 0.0117962 0.0141229 0.0162462
          0.0179572 0.0190729 0.0194696 0.0191069 0.0180374 0.0163974 0.0143824 0.0122116 0.0100904 0.00817908 0.00657308 0.00529957
          0.00432818 0.00359222 0.00301371 0.00252502 0.00208203 0.00166685 0.00128197 0.000940022 0.000653809 0.000429892 0.000266637 0.000155786
          0.00247875 0.00362464 0.00509244 0.0068741 0.00891529 0.0111093 0.0133009 0.0153011 0.0169138 0.0179676 0.0183477 0.0180187
          0.0170342 0.0155281 0.0136904 0.011733 0.00985188 0.00819503 0.00684242 0.00580254 0.00502498 0.00442514 0.00391339 0.00342008
          0.00290963 0.00238137 0.00185945 0.00137754 0.000964796 0.000637383 0.00039662 0.000232255 0.00224287 0.00327972 0.00460784 0.00621996
          0.00806695 0.0100523 0.0120356 0.0138463 0.0153074 0.0162652 0.0166179 0.0163373 0.0154773 0.0141664 0.0125849 0.0109318
          0.00938775 0.00808277 0.00707571 0.00635104 0.00583362 0.00541734 0.00499916 0.00450793 0.00391957 0.00325544 0.00256692 0.00191405
          0.00134638 0.00089208 0.000556219 0.000326165 0.00194986 0.00285125 0.00400587 0.0054074 0.00701314 0.00873929 0.0104639 0.012039
          0.0133117 0.0141497 0.0144675 0.0142452 0.0135367 0.0124631 0.0111916 0.00990439 0.00876292 0.00787521 0.00727527 0.0069201
          0.00670683 0.00650566 0.00619912 0.00571506 0.00504284 0.00422891 0.00335552 0.00251239 0.00177209 0.00117629 0.000734339 0.000430983
          0.00162866 0.00238157 0.00334599 0.00451667 0.00585796 0.00729993 0.0087409 0.0100578 0.0111237 0.0118301 0.0121088 0.0119489
          0.0114037 0.0105856 0.00964653 0.00874993 0.00803559 0.00758791 0.00741482 0.00744533 0.00754881 0.00757212 0.00738395 0.00691175
          0.00615892 0.00519746 0.00414077 0.0031085 0.00219636 0.0014596 0.000911921 0.000535496 0.00130703 0.00191125 0.00268523 0.00362474
          0.00470122 0.00585863 0.00701556 0.00807372 0.00893233 0.00950635 0.00974482 0.00964524 0.00925977 0.00869077 0.00807435 0.00755384
          0.00724713 0.00721539 0.00744217 0.0078314 0.00822838 0.0084604 0.00838506 0.00793044 0.00711298 0.00602744 0.00481469 0.00362058
          0.00256104 0.00170322 0.00106466 0.000625406 0.00100779 0.00147368 0.00207046 0.00279489 0.00362499 0.00451761 0.00541022 0.00622752
          0.00689291 0.00734294 0.00754227 0.00749547 0.00725253 0.00690522 0.00657308 0.00637944 0.00642112 0.00673846 0.00729494 0.00797568
          0.00860941 0.00901091 0.00903178 0.00860229 0.00774937 0.00658474 0.00526901 0.00396667 0.0028079 0.00186831 0.00116824 0.000686407
          0.000746588 0.00109173 0.00153384 0.00207054 0.00268556 0.00334703 0.00400883 0.00461568 0.00511187 0.00545253 0.00561529 0.00560991
          0.00548291 0.00531488 0.0052086 0.00526796 0.00557045 0.00613928 0.00692417 0.00780013 0.00858951 0.00910431 0.00919687 0.00880159
          0.00795238 0.00676969 0.00542332 0.00408589 0.00289371 0.00192603 0.0012046 0.000707876 0.0005314 0.000777063 0.00109175 0.00147378
          0.00191159 0.00238259 0.00285413 0.00328732 0.00364348 0.00389259 0.00402222 0.00404512 0.0040031 0.00396502 0.00401699 0.00424442
          0.00470773 0.00541734 0.00631623 0.00727907 0.00813302 0.0086979 0.00883418 0.00848244 0.00767953 0.00654563 0.00524798 0.0039558
          0.0028025 0.00186573 0.00116706 0.000685887 0.000363404 0.000531406 0.000746615 0.00100788 0.00130734 0.00162959 0.00195249 0.0022498
          0.00249591 0.00267192 0.00277233 0.0028108 0.00282335 0.00286685 0.00301128 0.00332481 0.00385325 0.00459854 0.00550356 0.00645155
          0.00728476 0.00784039 0.00799366 0.00769305 0.00697463 0.00594998 0.00477302 0.00359905 0.00255034 0.00169812 0.00106233 0.000624376
          0.000238774 0.00034916 0.000490567 0.000662247 0.000859047 0.00107091 0.0012834 0.0014796 0.00164333 0.00176349 0.00183883 0.00188228
          0.0019234 0.00200739 0.00218903 0.0025209 0.00303668 0.0037335 0.0045594 0.00541293 0.00615892 0.0066589 0.00680745 0.00656208
          0.00595516 0.00508337 0.0040794 0.00307678 0.00218061 0.00145209 0.000908476 0.000533978 0.000150735 0.00022042 0.000309691 0.00041808
          0.000542349 0.000676184 0.000810575 0.000935067 0.00103994 0.00111914 0.00117366 0.00121459 0.00126498 0.00135916 0.00153827 0.00184129
          0.00229213 0.0028859 0.00357909 0.00428927 0.00490771 0.00532355 0.00545288 0.00526243 0.00477907 0.00408123 0.00327607 0.00247133
          0.0017517 0.00116656 0.000729879 0.000429019 9.14253e-05 0.000133692 0.00018784 0.000253588 0.000328983 0.000410222 0.000491907 0.000567854
          0.000632501 0.000682857 0.00072074 0.000754908 0.000802374 0.000887974 0.0010412 0.00128969 0.00164978 0.00211639 0.00265571 0.00320502
          0.00368218 0.00400374 0.00410678 0.00396667 0.00360416 0.00307884 0.00247192 0.00186494 0.001322 0.000880446 0.000550886 0.000323816
          5.32781e-05 7.79096e-05 0.000109465 0.000147785 0.000191735 0.000239117 0.00028683 0.00033137 0.000369714 0.000400548 0.000425721 0.000451641
          0.000490171 0.000558369 0.000676339 0.000862752 0.00112832 0.00146871 0.00185945 0.00225581 0.0025995 0.00283149 0.00290735 0.00280988
          0.00255404 0.00218227 0.00175235 0.00132218 0.000937308 0.000624267 0.000390608 0.000229607 2.98304e-05 4.36218e-05 6.12907e-05 8.27483e-05
          0.000107364 0.000133918 0.000160699 0.000185805 0.000207673 0.000225826 0.000241766 0.00025986 0.000287915 0.000337018 0.000420167 0.000549348
          0.000731267 0.000962676 0.00122703 0.00149441 0.00172598 0.00188246 0.00193436 0.00187036 0.00170052 0.00145324 0.00116706 0.000880632
          0.000624317 0.000415821 0.000260187 0.000152945 1.60471e-05 2.34663e-05 3.29716e-05 4.45161e-05 5.77628e-05 7.20607e-05 8.65036e-05 0.000100102
          0.000112086 0.00012234 0.000131932 0.000143639 0.0001623 0.000194729 0.000248875 0.00033203 0.000448191 0.000595161 0.000762473 0.000931349
          0.00107747 0.00117629 0.00120941 0.00116978 0.00106378 0.000909202 0.000730214 0.000551026 0.000390658 0.0002602 0.000162814 9.57078e-05
          8.29401e-06 1.21287e-05 1.70417e-05 2.30093e-05 2.98582e-05 3.72549e-05 4.47381e-05 5.18132e-05 5.81185e-05 6.36662e-05 6.91382e-05 7.61869e-05
          8.76379e-05 0.000107442 0.000140191 0.000190083 0.000259379 0.000346717 0.000445893 0.000545846 0.000632273 0.000690756 0.000710501 0.000687394
          0.000625195 0.000534398 0.00042922 0.000323905 0.000229643 0.000152958 9.57109e-05 5.62625e-05 4.11869e-06 6.02295e-06 8.46282e-06 1.14266e-05
          1.48287e-05 1.85049e-05 2.22295e-05 2.57645e-05 2.89469e-05 3.18159e-05 3.47703e-05 3.87305e-05 4.5249e-05 5.64854e-05 7.49437e-05 0.000102905
          0.000141582 0.000190195 0.000245297 0.000300769 0.000348713 0.000381169 0.000392185 0.000379499 0.000345198 0.000295085 0.000237018 0.000178867
          0.000126816 8.44687e-05 5.28554e-05 3.10706e-05 1.96509e-06 2.87365e-06 4.03779e-06 5.45198e-06 7.07564e-06 8.83091e-06 1.06115e-05 1.2307e-05
          1.38466e-05 1.52626e-05 1.67702e-05 1.88498e-05 2.2304e-05 2.82448e-05 3.79592e-05 5.26169e-05 7.28344e-05 9.81957e-05 0.000126906 0.000155786
          0.000180738 0.000197635 0.000203391 0.000196838 0.000179061 0.000153074 0.000122956 9.27911e-05 6.57892e-05 4.38208e-05 2.74206e-05 1.6119e-05
          0.000258659 0.000378233 0.000531398 0.000717312 0.000930303 0.00115923 0.00138785 0.00159641 0.0017643 0.0018734 0.00191125 0.0018734
          0.00176431 0.00159641 0.00138786 0.00115924 0.000930325 0.000717343 0.000531439 0.000378284 0.000258719 0.000170017 0.000107355 6.51389e-05
          3.79812e-05 2.12833e-05 1.14629e-05 5.93441e-06 2.95355e-06 1.41335e-06 6.50348e-07 2.8779e-07 0.000409735 0.000599149 0.000841773 0.00113627
          0.00147367 0.0018363 0.00219846 0.00252883 0.00279479 0.00296761 0.00302756 0.00296761 0.0027948 0.00252884 0.00219849 0.00183635
          0.00147374 0.00113638 0.000841913 0.000599323 0.000409938 0.000269438 0.000170181 0.000103303 6.02729e-05 3.38066e-05 1.82322e-05 9.45651e-06
          4.71833e-06 2.26529e-06 1.04674e-06 4.65607e-07 0.000623601 0.000911882 0.00128115 0.00172937 0.00224287 0.00279479 0.00334597 0.00384878
          0.00425356 0.00451658 0.00460783 0.0045166 0.00425359 0.00384883 0.00334606 0.00279494 0.0022431 0.0017297 0.00128159 0.000912433
          0.000624246 0.000410443 0.00025939 0.000157593 9.2069e-05 5.17398e-05 2.79796e-05 1.45667e-05 7.30472e-06 3.53002e-06 1.64463e-06 7.38925e-07
          0.000911882 0.00133343 0.0018734 0.00252883 0.00327971 0.00408677 0.00489275 0.00562801 0.00621991 0.00660454 0.00673797 0.00660458
          0.00622 0.00562818 0.00489305 0.00408724 0.00328042 0.00252982 0.00187472 0.00133508 0.000913807 0.000601263 0.000380414 0.000231524
          0.000135613 7.64983e-05 4.15891e-05 2.18102e-05 1.10429e-05 5.40256e-06 2.55552e-06 1.16905e-06 0.00128115 0.0018734 0.00263203 0.00355287
          0.00460782 0.0057417 0.00687406 0.00790706 0.00873866 0.00927904 0.00946653 0.00927915 0.00873891 0.00790754 0.00687489 0.00574302
          0.00460981 0.00355567 0.00263574 0.00187802 0.00128654 0.000847702 0.000537515 0.000328238 0.000193223 0.00010978 6.02821e-05 3.20399e-05
          1.65058e-05 8.25053e-06 4.00353e-06 1.88534e-06 0.00172937 0.00252883 0.00355287 0.00479587 0.00621991 0.00775049 0.00927902 0.0106734
          0.011796 0.0125254 0.0127786 0.0125257 0.0117966 0.0106747 0.0092812 0.00775397 0.00622514 0.00480325 0.00356264 0.00254099
          0.00174359 0.0011519 0.000733429 0.000450693 0.00026776 0.000154121 8.61393e-05 4.68476e-05 2.4832e-05 1.28368e-05 6.46785e-06 3.17024e-06
          0.00224287 0.00327971 0.00460782 0.00621991 0.00806679 0.0100518 0.0120342 0.0138427 0.0152986 0.0162447 0.0165731 0.0162454
          0.0153003 0.0138458 0.0120396 0.0100605 0.00807974 0.00623817 0.00463202 0.00330982 0.00227807 0.00151233 0.000970193 0.00060292
          0.000364023 0.000214216 0.000123233 6.94511e-05 3.83696e-05 2.07547e-05 1.0958e-05 5.62219e-06 0.00279479 0.00408677 0.0057417 0.00775049
          0.0100518 0.0125254 0.0149956 0.0172491 0.0190633 0.0202424 0.0206519 0.020244 0.0190672 0.0172564 0.0150081 0.0125454
          0.0100819 0.00779295 0.00579795 0.00415678 0.00287663 0.0019262 0.00125198 0.000793001 0.000491583 0.000299418 0.000179663 0.000106247
          6.17847e-05 3.51701e-05 1.94794e-05 1.043e-05 0.00334597 0.00489275 0.00687406 0.00927902 0.0120342 0.0149956 0.017953 0.020651
          0.0228231 0.024235 0.0247258 0.0242386 0.0228316 0.0206669 0.0179804 0.0150394 0.0121 0.00937176 0.00699693 0.00504567
          0.00352474 0.0023948 0.00159043 0.00103812 0.000669315 0.000427566 0.000270617 0.00016911 0.000103688 6.1903e-05 3.57096e-05 1.97697e-05
          0.00384878 0.00562801 0.00790706 0.0106734 0.0138427 0.0172491 0.020651 0.0237545 0.0262533 0.0278778 0.0284434 0.0278852
          0.0262706 0.0237872 0.0207071 0.0173389 0.0139776 0.0108637 0.00815916 0.00594176 0.00421559 0.0029317 0.00201207 0.00137114
          0.000931076 0.000629683 0.000422061 0.000278142 0.000178565 0.000110704 6.57936e-05 3.72715e-05 0.00425356 0.00621991 0.00873865 0.0117959
          0.0152985 0.0190632 0.022823 0.0262531 0.0290151 0.0308115 0.0314387 0.0308257 0.0290485 0.0263161 0.0229311 0.0192364
          0.0155586 0.0121628 0.0092246 0.00682469 0.00496062 0.00357134 0.00256551 0.00184666 0.00133066 0.000953934 0.00067378 0.000463896
          0.000308321 0.000196273 0.000118975 6.83872e-05 0.00451658 0.00660453 0.00927902 0.0125254 0.0162446 0.0202421 0.0242345 0.027877
          0.0308106 0.0327198 0.0333894 0.0327455 0.0308712 0.0279911 0.0244303 0.0205557 0.0167155 0.0131896 0.010159 0.00769964
          0.0057969 0.00437376 0.0033242 0.00254243 0.00194248 0.00146586 0.00107939 0.000767303 0.000522192 0.000338179 0.000207539 0.000120355
          0.00460782 0.00673795 0.00946647 0.0127784 0.0165728 0.0206511 0.0247244 0.028441 0.0314352 0.0333858 0.0340749 0.0334295
          0.0315382 0.0286352 0.0250575 0.0211845 0.0173739 0.0139083 0.0109633 0.0086008 0.00678572 0.00541951 0.00437913 0.00355119
          0.00285344 0.00224109 0.00170032 0.00123504 0.000853427 0.000558634 0.000345414 0.000201374 0.00451658 0.00660453 0.00927903 0.0125254
          0.0162447 0.0202424 0.0242353 0.0278792 0.030816 0.0327325 0.0334171 0.0328023 0.0309807 0.0281895 0.0247677 0.0210948
          0.0175248 0.0143309 0.011671 0.00958136 0.00799686 0.00678994 0.00581707 0.00495861 0.00414244 0.00334758 0.0025914 0.00190862
          0.00133151 0.000877301 0.000544913 0.000318687 0.00425356 0.00621992 0.00873867 0.011796 0.0152987 0.0190638 0.0228247 0.0262576
          0.0290263 0.0308375 0.0314955 0.0309424 0.0292734 0.0267233 0.0236239 0.0203434 0.0172205 0.0145064 0.0123294 0.0106887
          0.00947807 0.00853279 0.00768445 0.00680811 0.00584811 0.00481792 0.00377858 0.00280752 0.0019702 0.00130332 0.000811749 0.000475648
          0.00384878 0.00562802 0.00790709 0.0106735 0.013843 0.01725 0.0206536 0.0237615 0.0262706 0.0279182 0.0285316 0.028066
          0.0266192 0.0244183 0.0217807 0.0190546 0.0165531 0.0144957 0.0129708 0.01193 0.0112165 0.0106207 0.00994516 0.00906015
          0.007932 0.00661789 0.00523372 0.00391018 0.00275406 0.00182636 0.00113942 0.000668424 0.00334597 0.00489277 0.0068741 0.00927915
          0.0120347 0.0149969 0.0179567 0.0206606 0.0228469 0.0242902 0.0248464 0.0244861 0.0233086 0.0215308 0.0194498 0.0173875
          0.015625 0.0143428 0.0135825 0.0132415 0.0131066 0.0129185 0.0124481 0.0115618 0.0102512 0.0086234 0.00685616 0.00514014
          0.00362867 0.00241005 0.00150514 0.000883605 0.00279479 0.00408679 0.00574175 0.00775066 0.0100524 0.012527 0.0150002 0.0172612
          0.0190932 0.0203119 0.0208037 0.0205557 0.0196679 0.0183441 0.0168584 0.0155022 0.0145206 0.0140525 0.0140904 0.014477
          0.0149421 0.0151776 0.014924 0.0140444 0.0125571 0.0106196 0.00847216 0.00636575 0.00450044 0.00299195 0.00186979 0.00109817
          0.00224287 0.00327973 0.00460788 0.00622011 0.00806743 0.0100538 0.0120396 0.0138569 0.0153337 0.0163264 0.0167514 0.0166113
          0.0160056 0.015123 0.0142121 0.0135321 0.0132913 0.0135877 0.0143685 0.0154271 0.0164446 0.0170712 0.0170229 0.0161618
          0.0145305 0.0123315 0.00985972 0.00741893 0.00524993 0.0034924 0.00218346 0.00128277 0.00172937 0.00252884 0.00355293 0.00479609
          0.00622062 0.0077526 0.00928494 0.010689 0.0118346 0.0126153 0.0129747 0.0129282 0.0125725 0.0120796 0.011671 0.0115728
          0.0119579 0.0128878 0.0142729 0.0158701 0.0173269 0.0182668 0.0183916 0.0175656 0.0158511 0.0134832 0.0107964 0.00813135
          0.00575761 0.00383169 0.00239624 0.00140805 0.00128115 0.00187342 0.0026321 0.0035531 0.00460855 0.00574388 0.00688018 0.00792317
          0.00877854 0.00937176 0.00966904 0.00969467 0.00953985 0.00935785 0.00934195 0.00968537 0.010528 0.0119016 0.0136923 0.0156382
          0.0173738 0.0185161 0.0187667 0.0179966 0.0162805 0.0138699 0.0111169 0.00837799 0.00593467 0.0039506 0.00247106 0.00145219
          0.000911887 0.00133345 0.00187347 0.00252905 0.00328042 0.00408889 0.00489868 0.00564363 0.00625857 0.00669442 0.00693429 0.0070074
          0.00699646 0.00703417 0.00728471 0.00790911 0.00901772 0.0106207 0.0125934 0.0146747 0.0165094 0.0177297 0.0180525 0.0173599
          0.0157312 0.0134161 0.0107603 0.0081127 0.00574834 0.00382727 0.00239422 0.00140715 0.000623605 0.000911899 0.00128121 0.00172957
          0.00224351 0.00279671 0.00335136 0.003863 0.00428876 0.00459843 0.00478659 0.0048834 0.00496062 0.0051291 0.00552387 0.00627506
          0.00746738 0.00909711 0.0110418 0.0130592 0.0148253 0.0160073 0.0163513 0.0157544 0.0142931 0.0121985 0.00978821 0.00738198
          0.00523158 0.00348365 0.00217945 0.001281 0.000409739 0.000599163 0.000841824 0.00113645 0.00147422 0.00183795 0.00220307 0.00254099
          0.0028249 0.00303761 0.00318047 0.00328136 0.00339957 0.00362394 0.00406131 0.00481314 0.00594243 0.00743824 0.00919052 0.0109893
          0.0125571 0.0136105 0.0139347 0.0134443 0.0122074 0.0104238 0.00836684 0.00631132 0.00447341 0.00297905 0.00186387 0.00109556
          0.000258662 0.000378245 0.000531439 0.000717451 0.000930746 0.00116055 0.00139156 0.00160618 0.0017885 0.00192965 0.00203411 0.00212551
          0.00225026 0.00247636 0.0028847 0.00355119 0.00452106 0.00578108 0.00723981 0.00872698 0.0100193 0.01089 0.0111676 0.0107851
          0.0097986 0.00836998 0.00671983 0.00506968 0.00359368 0.00239336 0.00149749 0.000880234 0.000156887 0.000229419 0.00032234 0.000435177
          0.000564592 0.000704107 0.000844574 0.000975648 0.00108837 0.00117874 0.00125198 0.00132658 0.00143692 0.00163249 0.00197165 0.00250865
          0.0032747 0.00425741 0.00538608 0.00653138 0.00752463 0.00819497 0.00841382 0.00813135 0.00739075 0.00631484 0.0050707 0.00382592
          0.00271222 0.00180639 0.00113027 0.000664394 9.14258e-05 0.000133694 0.000187847 0.000253612 0.000329057 0.000410443 0.000492528 0.00056949
          0.000636551 0.000692273 0.000741306 0.000797107 0.000883714 0.00103526 0.00129175 0.00169006 0.00225081 0.00296398 0.00377858 0.00460245
          0.00531594 0.00579808 0.00595807 0.00576101 0.00523792 0.00447627 0.00359479 0.00271253 0.00192303 0.00128082 0.000801432 0.000471104
          5.11893e-05 7.48559e-05 0.000105178 0.000142005 0.000184264 0.000229882 0.000275977 0.000319412 0.00035778 0.000390801 0.000422043 0.000460636
          0.000522426 0.000629683 0.000808371 0.00108229 0.00146443 0.0019475 0.00249712 0.00305169 0.00353146 0.00385597 0.0039649 0.00383521
          0.00348778 0.00298104 0.00239422 0.00180671 0.0012809 0.000853155 0.000533845 0.000313812 2.75371e-05 4.02687e-05 5.6581e-05 7.63951e-05
          9.91376e-05 0.000123705 0.000148576 0.000172132 0.000193223 0.000211991 0.000230884 0.000255693 0.000296256 0.000366295 0.00048174 0.000657127
          0.000900244 0.00120624 0.00155342 0.00190312 0.00220544 0.00241005 0.00247931 0.00239888 0.00218194 0.00186512 0.00149806 0.00113051
          0.000801517 0.000533867 0.00033406 0.000196374 1.42326e-05 2.08131e-05 2.92446e-05 3.94871e-05 5.12464e-05 6.39581e-05 7.68506e-05 8.91217e-05
          0.000100251 0.000110459 0.00012128 0.00013615 0.000160821 0.000203264 0.000272708 0.000377541 0.000522192 0.000703691 0.000909191 0.00111593
          0.00129455 0.00141551 0.0014567 0.00140974 0.00128241 0.00109629 0.00088058 0.000664547 0.000471165 0.000313833 0.000196379 0.00011544
          7.06774e-06 1.03356e-05 1.45227e-05 1.96097e-05 2.54514e-05 3.17703e-05 3.819e-05 4.43279e-05 4.99599e-05 5.52633e-05 6.11229e-05 6.94511e-05
          8.34098e-05 0.000107363 0.000146353 0.000204947 0.000285533 0.000386418 0.000500475 0.000615116 0.000714129 0.000781198 0.000804137 0.000778333
          0.000708097 0.000605361 0.000486268 0.00036698 0.000260193 0.000173311 0.000108449 6.37512e-05 3.37213e-06 4.93128e-06 6.92913e-06 9.3565e-06
          1.21446e-05 1.5162e-05 1.82322e-05 2.1179e-05 2.39096e-05 2.65367e-05 2.95336e-05 3.38973e-05 4.12632e-05 5.38813e-05 7.43462e-05 0.000105005
          0.000147073 0.000199654 0.000259038 0.000318687 0.00037019 0.000405087 0.000417058 0.00040372 0.000367313 0.000314033 0.000252259 0.00019038
          0.000134983 8.9911e-05 5.62618e-05 3.30734e-05 0.000426457 0.000623601 0.000876127 0.00118265 0.00153381 0.00191125 0.00228818 0.00263203
          0.00290884 0.00308872 0.00315111 0.00308872 0.00290885 0.00263204 0.00228819 0.00191127 0.00153385 0.00118271 0.000876206 0.0006237
          0.000426572 0.000280329 0.000177018 0.000107414 6.26371e-05 3.51046e-05 1.89106e-05 9.79286e-06 4.87573e-06 2.33432e-06 1.07481e-06 4.75993e-07
          0.000675539 0.00098783 0.00138785 0.0018734 0.00242967 0.00302755 0.00362464 0.00416933 0.00460782 0.00489276 0.0049916 0.00489276
          0.00460784 0.00416936 0.0036247 0.00302765 0.00242981 0.0018736 0.00138812 0.000988164 0.00067593 0.00044429 0.000280645 0.000170381
          9.94298e-05 5.57861e-05 3.00987e-05 1.56205e-05 7.80002e-06 3.74869e-06 1.73446e-06 7.72755e-07 0.00102814 0.00150344 0.00211225 0.00285124
          0.00369786 0.00460782 0.00551656 0.00634556 0.00701293 0.00744659 0.00759703 0.00744662 0.00701299 0.00634567 0.00551676 0.00460813
          0.00369832 0.00285189 0.00211311 0.0015045 0.00102939 0.000676904 0.000427865 0.000260024 0.000151976 8.54582e-05 4.62541e-05 2.41098e-05
          1.21096e-05 5.86407e-06 2.7391e-06 1.23449e-06 0.00150344 0.00219846 0.00308872 0.00416933 0.00540733 0.00673795 0.00806679 0.00927902
          0.0102549 0.010889 0.011109 0.0108891 0.0102551 0.00927935 0.00806736 0.00673886 0.00540869 0.00417125 0.00309127 0.00220163
          0.00150715 0.000991905 0.000627805 0.000382308 0.000224125 0.000126583 6.89377e-05 3.62374e-05 1.8404e-05 9.03884e-06 4.29565e-06 1.97583e-06
          0.00211225 0.00308872 0.00433948 0.00585769 0.00759701 0.00946646 0.0113334 0.0130365 0.0144076 0.0152986 0.0156077 0.0152988
          0.0144081 0.0130375 0.011335 0.00946901 0.00760084 0.00586309 0.00434664 0.00309762 0.00212266 0.00139928 0.000887918 0.000542826
          0.000320077 0.000182285 0.000100423 5.36058e-05 2.77671e-05 1.39717e-05 6.83154e-06 3.24411e-06 0.00285124 0.00416933 0.00585769 0.00790705
          0.0102549 0.0127784 0.0152985 0.0175975 0.0194483 0.020651 0.0210683 0.0206515 0.0194496 0.0175999 0.0153027 0.0127851
          0.010265 0.00792128 0.00587653 0.00419278 0.00287866 0.00190351 0.00121371 0.000747422 0.000445428 0.000257494 0.000144745 7.92961e-05
          4.24e-05 2.21361e-05 1.12719e-05 5.58437e-06 0.00369786 0.00540733 0.00759701 0.0102549 0.0132999 0.0165727 0.0198411 0.0228228
          0.0252231 0.0267831 0.0273246 0.0267844 0.0252264 0.0228288 0.0198515 0.0165893 0.0133248 0.0102901 0.00764365 0.00546537
          0.00376572 0.00250419 0.0016107 0.00100483 0.000609987 0.000361578 0.000209923 0.000119598 6.68717e-05 3.6624e-05 1.95719e-05 1.01543e-05
          0.00460782 0.00673795 0.00946646 0.0127784 0.0165727 0.0206508 0.0247236 0.028439 0.0314302 0.0333742 0.0340494 0.0333773
          0.0314376 0.028453 0.0247477 0.0206895 0.0166307 0.0128602 0.00957489 0.00687289 0.00476559 0.00320083 0.00209002 0.0013325
          0.000833305 0.000513178 0.0003119 0.000187011 0.000110261 6.35784e-05 3.56159e-05 1.92535e-05 0.00551656 0.00806679 0.0113334 0.0152985
          0.0198411 0.0247236 0.0295996 0.0340478 0.0376291 0.039957 0.0407665 0.039964 0.0376454 0.0340785 0.0296523 0.024808
          0.0199679 0.0154773 0.0115702 0.00836153 0.00586116 0.0040031 0.00267865 0.00176631 0.00115336 0.000747574 0.000480432 0.000304676
          0.000189291 0.000114276 6.65194e-05 3.70886e-05 0.00634556 0.00927901 0.0130365 0.0175975 0.0228227 0.0284389 0.0340477 0.0391646
          0.0432846 0.0459633 0.0468966 0.0459775 0.043318 0.0392276 0.0341559 0.0286121 0.0230828 0.0179643 0.0135225 0.0098838
          0.00705262 0.00494588 0.00343323 0.00237296 0.00163736 0.00112566 0.000766157 0.000511641 0.00033203 0.000207585 0.00012416 7.06711e-05
          0.00701293 0.0102549 0.0144076 0.0194482 0.025223 0.0314299 0.0376288 0.0432842 0.0478383 0.0508007 0.0518361 0.050828
          0.0479027 0.0434057 0.0378373 0.0317638 0.0257244 0.0201553 0.0153443 0.0114206 0.00837582 0.00610467 0.00445321 0.00326115
          0.00239104 0.0017414 0.00124637 0.000867115 0.000580862 0.000371913 0.00022639 0.000130525 0.00744658 0.010889 0.0152985 0.0206509
          0.0267828 0.0333736 0.039956 0.0459617 0.050799 0.0539479 0.0550543 0.0539974 0.0509157 0.0461817 0.0403335 0.0339781
          0.0276906 0.0219311 0.0169947 0.0129999 0.00991447 0.0076032 0.0058852 0.00458384 0.00355961 0.00272215 0.00202497 0.00145027
          0.00099228 0.000645047 0.000396921 0.000230616 0.00759702 0.011109 0.0156076 0.0210681 0.0273239 0.034048 0.0407638 0.0468919
          0.0518293 0.0550474 0.0561876 0.0551317 0.0520279 0.0472662 0.041406 0.0350762 0.0288681 0.0232459 0.0184928 0.0146997
          0.011795 0.00960221 0.00790809 0.00652186 0.00531179 0.00421435 0.00322071 0.00235129 0.00163046 0.00106985 0.000662618 0.000386756
          0.00744659 0.010889 0.0152985 0.0206509 0.026783 0.0333742 0.0399576 0.045966 0.0508095 0.0539723 0.0551077 0.054107
          0.0511268 0.046564 0.0409838 0.0350172 0.0292506 0.0241311 0.0199091 0.016627 0.014155 0.0122605 0.0106903 0.00924115
          0.00780013 0.00634926 0.00493944 0.00365023 0.00255228 0.00168423 0.00104723 0.000612911 0.00701293 0.0102549 0.0144076 0.0194484
          0.0252234 0.0314311 0.0376321 0.0432929 0.0478599 0.0508509 0.0519457 0.0510529 0.0483363 0.0441907 0.0391726 0.0338976
          0.0289277 0.0246727 0.0213289 0.0188687 0.0170834 0.0156681 0.0143202 0.0128246 0.0110987 0.00918942 0.00723103 0.00538457
          0.00378422 0.00250581 0.00156175 0.000915541 0.00634556 0.00927903 0.0130366 0.0175977 0.0228233 0.0284407 0.0340529 0.0391781
          0.043318 0.0460411 0.0470665 0.0463261 0.0439899 0.0404442 0.0362254 0.0319191 0.0280472 0.0249652 0.0227972 0.0214264
          0.0205473 0.0197668 0.0187247 0.0171939 0.015132 0.0126682 0.0100409 0.00751257 0.00529643 0.00351459 0.00219363 0.00128725
          0.00551657 0.00806681 0.0113335 0.0152988 0.0198419 0.0247261 0.0296066 0.0340663 0.0376749 0.0400635 0.040999 0.040441
          0.038565 0.0357436 0.0324847 0.0293341 0.0267625 0.0250592 0.0242642 0.0241594 0.0243308 0.024288 0.0236075 0.0220512
          0.019623 0.0165455 0.0131744 0.00988658 0.00698388 0.00464045 0.00289892 0.00170217 0.00460783 0.00673797 0.00946656 0.0127787
          0.0165737 0.020654 0.0247324 0.0284623 0.0314878 0.0335082 0.0343422 0.0339781 0.0325955 0.0305497 0.0283143 0.0263888
          0.0251864 0.0249257 0.0255591 0.0267656 0.0280225 0.0287435 0.0284435 0.0268752 0.0240902 0.0204058 0.0162961 0.0122525
          0.00866599 0.00576292 0.00360217 0.00211592 0.00369787 0.00540736 0.00759713 0.0102553 0.0133011 0.0165764 0.0198515 0.0228501
          0.0252908 0.0269404 0.0276683 0.0274897 0.0265859 0.0252906 0.0240391 0.0232811 0.0233704 0.0244566 0.0264112 0.028822
          0.0310724 0.0324947 0.0325532 0.0309953 0.0279166 0.0237182 0.0189775 0.0142861 0.0101124 0.0067284 0.00420718 0.00247192
          0.00285125 0.00416936 0.00585782 0.00790748 0.0102563 0.0127825 0.0153099 0.0176276 0.0195227 0.0208241 0.0214465 0.0214274
          0.0209451 0.0203079 0.0199091 0.0201461 0.0213152 0.0235046 0.026521 0.0298853 0.0329162 0.0348933 0.0352508 0.0337373
          0.030483 0.02595 0.0207893 0.0156626 0.0110926 0.00738316 0.00461768 0.00271355 0.00211226 0.00308875 0.00433961 0.00585813
          0.00759842 0.00947067 0.0113452 0.0130676 0.0144845 0.0154773 0.015998 0.0160997 0.015952 0.015833 0.0160904 0.0170681
          0.0190084 0.0219503 0.0256588 0.029621 0.0331316 0.035456 0.0360257 0.0345995 0.031329 0.0267057 0.0214125 0.0161408
          0.0114353 0.00761304 0.00476221 0.00279879 0.00150345 0.00219849 0.00308884 0.00416976 0.00540869 0.00674202 0.00807822 0.00930912
          0.0103294 0.0110623 0.0114875 0.0116656 0.0117517 0.0119895 0.0126774 0.0141057 0.0164676 0.0197668 0.0237521 0.0279144
          0.0315684 0.0340078 0.0346917 0.0333982 0.0302854 0.0258394 0.0207297 0.0156318 0.0110773 0.00737587 0.00461434 0.00271208
          0.00102815 0.00150347 0.00211237 0.00285163 0.00369911 0.00461153 0.00552697 0.00637298 0.00708078 0.00760435 0.00794161 0.00815364
          0.00837582 0.00881345 0.00971458 0.0113162 0.0137684 0.0170529 0.0209264 0.0249181 0.0284026 0.0307405 0.0314458 0.0303237
          0.0275252 0.023499 0.0188596 0.0142252 0.0100822 0.00671397 0.00420056 0.00246901 0.000675546 0.000987857 0.00138795 0.00187374
          0.00243073 0.00303073 0.00363354 0.00419278 0.00466586 0.0050277 0.00528634 0.00549754 0.00577357 0.00628022 0.00721539 0.00876556
          0.0110434 0.0140208 0.0174805 0.0210154 0.0240902 0.0261598 0.0268125 0.0258859 0.0235137 0.0200831 0.0161225 0.0121628
          0.00862142 0.00574166 0.00359243 0.00211163 0.000426462 0.000623623 0.000876206 0.00118292 0.00153466 0.0019138 0.00229533 0.00265087
          0.00295548 0.00319715 0.00338795 0.00357467 0.00384555 0.00432818 0.00517343 0.00652186 0.00845517 0.0109433 0.0138069 0.0167162
          0.0192407 0.0209436 0.0214962 0.0207706 0.0188767 0.0161276 0.0129496 0.00977041 0.00692619 0.00461292 0.00288631 0.00169662
          0.000258663 0.00037825 0.000531458 0.000717515 0.000930948 0.00116115 0.00139325 0.00161063 0.0017995 0.00195525 0.00209002 0.00224022
          0.00247136 0.00287673 0.00356575 0.00463951 0.00615482 0.00808506 0.0102921 0.0125256 0.0144604 0.0157675 0.0161999 0.0156626
          0.0142396 0.0121686 0.0097721 0.00737365 0.00522745 0.00348168 0.00217854 0.0012806 0.000150736 0.000220426 0.000309714 0.000418156
          0.00054259 0.000676904 0.000812595 0.000940389 0.00105311 0.00114976 0.00124054 0.00135183 0.00152953 0.00183819 0.00235313 0.00314342
          0.00424687 0.00564253 0.00723103 0.00883418 0.0102212 0.0111593 0.0114739 0.0110982 0.0100926 0.00862614 0.00692801 0.00522795
          0.00370644 0.0024687 0.00154474 0.000908049 8.43973e-05 0.000123418 0.000173413 0.00023414 0.000303844 0.000379142 0.000455377 0.000527594
          0.000592285 0.000649915 0.000708047 0.000784526 0.000909648 0.00112566 0.00148159 0.0020222 0.00277142 0.00371432 0.004784 0.00586142
          0.0067928 0.0074232 0.00763663 0.00738898 0.00672078 0.00574493 0.00461434 0.0034822 0.00246884 0.00164442 0.00102898 0.000604873
          4.54012e-05 6.63925e-05 9.32889e-05 0.000125963 0.000163478 0.000204037 0.000245192 0.000284406 0.000320077 0.000353014 0.000388308 0.000437251
          0.000518678 0.000658664 0.000887382 0.00123224 0.00170765 0.0023038 0.00297852 0.00365714 0.00424341 0.00464045 0.00477581 0.00462204
          0.00420467 0.00359448 0.00288726 0.00217894 0.00154488 0.00102901 0.000643899 0.000378512 2.34658e-05 3.43154e-05 4.82177e-05 6.51083e-05
          8.45072e-05 0.000105497 0.000126841 0.000147294 0.000166171 0.000184174 0.00020445 0.000233695 0.000282923 0.000367309 0.000504365 0.000709944
          0.00099228 0.0013454 0.00174436 0.00214521 0.00249135 0.00272586 0.00280621 0.00271635 0.00247133 0.00211282 0.00169719 0.00128086
          0.00090815 0.000604908 0.000378521 0.000222512 1.16528e-05 1.70407e-05 2.39448e-05 3.23338e-05 4.19713e-05 5.24071e-05 6.30396e-05 7.32818e-05
          8.28587e-05 9.22499e-05 0.000103256 0.000119598 0.000147335 0.000194786 0.000271528 0.000386214 0.000543291 0.000739375 0.000960643 0.00118279
          0.00137455 0.0015045 0.0015492 0.00149978 0.0013646 0.0011667 0.000937218 0.000707327 0.000501513 0.000334055 0.000209036 0.000122882
          5.55973e-06 8.13042e-06 1.14246e-05 1.54277e-05 2.00277e-05 2.50118e-05 3.00987e-05 3.50207e-05 3.96738e-05 4.43411e-05 4.99801e-05 5.85289e-05
          7.31237e-05 9.8056e-05 0.000138261 0.000198189 0.000280109 0.000382236 0.000497377 0.000612911 0.000712621 0.000780208 0.000803511 0.000777953
          0.000707876 0.000605238 0.000486201 0.000366945 0.000260176 0.000173303 0.000108445 6.37496e-05 0.000675539 0.00098783 0.00138785 0.0018734
          0.00242967 0.00302755 0.00362464 0.00416933 0.00460782 0.00489275 0.0049916 0.00489276 0.00460783 0.00416935 0.00362467 0.00302761
          0.00242975 0.00187351 0.00138799 0.000988009 0.000675748 0.00044409 0.000280439 0.000170181 9.9248e-05 5.56306e-05 2.99737e-05 1.55262e-05
          7.73317e-06 3.70416e-06 1.70659e-06 7.56371e-07 0.0010701 0.0015648 0.00219846 0.00296761 0.00384878 0.00479587 0.0057417 0.00660453
          0.00729913 0.00775049 0.00790706 0.0077505 0.00729917 0.00660459 0.00574181 0.00479604 0.00384904 0.00296797 0.00219894 0.0015654
          0.00107081 0.000703886 0.000444663 0.000269993 0.000157593 8.84451e-05 4.77394e-05 2.479e-05 1.23884e-05 5.95994e-06 2.76112e-06 1.23209e-06
          0.00162866 0.00238156 0.00334597 0.00451658 0.00585769 0.00729913 0.00873865 0.0100518 0.011109 0.011796 0.0120343 0.011796
          0.0111091 0.010052 0.00873899 0.00729968 0.00585852 0.00451775 0.00334751 0.00238348 0.00163091 0.00107258 0.000678089 0.000412207
          0.000241023 0.000135613 7.34635e-05 3.83378e-05 1.92861e-05 9.35817e-06 4.38215e-06 1.98092e-06 0.00238156 0.00348252 0.00489275 0.00660453
          0.00856561 0.0106734 0.0127784 0.0146987 0.0162445 0.0172491 0.0175976 0.0172492 0.0162448 0.0146993 0.0127794 0.0106751
          0.00856808 0.00660801 0.00489737 0.00348826 0.00238828 0.00157217 0.000995443 0.000606528 0.000355872 0.000201237 0.00010978 5.78391e-05
          2.94628e-05 1.45243e-05 6.93361e-06 3.20569e-06 0.00334597 0.00489275 0.00687406 0.00927901 0.0120342 0.0149956 0.017953 0.0206508
          0.0228227 0.0242341 0.0247238 0.0242345 0.0228236 0.0206525 0.0179559 0.0150002 0.0120412 0.00928879 0.00688701 0.00490887
          0.00336481 0.00221915 0.0014092 0.000862468 0.000509384 0.00029077 0.000160699 8.61393e-05 4.4853e-05 2.27103e-05 1.11834e-05 5.35157e-06
          0.00451658 0.00660453 0.00927901 0.0125254 0.0162445 0.0202419 0.024234 0.0278757 0.0308075 0.0327127 0.0333739 0.0327137
          0.0308099 0.0278802 0.0242416 0.0202541 0.0162628 0.0125511 0.00931313 0.00664699 0.00456622 0.00302213 0.00192965 0.0011908
          0.000711806 0.000413206 0.000233559 0.000128835 6.94511e-05 3.65883e-05 1.88086e-05 9.40634e-06 0.00585769 0.00856561 0.0120342 0.0162445
          0.021068 0.0262524 0.0314298 0.036153 0.0399554 0.0424264 0.0432843 0.0424289 0.0399612 0.0361639 0.0314486 0.0262825
          0.0211132 0.0163083 0.0121187 0.0086707 0.00598056 0.00398372 0.0025689 0.00160861 0.000981647 0.000585924 0.000343105 0.000197432
          0.000111589 6.17847e-05 3.33623e-05 1.74719e-05 0.00729913 0.0106734 0.0149956 0.0202419 0.0262524 0.0327125 0.039164 0.0450495
          0.0497878 0.0528674 0.0539373 0.0528731 0.0498013 0.045075 0.0392077 0.0327824 0.0263574 0.0203901 0.0151919 0.0109178
          0.00758481 0.00510963 0.00335127 0.00215006 0.00135578 0.000843503 0.000518653 0.000314794 0.000187819 0.000109477 6.1903e-05 3.37233e-05
          0.00873865 0.0127784 0.017953 0.024234 0.0314298 0.039164 0.0468879 0.0539343 0.0596075 0.0632954 0.0645782 0.0633079
          0.059637 0.0539899 0.0469834 0.0393168 0.0316593 0.0245577 0.0183818 0.0133121 0.00936263 0.00642701 0.0043317 0.00288376
          0.00190513 0.00125103 0.000814728 0.000523156 0.000328588 0.000200165 0.000117351 6.57936e-05 0.0100518 0.0146986 0.0206508 0.0278757
          0.0361529 0.0450494 0.0539342 0.0620398 0.0685663 0.0728102 0.0742897 0.0728359 0.0686269 0.0621539 0.05413 0.045363
          0.0366238 0.0285399 0.0215308 0.0157938 0.0113322 0.00801069 0.00562012 0.00393499 0.00275399 0.00192022 0.00132381 0.000893632
          0.000584926 0.00036811 0.00022126 0.000126398 0.011109 0.0162445 0.0228227 0.0308074 0.0399552 0.0497874 0.0596069 0.0685656
          0.0757801 0.0804738 0.0821161 0.0805234 0.0758969 0.0687856 0.0599844 0.0503918 0.0408629 0.0320877 0.0245188 0.0183554
          0.0135769 0.0100096 0.0074043 0.00550523 0.00409654 0.00302278 0.00218669 0.00153386 0.00103379 0.000664851 0.000405999 0.000234615
          0.0117959 0.017249 0.024234 0.0327125 0.0424259 0.0528663 0.0632935 0.0728073 0.0804707 0.0854607 0.0872171 0.0855504
          0.0806821 0.0732057 0.0639771 0.0539608 0.0440697 0.0350308 0.0273053 0.0210714 0.0162647 0.0126585 0.00995653 0.00787558
          0.00619813 0.00479061 0.00359221 0.00258758 0.00177765 0.0011589 0.000714546 0.000415749 0.0120342 0.0175975 0.0247236 0.0333734
          0.0432831 0.0539347 0.0645732 0.0742812 0.0821038 0.0872047 0.0890173 0.0873572 0.0824635 0.0749589 0.0657361 0.0557965
          0.0460793 0.0373169 0.029948 0.0240995 0.0196359 0.0162558 0.0136054 0.0113763 0.00936592 0.00748984 0.00575591 0.00421832
          0.00293287 0.00192793 0.00119558 0.000698445 0.0117959 0.017249 0.024234 0.0327126 0.0424263 0.0528674 0.0632964 0.072815
          0.0804897 0.085505 0.0873138 0.0857487 0.0810644 0.073898 0.0651546 0.0558426 0.0468945 0.0390144 0.0325827 0.0276392
          0.0239433 0.0210917 0.0186575 0.0163089 0.0138767 0.0113585 0.00886962 0.00657118 0.00460245 0.00304062 0.0018921 0.001108
          0.011109 0.0162445 0.0228228 0.0308077 0.0399559 0.0497895 0.0596129 0.0685814 0.0758192 0.0805647 0.0823145 0.0809306
          0.0766819 0.0702071 0.0624024 0.0542558 0.0466635 0.0402678 0.0353556 0.031842 0.0293443 0.0273267 0.0252712 0.0228224
          0.019864 0.0165094 0.0130235 0.00971391 0.00683431 0.00452883 0.00282402 0.00165609 0.0100518 0.0146987 0.0206509 0.0278761
          0.036154 0.0450527 0.0539435 0.0620643 0.0686269 0.0729511 0.0745973 0.0734671 0.0698435 0.0643569 0.0578774 0.0513512
          0.0456132 0.041217 0.0383251 0.0366947 0.0357678 0.034848 0.0333093 0.0307723 0.0271896 0.0228211 0.0181182 0.0135707
          0.00957429 0.00635632 0.00396859 0.00232934 0.00873866 0.0127784 0.0179531 0.0242345 0.0314313 0.0391685 0.0469006 0.0539678
          0.0596904 0.0634881 0.0649992 0.0641717 0.0613021 0.057005 0.0521122 0.0475126 0.0439627 0.0419083 0.0413676 0.0419184
          0.0428068 0.0431582 0.0422289 0.039615 0.0353493 0.0298573 0.0238005 0.0178737 0.012632 0.008396 0.00524617 0.00308087
          0.00729914 0.0106735 0.0149958 0.0202425 0.0262543 0.0327182 0.03918 0.0450917 0.0498922 0.0531101 0.0544674 0.0539608
          0.051898 0.0488715 0.0456659 0.0431026 0.0418499 0.0422379 0.0441356 0.0469387 0.0496976 0.0513615 0.0510713 0.0484019
          0.0434686 0.0368645 0.0294623 0.0221626 0.0156802 0.0104297 0.00652011 0.0038303 0.0058577 0.00856567 0.0120344 0.0162452
          0.0210702 0.0262591 0.0314486 0.0362025 0.0400779 0.0427114 0.0439068 0.0437061 0.0424229 0.0406216 0.0390314 0.0383997
          0.0393033 0.0419605 0.0461023 0.0509641 0.0554265 0.0582895 0.0585985 0.0559144 0.0504276 0.0428793 0.0343268 0.0258496
          0.0183017 0.012179 0.00761614 0.00447516 0.0045166 0.00660459 0.00927924 0.0125261 0.016247 0.0202493 0.0242547 0.0279302
          0.0309424 0.0330262 0.0340586 0.0341186 0.0335179 0.0327837 0.0325827 0.0335832 0.0362721 0.0407688 0.0466955 0.0531701
          0.0589573 0.062759 0.0635628 0.0609277 0.0551028 0.0469363 0.0376159 0.0283465 0.0200788 0.0133657 0.00835994 0.00491291
          0.00334598 0.00489282 0.0068743 0.00927982 0.0120368 0.0150032 0.0179743 0.0207071 0.0229619 0.0245577 0.0254306 0.0256848
          0.0256192 0.0257146 0.0265667 0.0287603 0.0326976 0.038419 0.0454783 0.0529365 0.0595148 0.0638878 0.0650355 0.0625311
          0.0566594 0.0483184 0.038752 0.0292164 0.0207013 0.0137829 0.00862206 0.00506743 0.00238158 0.00348258 0.00489298 0.0066053
          0.00856808 0.0106808 0.0127991 0.0147532 0.0163795 0.0175628 0.0182828 0.0186552 0.018955 0.0196066 0.0211271 0.0240147
          0.0285932 0.034848 0.0423093 0.0500481 0.0568222 0.0613562 0.0626772 0.0603905 0.0547898 0.0467611 0.0375217 0.0282978
          0.0200546 0.0133541 0.00835465 0.00491058 0.00162867 0.00238162 0.00334617 0.00451729 0.00585994 0.00730585 0.00875749 0.0101015
          0.0112319 0.0120816 0.0126582 0.0130763 0.0135769 0.0145206 0.0163403 0.0194465 0.024093 0.0302325 0.0374141 0.04478
          0.0511975 0.0555108 0.0568444 0.0548504 0.0498076 0.0425321 0.03414 0.0257531 0.0182538 0.0121562 0.00760566 0.00447054
          0.00107012 0.00156485 0.00219864 0.00296821 0.0038507 0.00480162 0.00575782 0.00664699 0.00740423 0.00799484 0.00844077 0.0088456
          0.00941003 0.0104269 0.0122437 0.0151861 0.0194463 0.0249636 0.0313385 0.0378301 0.0434686 0.0472687 0.0484876 0.0468348
          0.0425553 0.0363532 0.0291873 0.0220204 0.0156096 0.010396 0.00650466 0.0038235 0.000675549 0.00098787 0.00138799 0.00187389
          0.00243122 0.00303217 0.00363759 0.00420345 0.00469227 0.0050891 0.00542045 0.00577271 0.00630397 0.00724066 0.00884915 0.0113763
          0.0149626 0.0195477 0.0248025 0.0301278 0.0347436 0.0378604 0.0388844 0.0375864 0.0341671 0.0291954 0.0234445 0.0176897
          0.0125406 0.0083524 0.00522619 0.00307207 0.000409743 0.000599179 0.000841882 0.00113664 0.00147484 0.00183979 0.00220823 0.00255458
          0.00285853 0.00311581 0.00335127 0.00363183 0.00407511 0.00484719 0.00614213 0.00813827 0.010934 0.0144775 0.0185161 0.0225952
          0.0261257 0.0285127 0.0293099 0.0283465 0.025776 0.0220297 0.0176924 0.0133506 0.00946502 0.00630418 0.00394469 0.00231881
          0.000238778 0.000349175 0.000490619 0.000662423 0.000859606 0.00107258 0.00128808 0.00149193 0.00167386 0.00183446 0.00199385 0.00220037
          0.00253654 0.00311764 0.00407763 0.00553887 0.00756719 0.0101225 0.0130235 0.0159467 0.0184741 0.0201845 0.0207624 0.0200877
          0.0182704 0.0156171 0.0125435 0.00946582 0.00671111 0.00447005 0.00279707 0.00164423 0.000133692 0.000195505 0.000274705 0.000370917
          0.00048138 0.000600796 0.000721929 0.000837271 0.000941992 0.00103828 0.00114074 0.00128203 0.00151666 0.00192022 0.00258017 0.00357599
          0.00494959 0.00667271 0.0086234 0.0105857 0.012281 0.0134291 0.0138202 0.0133749 0.012167 0.0104012 0.00835465 0.00630502
          0.00447028 0.00297756 0.00186319 0.00109526 7.19192e-05 0.000105172 0.00014778 0.000199548 0.000259004 0.000323339 0.000388763 0.000451474
          0.000509384 0.000564685 0.000627088 0.000717219 0.000869004 0.00112917 0.00155162 0.00218517 0.00305514 0.00414311 0.00537226 0.00660718
          0.00767354 0.008396 0.0086436 0.00836684 0.00761217 0.00650792 0.00522769 0.00394531 0.0027973 0.00186325 0.00116592 0.000685386
          3.71717e-05 5.43588e-05 7.63828e-05 0.000103144 0.000133891 0.000167192 0.000201138 0.000233885 0.000264614 0.00029497 0.000330907 0.00038464
          0.000476024 0.000632281 0.000884746 0.0012617 0.00177765 0.00242144 0.0031477 0.00387669 0.00450593 0.0049324 0.00507919 0.00491733
          0.00447421 0.00382539 0.00307297 0.00231921 0.00164439 0.00109532 0.000685399 0.000402912 1.8459e-05 2.69941e-05 3.79316e-05 5.12235e-05
          6.64997e-05 8.30586e-05 9.99768e-05 0.000116393 0.00013202 0.000147911 0.000167455 0.000197432 0.000248772 0.000336408 0.000477501 0.000687505
          0.000974272 0.00133151 0.00173407 0.00213789 0.00248634 0.00272257 0.00280414 0.00271509 0.00247059 0.00211241 0.00169697 0.00128074
          0.000908094 0.000604881 0.000378508 0.000222507 8.80707e-06 1.28794e-05 1.80981e-05 2.44409e-05 3.17326e-05 3.96423e-05 4.77394e-05 5.56358e-05
          6.32436e-05 7.11634e-05 8.11899e-05 9.68542e-05 0.000123813 0.000169778 0.000243596 0.000353225 0.000502679 0.000688645 0.000898044 0.001108
          0.00128913 0.00141195 0.00145445 0.00140837 0.00128161 0.00109584 0.000880341 0.000664423 0.000471104 0.000313804 0.000196366 0.000115434
          0.00102814 0.00150344 0.00211225 0.00285124 0.00369786 0.00460782 0.00551656 0.00634556 0.00701293 0.00744659 0.00759702 0.00744659
          0.00701295 0.00634559 0.00551662 0.00460791 0.00369799 0.00285143 0.0021125 0.00150374 0.0010285 0.00067593 0.00042686 0.00025905
          0.000151089 8.46998e-05 4.56447e-05 2.36497e-05 1.17834e-05 5.64677e-06 2.60312e-06 1.15455e-06 0.00162866 0.00238156 0.00334597 0.00451658
          0.00585769 0.00729913 0.00873865 0.0100518 0.011109 0.0117959 0.0120342 0.011796 0.0111091 0.0100519 0.00873883 0.00729943
          0.00585813 0.00451721 0.00334679 0.00238259 0.00162986 0.00107143 0.000676904 0.000411058 0.000239977 0.000134719 7.27447e-05 3.77952e-05
          1.89014e-05 9.10187e-06 4.22176e-06 1.88663e-06 0.00247875 0.00362464 0.00509243 0.00687406 0.00891518 0.011109 0.0132999 0.0152985
          0.0169075 0.017953 0.0183157 0.0179531 0.0169077 0.0152989 0.0133005 0.0111099 0.00891659 0.00687605 0.00509506 0.00362792
          0.00248258 0.00163286 0.00103248 0.000627805 0.00036723 0.000206743 0.000112086 5.85578e-05 2.9501e-05 1.43415e-05 6.73127e-06 3.05122e-06
          0.00362464 0.00530026 0.00744658 0.0100518 0.0130365 0.0162445 0.0194482 0.0223708 0.0247236 0.0262524 0.0267828 0.0262526
          0.0247241 0.0223718 0.01945 0.0162473 0.0130407 0.0100578 0.00745444 0.00531003 0.00363607 0.00239411 0.00151639 0.000924434
          0.000542826 0.000307304 0.000167909 8.86531e-05 4.52839e-05 2.24003e-05 1.07372e-05 4.98741e-06 0.00509243 0.00744658 0.0104621 0.0141223
          0.0183156 0.0228227 0.0273237 0.0314298 0.0347353 0.0368834 0.0376287 0.036884 0.0347369 0.0314327 0.0273286 0.0228305
          0.0183274 0.0141389 0.0104841 0.007474 0.00512448 0.00338117 0.00214857 0.00131635 0.000778638 0.000445428 0.000246896 0.000132851
          6.9506e-05 3.53912e-05 1.75382e-05 8.44911e-06 0.00687406 0.0100518 0.0141223 0.0190631 0.0247235 0.0308074 0.0368832 0.0424258
          0.0468879 0.0497876 0.0507939 0.0497892 0.0468919 0.0424334 0.0368961 0.0308281 0.0247546 0.0191069 0.0141803 0.0101241
          0.00695851 0.00460933 0.00294693 0.00182211 0.00109223 0.000636488 0.000361578 0.000200695 0.000108973 5.78648e-05 2.99894e-05 1.51176e-05
          0.00891518 0.0130365 0.0183156 0.0247235 0.0320647 0.0399551 0.047835 0.0550234 0.0608106 0.0645716 0.0658774 0.0645757
          0.0608205 0.0550421 0.0478669 0.0400063 0.0321416 0.024832 0.0184593 0.0132153 0.00912419 0.00608724 0.0039347 0.00247242
          0.00151603 0.000910575 0.000537317 0.0003119 0.000177929 9.94266e-05 5.41508e-05 2.85754e-05 0.011109 0.0162445 0.0228227 0.0308074
          0.0399551 0.0497871 0.0596061 0.0685636 0.0757752 0.0804624 0.0820911 0.0804722 0.0757982 0.068607 0.0596805 0.0499062
          0.0401338 0.0310595 0.0231567 0.0166602 0.011595 0.00783285 0.00515848 0.0033285 0.00211461 0.00132754 0.000824534 0.000505648
          0.000304676 0.000179159 0.00010206 5.59381e-05 0.0132999 0.0194482 0.0273237 0.0368832 0.0478349 0.0596061 0.0713617 0.0820861
          0.0907206 0.0963338 0.0982869 0.0963551 0.0907708 0.0821807 0.071524 0.0598661 0.0482254 0.0374338 0.0280532 0.0203561
          0.0143613 0.00990439 0.00671932 0.00451171 0.00301128 0.00199961 0.00131679 0.000854199 0.000541209 0.00033203 0.000195742 0.00011021
          0.0152985 0.0223708 0.0314298 0.0424258 0.0550233 0.0685634 0.0820858 0.0944224 0.104356 0.110816 0.113069 0.110859
          0.104459 0.0946166 0.082419 0.0690969 0.0558244 0.0435556 0.0329266 0.0242336 0.0174764 0.0124438 0.00881345 0.00624073
          0.00442077 0.00311864 0.00217239 0.00147903 0.000974589 0.000616442 0.000371913 0.000213045 0.0169075 0.0247235 0.0347353 0.0468878
          0.0608103 0.0757746 0.0907195 0.104355 0.115336 0.122481 0.124983 0.122565 0.115534 0.104729 0.0913617 0.0768028
          0.0623544 0.0490656 0.0376205 0.0283143 0.0211055 0.0157196 0.0117699 0.00886417 0.00667677 0.0049786 0.00363184 0.00256378
          0.00173598 0.00112019 0.000685696 0.000396921 0.017953 0.0262524 0.0368832 0.0497872 0.0645707 0.0804606 0.0963305 0.110811
          0.122475 0.130073 0.132751 0.130225 0.122835 0.111488 0.0974934 0.0823225 0.0673668 0.0537307 0.0421077 0.0327544
          0.0255546 0.0201447 0.0160603 0.0128653 0.0102337 0.00797568 0.00601727 0.0043534 0.00299995 0.00195994 0.00121025 0.000704907
          0.0183156 0.0267827 0.0376283 0.050793 0.0658753 0.0820868 0.0982785 0.113054 0.124962 0.13273 0.135498 0.132989
          0.125574 0.114207 0.100257 0.0852538 0.0706317 0.0575012 0.0465155 0.037843 0.0312464 0.0262359 0.0222495 0.0188095
          0.015616 0.0125637 0.00969596 0.00712642 0.00496455 0.00326787 0.0020284 0.00118574 0.017953 0.0262524 0.0368833 0.0497874
          0.0645713 0.0804624 0.0963355 0.110824 0.122508 0.130148 0.132916 0.130562 0.123485 0.112666 0.0994965 0.0855234
          0.072172 0.0605071 0.0510849 0.0439266 0.0386163 0.0344902 0.0308612 0.0272108 0.0232954 0.019148 0.0149945 0.0111297
          0.00780509 0.00516085 0.00321333 0.00188246 0.0169075 0.0247236 0.0347354 0.0468881 0.0608115 0.0757782 0.0907297 0.104382
          0.115402 0.122635 0.125321 0.123258 0.116869 0.107147 0.0954749 0.0833756 0.0722214 0.0629803 0.0560545 0.0512558
          0.0479268 0.0451771 0.0421625 0.0383217 0.0334981 0.0279201 0.0220659 0.0164785 0.011603 0.00769305 0.00479888 0.00281494
          0.0152985 0.0223708 0.0314299 0.0424264 0.0550252 0.0685691 0.0821016 0.094464 0.104459 0.111055 0.113592 0.111933
          0.106528 0.0983639 0.0887934 0.0792832 0.0711159 0.06512 0.0614948 0.0597873 0.0590428 0.0580956 0.0559144 0.0518925
          0.0459872 0.0386723 0.0307405 0.0230434 0.016266 0.0108027 0.00674633 0.00396037 0.0132999 0.0194483 0.027324 0.036884
          0.0478375 0.0596138 0.0713833 0.082143 0.0908616 0.0966616 0.0990031 0.0978245 0.0936032 0.0873095 0.0802485 0.0738076
          0.0691542 0.0669482 0.0671534 0.069017 0.0712517 0.0723863 0.0711846 0.0669936 0.0599017 0.0506605 0.0404169 0.0303685
          0.02147 0.0142736 0.00892016 0.00523903 0.011109 0.0162446 0.022823 0.0308084 0.0399583 0.0497968 0.0596334 0.0686354
          0.0759528 0.0808753 0.0829929 0.0823225 0.0793648 0.0750652 0.0706662 0.0674614 0.0664873 0.0682239 0.0723915 0.0779339
          0.0832312 0.0865099 0.086333 0.0820055 0.0737508 0.0626013 0.0500593 0.03767 0.0266582 0.0177344 0.0110878 0.00651414
          0.0089152 0.0130366 0.018316 0.0247247 0.0320685 0.0399665 0.0478669 0.0551077 0.0610191 0.0650563 0.0669362 0.0667482
          0.0650081 0.0626248 0.0607657 0.0606184 0.0630841 0.0684678 0.0762674 0.0851587 0.0932346 0.0984644 0.0992442 0.0948496
          0.0856264 0.072854 0.0583455 0.0439478 0.0311204 0.0207116 0.0129529 0.00761136 0.00687409 0.0100519 0.0141227 0.0190644
          0.0247277 0.03082 0.0369184 0.0425185 0.0471172 0.0503208 0.0519586 0.052179 0.0514983 0.0507745 0.0510849 0.0535017
          0.0587916 0.0671068 0.0777699 0.0892626 0.0994808 0.106225 0.107788 0.103438 0.0936145 0.079775 0.0639511 0.0482006
          0.034146 0.0227314 0.0142187 0.00835625 0.00509246 0.0074467 0.0104625 0.0141237 0.01832 0.0228356 0.02736 0.0315255
          0.0349721 0.0374338 0.038831 0.0393511 0.0394922 0.0400435 0.0419762 0.0462373 0.0534652 0.0636911 0.0761301 0.0891717
          0.100639 0.108283 0.11038 0.106218 0.096293 0.0821432 0.0658929 0.049685 0.0352073 0.0234422 0.0146651 0.00861933
          0.00362467 0.00530037 0.00744697 0.0100532 0.0130407 0.0162571 0.0194834 0.0224635 0.0249531 0.0267861 0.0279484 0.0286443
          0.0293341 0.0307195 0.0336499 0.0389388 0.0471046 0.0580956 0.0710942 0.084511 0.0962314 0.10409 0.106441 0.10262
          0.0931381 0.0795083 0.0638077 0.0481265 0.0341092 0.0227139 0.0142107 0.00835271 0.00247878 0.00362474 0.00509279 0.00687527
          0.00891901 0.0111204 0.0133319 0.015383 0.0171165 0.0184389 0.0193771 0.0201309 0.0211055 0.0229001 0.0262307 0.0317723
          0.0399345 0.0506184 0.0630442 0.0757468 0.0867981 0.0942354 0.0965745 0.0932303 0.0846828 0.0723257 0.0580613 0.0438009
          0.0310475 0.0206768 0.0129369 0.00760433 0.00162868 0.00238164 0.00334627 0.00451761 0.00586096 0.00730891 0.00876606 0.0101241
          0.0112878 0.0122116 0.0129421 0.0136588 0.0146997 0.0165538 0.0197989 0.0249734 0.03239 0.0419331 0.0529148 0.0640709
          0.0737508 0.0802808 0.0824007 0.0796205 0.072361 0.0618231 0.0496407 0.0374537 0.0265507 0.0176831 0.0110643 0.00650379
          0.00102816 0.00150351 0.0021125 0.00285207 0.00370049 0.00461568 0.00553859 0.0064036 0.00715658 0.00778058 0.00832652 0.00894343
          0.00989818 0.0115701 0.0144038 0.0188095 0.0250171 0.0329162 0.0419419 0.0510722 0.0589799 0.0643231 0.0660945 0.0639063
          0.0581025 0.0496532 0.0398751 0.0300885 0.0213309 0.0142073 0.00888975 0.00522564 0.000623614 0.000911933 0.00128133 0.00172999
          0.00224485 0.00280071 0.00336259 0.00389259 0.00436199 0.00476869 0.00515848 0.00564646 0.00643146 0.00779245 0.0100544 0.0135148
          0.0183355 0.0244236 0.0313461 0.0383284 0.0443679 0.0484535 0.0498275 0.0482006 0.0438357 0.0374677 0.0300925 0.0227085
          0.0160997 0.0107234 0.00670995 0.00394435 0.000363412 0.000531434 0.000746717 0.00100823 0.00130844 0.00163286 0.00196165 0.00227393
          0.00255564 0.0028108 0.00307568 0.00343323 0.00402312 0.00503935 0.00670683 0.00923028 0.0127184 0.0171004 0.0220659 0.0270637
          0.0313828 0.0343069 0.0353003 0.0341595 0.0310726 0.0265621 0.0213353 0.0161009 0.0114155 0.00760359 0.00475787 0.00279688
          0.000203475 0.000297553 0.000418099 0.000564553 0.000732741 0.000914683 0.00109958 0.00127647 0.00143907 0.00159276 0.00176355 0.00200739
          0.00241662 0.00311864 0.00426055 0.00597565 0.00833343 0.0112843 0.0146197 0.0179718 0.0208668 0.0228279 0.023499 0.0227454
          0.0206932 0.017691 0.0142107 0.0107246 0.00760393 0.00506487 0.00316933 0.00186308 0.000109459 0.000160069 0.000224922 0.000303724
          0.000394256 0.000492294 0.000592201 0.000688489 0.000778638 0.000867276 0.000971541 0.00112674 0.00139037 0.00184129 0.00257029 0.00365937
          0.00515064 0.00701195 0.00911206 0.0112203 0.0130403 0.0142736 0.0146979 0.0142292 0.0129468 0.0110693 0.00889203 0.00671091
          0.00475821 0.00316942 0.00198327 0.00116587 5.65741e-05 8.2733e-05 0.000116255 0.000156993 0.000203813 0.000254568 0.000306429 0.000356766
          0.000404716 0.000453545 0.000513702 0.000606079 0.000764336 0.00103446 0.00146929 0.00211639 0.00299995 0.00410055 0.00534074 0.00658474
          0.00765819 0.00838592 0.00863723 0.00836298 0.00760992 0.00650666 0.00522701 0.00394496 0.00279712 0.00186316 0.00116589 0.000685369
          2.8094e-05 4.10845e-05 5.77323e-05 7.79666e-05 0.00010123 0.000126472 0.000152329 0.000177589 0.000202025 0.000227663 0.000260424 0.0003119
          0.000400626 0.000551847 0.000794519 0.00115467 0.0016454 0.00225581 0.00294297 0.00363183 0.00422611 0.00462908 0.00476863 0.00461768
          0.00420213 0.00359306 0.00288649 0.00217854 0.00154468 0.00102892 0.000643856 0.000378493 1.34041e-05 1.96022e-05 2.75456e-05 3.72014e-05
          4.83062e-05 6.03652e-05 7.27447e-05 8.49052e-05 9.68227e-05 0.000109629 0.000126454 0.000153331 0.000199856 0.000279068 0.000405909 0.000593788
          0.000849412 0.00116705 0.00152438 0.00188246 0.0021913 0.00240076 0.00247345 0.00239533 0.00217987 0.00186396 0.00149744 0.00113019
          0.000801357 0.00053379 0.000334025 0.000196358 0.00150344 0.00219846 0.00308872 0.00416933 0.00540733 0.00673795 0.00806679 0.00927901
          0.0102549 0.010889 0.011109 0.010889 0.0102549 0.00927907 0.00806687 0.00673809 0.00540754 0.00416962 0.00308911 0.00219894
          0.00150401 0.000988455 0.000624246 0.000378858 0.000220984 0.000123896 6.67787e-05 3.46077e-05 1.72484e-05 8.26903e-06 3.81391e-06 1.69263e-06
          0.00238156 0.00348252 0.00489275 0.00660453 0.00856561 0.0106734 0.0127784 0.0146986 0.0162445 0.017249 0.0175975 0.0172491
          0.0162446 0.0146988 0.0127787 0.0106739 0.00856632 0.00660553 0.00489408 0.00348416 0.00238348 0.00156691 0.000990011 0.000601263
          0.000351078 0.000197137 0.000106486 5.53522e-05 2.76993e-05 1.33496e-05 6.19849e-06 2.77353e-06 0.00362464 0.00530026 0.00744658 0.0100518
          0.0130365 0.0162445 0.0194482 0.0223708 0.0247235 0.0262524 0.0267828 0.0262525 0.0247238 0.0223713 0.0194492 0.016246
          0.0130388 0.010055 0.00745079 0.00530549 0.00363076 0.00238828 0.00151037 0.0009186 0.000537515 0.000302761 0.000164258 8.58977e-05
          4.333e-05 2.10987e-05 9.9227e-06 4.50859e-06 0.00530026 0.00775048 0.010889 0.0146986 0.0190631 0.0237541 0.0284388 0.0327125
          0.0361529 0.0383885 0.0391641 0.0383889 0.0361537 0.0327141 0.0284416 0.0237586 0.0190698 0.0147081 0.0109016 0.0077661
          0.00531852 0.00350257 0.00221915 0.00135349 0.000795317 0.000450693 0.000246596 0.000130441 6.67885e-05 3.31357e-05 1.59387e-05 7.43284e-06
          0.00744658 0.010889 0.0152985 0.0206508 0.0267827 0.0333733 0.0399551 0.0459593 0.050793 0.053934 0.0550239 0.053935
          0.0507954 0.0459639 0.0399629 0.0333858 0.0268015 0.0206774 0.0153337 0.0109328 0.0074978 0.00494901 0.00314675 0.00192965
          0.00114294 0.000655063 0.000364023 0.000196523 0.000103238 5.2818e-05 2.6313e-05 1.27472e-05 0.0100518 0.0146986 0.0206508 0.0278757
          0.0361528 0.0450492 0.0539337 0.0620386 0.0685635 0.0728036 0.0742753 0.0728063 0.0685699 0.0620507 0.0539544 0.0450823
          0.0362025 0.0279457 0.0207436 0.0148141 0.0101868 0.00675273 0.00432224 0.00267703 0.00160861 0.000940529 0.000536607 0.000299418
          0.000163565 8.74233e-05 4.56105e-05 2.31395e-05 0.0130365 0.0190631 0.0267827 0.0361528 0.0468877 0.0584257 0.0699483 0.0804599
          0.0889224 0.0944221 0.0963318 0.0944288 0.0889382 0.0804897 0.0699994 0.0585075 0.0470106 0.0363261 0.0270122 0.0193488
          0.0133705 0.00893243 0.00578579 0.00364653 0.00224524 0.00135578 0.000805205 0.000470801 0.000270617 0.000152341 8.35337e-05 4.43425e-05
          0.0162445 0.0237541 0.0333733 0.0450492 0.0584257 0.072803 0.0871611 0.10026 0.110805 0.117659 0.120041 0.117675
          0.110842 0.100329 0.0872799 0.0729932 0.0587113 0.0454521 0.033907 0.0244183 0.0170211 0.0115263 0.0076179 0.00493965
          0.00315811 0.00199765 0.00125103 0.000773615 0.000469784 0.000278142 0.000159355 8.7743e-05 0.0194482 0.0284388 0.0399551 0.0539337
          0.0699483 0.0871611 0.104351 0.120033 0.13266 0.140868 0.143725 0.140902 0.13274 0.120185 0.104611 0.0875765
          0.0705722 0.0548136 0.0411208 0.0298896 0.0211444 0.0146412 0.00998878 0.00675561 0.00454739 0.0030472 0.00202452 0.00132381
          0.000844394 0.000520823 0.000308321 0.000174145 0.0223708 0.0327124 0.0459593 0.0620386 0.0804598 0.100259 0.120033 0.138073
          0.152599 0.162046 0.165343 0.162116 0.152763 0.138383 0.120565 0.101112 0.0817399 0.0638441 0.0483512 0.0356893
          0.025851 0.018521 0.0132227 0.00945034 0.00675999 0.00481314 0.00337979 0.0023161 0.00153386 0.000973845 0.000589169 0.000338179
          0.0247235 0.0361528 0.0507929 0.0685632 0.0889219 0.110804 0.132658 0.152597 0.168655 0.179105 0.182768 0.179239
          0.168972 0.153195 0.133684 0.112447 0.0913895 0.0720434 0.0554035 0.0418908 0.0314319 0.0236123 0.0178565 0.0135877
          0.010333 0.00776744 0.00570234 0.00404453 0.00274809 0.00177765 0.00109005 0.000631773 0.0262523 0.0383884 0.0539337 0.072803
          0.0944208 0.117656 0.140863 0.162038 0.179096 0.190209 0.194133 0.190453 0.179671 0.163121 0.142721 0.120632
          0.098889 0.0791048 0.0622824 0.0487786 0.0383997 0.0305903 0.0246538 0.0199458 0.0159961 0.0125451 0.00950798 0.00690112
          0.00476629 0.00311879 0.00192793 0.00112378 0.0267827 0.0391639 0.0550233 0.0742739 0.0963286 0.120034 0.143712 0.16532
          0.182735 0.194099 0.198159 0.194514 0.183712 0.167162 0.146873 0.125095 0.103929 0.0849936 0.0692249 0.0568382
          0.047446 0.0402917 0.0345236 0.0294322 0.0245899 0.0198728 0.0153843 0.0113313 0.00790516 0.0052086 0.00323522 0.0018921
          0.0262524 0.0383884 0.0539338 0.0728033 0.0944217 0.117659 0.140871 0.162059 0.179148 0.190329 0.194396 0.190992
          0.18071 0.165003 0.145922 0.125747 0.106568 0.0899334 0.0766279 0.0666319 0.0592723 0.0535143 0.0483055 0.0428698
          0.0368687 0.0303984 0.0238535 0.0177297 0.0124449 0.00823384 0.00512885 0.0030055 0.0247235 0.0361529 0.050793 0.0685639
          0.0889239 0.11081 0.132674 0.15264 0.168761 0.179352 0.183308 0.180346 0.171106 0.157059 0.140257 0.122951
          0.107157 0.0942791 0.0848609 0.0785513 0.0742923 0.0706852 0.0664237 0.0606606 0.0531934 0.0444279 0.0351598 0.0262802
          0.0185155 0.012281 0.00766291 0.00449575 0.0223708 0.0327125 0.0459596 0.0620395 0.0804628 0.100268 0.120058 0.138139
          0.152763 0.162429 0.166179 0.163831 0.15607 0.144371 0.130752 0.117389 0.106176 0.0983038 0.094003 0.0925038
          0.092274 0.0914723 0.0884897 0.0824017 0.0731829 0.0616277 0.0490316 0.0367759 0.0259695 0.0172515 0.0107755 0.00632639
          0.0194482 0.0284389 0.0399554 0.053935 0.0699524 0.0871734 0.104386 0.120124 0.132885 0.141392 0.14487 0.14325
          0.137266 0.12838 0.118552 0.109855 0.104016 0.101977 0.103603 0.10765 0.112055 0.114487 0.113004 0.106601
          0.095458 0.0808071 0.0645064 0.0484876 0.0342885 0.0227994 0.0142499 0.00836998 0.0162445 0.0237542 0.0333738 0.0450508
          0.0584309 0.0728185 0.0872047 0.100374 0.111089 0.118319 0.121482 0.120632 0.116541 0.110649 0.104835 0.101046
          0.100824 0.104841 0.112584 0.122333 0.131495 0.137252 0.137334 0.130665 0.117632 0.0999128 0.079928 0.0601621
          0.0425826 0.0283313 0.0177146 0.0104079 0.0130366 0.0190633 0.0267832 0.0361548 0.0468938 0.0584439 0.0699994 0.0805946
          0.0892556 0.0951968 0.0980238 0.0979005 0.09563 0.092607 0.0906116 0.0914456 0.0964565 0.106056 0.119389 0.134314
          0.147779 0.156551 0.15809 0.151265 0.136653 0.116321 0.0931824 0.0702007 0.0497166 0.0330904 0.0206957 0.0121616
          0.0100519 0.0146988 0.0206515 0.0278778 0.0361596 0.0450693 0.0539899 0.0621867 0.06893 0.0736557 0.0761364 0.0766252
          0.0759309 0.0753798 0.0766279 0.0813145 0.0905935 0.104649 0.122359 0.141277 0.158037 0.169134 0.171858 0.165059
          0.149459 0.127403 0.102152 0.0770031 0.0545546 0.0363197 0.0227192 0.0133522 0.00744663 0.0108892 0.0152992 0.020653
          0.0267896 0.033394 0.0400131 0.0461122 0.0511713 0.0548136 0.0569452 0.0578774 0.0583945 0.059724 0.0633697 0.0707898
          0.0829515 0.0998616 0.120236 0.141485 0.160129 0.172582 0.176101 0.169563 0.153774 0.131208 0.105266 0.0793807
          0.0562532 0.0374568 0.0234331 0.0137729 0.0053003 0.00775066 0.0108896 0.0147008 0.0190698 0.0237742 0.0284951 0.0328606
          0.0365197 0.0392413 0.0410268 0.0422107 0.0435206 0.0460537 0.0511331 0.0600194 0.0735038 0.0914723 0.112598 0.134329
          0.153285 0.166012 0.169888 0.163863 0.148762 0.127013 0.101943 0.0768946 0.0545008 0.036294 0.0227074 0.013347
          0.00362468 0.00530041 0.00744715 0.0100538 0.0130426 0.0162628 0.0194994 0.0225057 0.0250575 0.0270289 0.0284788 0.0297326
          0.0314319 0.0345181 0.0401116 0.0492645 0.0626053 0.0799551 0.100053 0.120551 0.138367 0.150367 0.154186 0.148897
          0.135273 0.115548 0.0927668 0.0699859 0.0496099 0.0330395 0.0206723 0.0121513 0.00238159 0.00348265 0.00489324 0.00660617
          0.00857084 0.010689 0.0128222 0.0148141 0.0165302 0.0179132 0.0190483 0.0202259 0.0219825 0.0250888 0.0304527 0.0389169
          0.0509641 0.0663959 0.0841035 0.102062 0.117632 0.128143 0.131584 0.127178 0.1156 0.0987748 0.0793159 0.0598457
          0.0424254 0.0282563 0.0176802 0.0103928 0.00150347 0.00219856 0.00308911 0.00417065 0.00541153 0.0067505 0.00810199 0.00937176
          0.0104844 0.0114227 0.0122747 0.013281 0.0148655 0.0176278 0.0222685 0.0294322 0.0394754 0.0522131 0.0667363 0.0814092
          0.0941102 0.102696 0.105561 0.102087 0.0928271 0.0793341 0.063714 0.048078 0.0340851 0.0227024 0.0142054 0.00835039
          0.000911903 0.00133351 0.0018737 0.00252982 0.00328288 0.00409625 0.00491933 0.00569801 0.00639318 0.0070074 0.0076179 0.00841007
          0.00970019 0.01193 0.0156128 0.0212173 0.0289957 0.0387941 0.0499171 0.0611248 0.0708151 0.0773728 0.079589 0.0770031
          0.0700369 0.0598662 0.048084 0.0362861 0.0257263 0.0171355 0.0107223 0.00630296 0.000531413 0.000777113 0.00109193 0.00147438
          0.0019135 0.00238828 0.00287009 0.00332935 0.00374751 0.00413445 0.00455051 0.0051291 0.00609253 0.00774847 0.0104529 0.0145289
          0.0201466 0.0271896 0.0351598 0.0431755 0.0501002 0.0547898 0.0563892 0.0545744 0.0496467 0.0424421 0.0340916 0.0257281
          0.0182414 0.0121502 0.00760294 0.00446934 0.000297539 0.00043511 0.000611392 0.000825577 0.0010716 0.00133791 0.00160896 0.00186937
          0.00211128 0.00234523 0.00261412 0.0030078 0.0036734 0.00481314 0.00666018 0.00942532 0.0132175 0.0179556 0.0233055 0.0286785
          0.0333175 0.0364608 0.0375399 0.0363402 0.0330636 0.0282679 0.0227074 0.0171373 0.0121507 0.00809349 0.00506451 0.00297716
          0.00016006 0.000234069 0.000328907 0.000444156 0.000576594 0.000720112 0.000866633 0.00100852 0.00114294 0.00127832 0.00144276 0.00169295
          0.00212049 0.00285069 0.00402761 0.00578108 0.00817728 0.0111639 0.0145305 0.0179083 0.0208234 0.0227994 0.023481 0.0227345
          0.0206868 0.0176874 0.0142088 0.0107237 0.00760344 0.00506464 0.00316922 0.00186303 8.27278e-05 0.00012098 0.000170002 0.000229583
          0.00029808 0.00037239 0.000448478 0.000522727 0.000594368 0.000669158 0.000764165 0.000912906 0.00116904 0.00160568 0.00230672 0.00334758
          0.00476629 0.00653138 0.0085187 0.0105112 0.0122301 0.0133956 0.0137991 0.0133621 0.0121595 0.010397 0.0083524 0.00630385
          0.0044697 0.00297729 0.00186306 0.00109521 4.10816e-05 6.00779e-05 8.44235e-05 0.000114017 0.000148053 0.000185015 0.000222965 0.000260256
          0.00029683 0.000336191 0.000387986 0.000470801 0.000614194 0.000858319 0.00124918 0.00182807 0.00261563 0.0035942 0.00469501 0.00579808
          0.00674949 0.00739474 0.00761866 0.00737808 0.00671443 0.00574138 0.00461243 0.00348121 0.00246835 0.00164419 0.00102887 0.000604826
          1.96007e-05 2.86643e-05 4.02808e-05 5.44033e-05 7.06508e-05 8.83111e-05 0.000106486 0.000124452 0.000142315 0.000162013 0.000188633 0.000231848
          0.000306961 0.000434723 0.000638881 0.000940718 0.00135081 0.0018599 0.00243222 0.0030055 0.00349988 0.00383521 0.0039518 0.00382727
          0.00348315 0.00297845 0.00239282 0.00180599 0.00128054 0.000852984 0.000533766 0.000313778 0.00211225 0.00308872 0.00433948 0.00585769
          0.00759701 0.00946646 0.0113334 0.0130365 0.0144076 0.0152985 0.0156076 0.0152985 0.0144076 0.0130366 0.0113335 0.00946667
          0.00759733 0.00585813 0.00434007 0.00308945 0.00211311 0.00138879 0.000877094 0.000532336 0.000310525 0.000174115 9.38582e-05 4.86504e-05
          2.42533e-05 1.1631e-05 5.36674e-06 2.383e-06 0.00334597 0.00489275 0.00687406 0.00927901 0.0120342 0.0149956 0.017953 0.0206508
          0.0228227 0.024234 0.0247236 0.024234 0.0228228 0.0206511 0.0179534 0.0149963 0.0120353 0.00928051 0.00687605 0.00489523
          0.00334886 0.00220163 0.00139112 0.000844947 0.000493431 0.000277125 0.000149734 7.7863e-05 3.89842e-05 1.88009e-05 8.73695e-06 3.91337e-06
          0.00509243 0.00744658 0.0104621 0.0141223 0.0183156 0.0228227 0.0273237 0.0314298 0.0347353 0.0368832 0.0376284 0.0368834
          0.0347357 0.0314306 0.0273251 0.0228249 0.018319 0.0141271 0.0104684 0.00745444 0.00510161 0.00335605 0.00212266 0.00129123
          0.000755769 0.000425867 0.000231179 0.000120987 6.10929e-05 2.97869e-05 1.40312e-05 6.3874e-06 0.00744658 0.010889 0.0152985 0.0206508
          0.0267827 0.0333733 0.0399551 0.0459593 0.0507929 0.0539338 0.0550236 0.0539344 0.0507942 0.0459617 0.0399593 0.03338
          0.0267928 0.020665 0.0153174 0.0109125 0.007474 0.00492286 0.00311978 0.00190351 0.00111914 0.000634703 0.000347663 0.000184174
          9.44809e-05 4.69846e-05 2.26626e-05 1.06012e-05 0.0104621 0.0152985 0.0214936 0.0290133 0.0376283 0.0468877 0.0561348 0.0645704
          0.0713615 0.0757744 0.0773057 0.075776 0.0713651 0.0645773 0.0561466 0.0469065 0.0376565 0.0290532 0.0215464 0.0153643
          0.0105389 0.00695851 0.00442661 0.00271648 0.0016107 0.000924545 0.00051482 0.000278662 0.000146857 7.54143e-05 3.77242e-05 1.83534e-05
          0.0141223 0.0206508 0.0290133 0.0391639 0.0507928 0.0632918 0.0757741 0.0871611 0.0963281 0.102285 0.104353 0.102289
          0.0963377 0.0871791 0.0758051 0.0633414 0.0508674 0.039269 0.0291526 0.0208241 0.0143249 0.0095015 0.00608724 0.00377536
          0.002273 0.0013325 0.000762829 0.000427404 0.000234578 0.000126007 6.60718e-05 3.36804e-05 0.0183156 0.0267827 0.0376283 0.0507928
          0.0658748 0.0820851 0.0982738 0.113042 0.124931 0.132658 0.135342 0.132668 0.124955 0.113087 0.0983505 0.0822079
          0.0660592 0.0510529 0.0379729 0.0272115 0.018817 0.0125849 0.00816515 0.00515848 0.00318658 0.00193229 0.00115336 0.000678125
          0.000392027 0.000221907 0.000122289 6.51965e-05 0.0228227 0.0333733 0.0468877 0.0632918 0.0820851 0.102284 0.122457 0.14086
          0.155676 0.165306 0.168653 0.165329 0.155731 0.140964 0.122635 0.10257 0.0825139 0.0638965 0.0476889 0.0343704
          0.0239884 0.0162759 0.0107874 0.00702202 0.00451171 0.00287052 0.00180899 0.00112566 0.000687513 0.000409088 0.000235345 0.000130011
          0.0273237 0.0399551 0.0561348 0.075774 0.0982737 0.122457 0.146608 0.168641 0.18638 0.197913 0.201929 0.197964
          0.186501 0.168868 0.146997 0.12308 0.0992103 0.077095 0.0578848 0.042133 0.0298699 0.0207494 0.0142187 0.00967054
          0.00655207 0.00442077 0.00295653 0.00194456 0.00124637 0.000771728 0.000458205 0.000259379 0.0314298 0.0459593 0.0645704 0.0871609
          0.113042 0.140859 0.16864 0.193985 0.214394 0.227668 0.232302 0.227773 0.214641 0.194451 0.169439 0.142139
          0.114964 0.0898713 0.0681611 0.050428 0.0366543 0.0263888 0.0189567 0.0136451 0.00983234 0.00704868 0.0049786 0.00342775
          0.0022782 0.00145027 0.000879112 0.000505317 0.0347353 0.0507928 0.0713613 0.0963278 0.124931 0.155674 0.186378 0.214391
          0.236953 0.251637 0.256788 0.251839 0.237429 0.215289 0.187918 0.158141 0.128635 0.101552 0.0782826 0.0594066
          0.0448058 0.033883 0.025819 0.0197989 0.0151629 0.011465 0.00845517 0.00601727 0.0040984 0.00265571 0.00163046 0.000945806
          0.0368832 0.0539337 0.0757741 0.102284 0.132656 0.165301 0.197906 0.227656 0.251624 0.26724 0.272761 0.267606
          0.252486 0.229282 0.200695 0.169768 0.139364 0.111745 0.088307 0.0695312 0.0551185 0.0442616 0.0359619 0.0293066
          0.0236427 0.0186251 0.0141616 0.0103021 0.00712642 0.0046682 0.0028879 0.00168423 0.0376283 0.0550233 0.0773049 0.104351
          0.135337 0.168642 0.201908 0.232267 0.256738 0.272711 0.278428 0.273333 0.258205 0.235033 0.206653 0.17624
          0.146747 0.120443 0.098624 0.0815555 0.0686476 0.0587916 0.0507571 0.0435346 0.0365359 0.029621 0.0229808 0.0169514
          0.0118378 0.00780509 0.00485025 0.00283756 0.0368832 0.0539337 0.0757742 0.102285 0.132658 0.165306 0.197918 0.227687
          0.251701 0.267421 0.273156 0.268416 0.254046 0.232106 0.2055 0.177446 0.150891 0.128 0.109842 0.0963321
          0.086452 0.0786747 0.0714673 0.0637197 0.0549761 0.045426 0.0356968 0.0265577 0.0186534 0.0123468 0.00769305 0.00450903
          0.0347353 0.0507929 0.0713616 0.0963287 0.124934 0.155683 0.186402 0.214456 0.237112 0.252007 0.257597 0.253501
          0.240632 0.22109 0.197785 0.173908 0.152305 0.134932 0.122504 0.11444 0.109147 0.104548 0.098727 0.0904638
          0.079504 0.0664989 0.0526761 0.039397 0.0277682 0.0184232 0.0114975 0.00674633 0.0314298 0.0459594 0.0645708 0.0871624
          0.113046 0.140873 0.168678 0.194085 0.214641 0.228242 0.233557 0.230348 0.219606 0.20344 0.184731 0.166574
          0.151646 0.141602 0.136693 0.135717 0.136367 0.135902 0.131946 0.123158 0.109545 0.0923374 0.07351 0.055158
          0.0389604 0.0258859 0.0161705 0.00949468 0.0273238 0.0399552 0.0561353 0.075776 0.0982799 0.122475 0.14666 0.168777
          0.186719 0.1987 0.203647 0.201489 0.193295 0.181171 0.167926 0.156525 0.149416 0.147896 0.151681 0.158864
          0.166343 0.170636 0.168863 0.159557 0.143025 0.121152 0.0967529 0.0727458 0.051452 0.0342159 0.021387 0.0125628
          0.0228227 0.0333735 0.0468884 0.0632942 0.0820929 0.102308 0.122522 0.141032 0.156101 0.166296 0.170816 0.169768
          0.164286 0.156456 0.148989 0.144683 0.145733 0.153049 0.165797 0.181358 0.195835 0.205012 0.205515 0.195758
          0.176358 0.149859 0.119917 0.0902784 0.0639063 0.0425219 0.0265888 0.0156224 0.0183157 0.0267829 0.0376291 0.0507957
          0.0658839 0.0821124 0.0983505 0.113244 0.125432 0.133821 0.137882 0.13788 0.135001 0.131277 0.129293 0.131654
          0.140286 0.15573 0.176647 0.199795 0.220587 0.234186 0.236801 0.22676 0.204957 0.174516 0.139828 0.105355
          0.0746192 0.0496678 0.0310648 0.0182553 0.0141224 0.0206511 0.0290143 0.0391671 0.0508029 0.0633219 0.0758585 0.0873833
          0.0968783 0.103565 0.107147 0.108022 0.107388 0.107188 0.109842 0.117732 0.132518 0.154415 0.181696 0.210667
          0.236274 0.253265 0.257589 0.247539 0.224222 0.191176 0.153306 0.115573 0.0818852 0.054517 0.0341031 0.020043
          0.0104621 0.0152988 0.0214946 0.0290166 0.0376387 0.0469188 0.0562219 0.0647999 0.0719294 0.077095 0.08019 0.0816942
          0.0827727 0.0852337 0.0912843 0.103057 0.121948 0.147923 0.179023 0.211347 0.239666 0.258605 0.264061 0.254363
          0.230738 0.196907 0.157991 0.119148 0.084438 0.0562254 0.0351755 0.0206748 0.00744665 0.0108893 0.0152994 0.020654
          0.0267928 0.0334034 0.0400395 0.0461817 0.0513435 0.055214 0.0578197 0.0596717 0.0618531 0.0659869 0.0740232 0.087814
          0.108508 0.135902 0.167981 0.200906 0.229599 0.248879 0.25482 0.24586 0.223244 0.190628 0.153011 0.115421
          0.0818095 0.0544809 0.0340866 0.0200357 0.00509249 0.00744682 0.0104629 0.0141252 0.0183248 0.0228501 0.0274006 0.0316323
          0.0352366 0.0380489 0.0401745 0.0421077 0.0448058 0.0496651 0.0583431 0.0723915 0.0927272 0.119059 0.149481 0.180459
          0.207364 0.225498 0.231316 0.223433 0.203018 0.17343 0.139244 0.105053 0.0744693 0.0495963 0.031032 0.0182409
          0.00334602 0.00489296 0.00687479 0.00928149 0.0120421 0.015019 0.0180187 0.0208241 0.0232515 0.0252311 0.0269014 0.0287027
          0.0314365 0.0362483 0.0444852 0.057394 0.0756818 0.0990365 0.125783 0.152878 0.176358 0.192215 0.197436 0.190858
          0.173503 0.14826 0.119057 0.0898339 0.0636855 0.0424165 0.0265406 0.0156012 0.0021123 0.00308888 0.00434007 0.00585968
          0.00760333 0.0094853 0.0113863 0.0131758 0.0147522 0.0160997 0.0173576 0.0188893 0.0213289 0.0255695 0.0326527 0.0435346
          0.0587393 0.0779799 0.0998859 0.121998 0.141131 0.154071 0.158405 0.153214 0.139329 0.119083 0.0956396 0.0721704
          0.0511662 0.0340795 0.0213245 0.0125353 0.00128118 0.00187352 0.00263247 0.00355437 0.00461259 0.00575592 0.00691395 0.00801215
          0.00899876 0.0098838 0.0107874 0.0119895 0.0139632 0.0173674 0.0229667 0.0314577 0.043212 0.0579936 0.0747542 0.0916309
          0.106218 0.116093 0.119441 0.115573 0.105125 0.0898627 0.0721788 0.0544699 0.0386187 0.0257229 0.0160958 0.00946177
          0.000746609 0.00109181 0.00153412 0.00207149 0.00268858 0.00335605 0.00403413 0.00468235 0.00527688 0.00583618 0.00645327 0.00732932
          0.00879717 0.0113162 0.0154172 0.0215813 0.0300597 0.0406747 0.0526761 0.0647393 0.0751582 0.0822157 0.0846291 0.081913
          0.074521 0.0637089 0.0511753 0.0386213 0.027383 0.0182394 0.0114132 0.00670922 0.000418027 0.000611311 0.000858987 0.00115994
          0.00150569 0.00188012 0.00226171 0.00262956 0.00297411 0.00331323 0.00371269 0.00430788 0.00531913 0.00704868 0.00984449 0.0140208
          0.0197388 0.0268752 0.0349269 0.0430097 0.0499868 0.0547153 0.0563422 0.0545458 0.0496301 0.0424328 0.0340866 0.0257255
          0.0182401 0.0121496 0.00760266 0.00446922 0.000224877 0.000328856 0.000462106 0.000624044 0.000810175 0.00101199 0.00121833 0.00141892
          0.0016107 0.00180743 0.00205203 0.00242986 0.00307817 0.00418433 0.00596351 0.00860941 0.0122202 0.0167162 0.0217813 0.0268611
          0.0312442 0.0342159 0.0352428 0.0341247 0.0310523 0.0265507 0.0213292 0.0160978 0.0114139 0.00760284 0.00475753 0.00279673
          0.000116229 0.000169972 0.000238849 0.000322569 0.00041884 0.000523347 0.000630533 0.000735575 0.000837953 0.000946868 0.00108833 0.00131278
          0.00170064 0.00236128 0.00342008 0.00498964 0.00712642 0.00978268 0.0127717 0.0157675 0.0183516 0.020104 0.0207116 0.0200568
          0.0182524 0.0156071 0.0125381 0.00946302 0.00670973 0.00446939 0.00279677 0.00164409 5.77177e-05 8.4407e-05 0.000118613 0.000160198
          0.000208036 0.000260024 0.000313499 0.000366292 0.000418631 0.000476051 0.000553226 0.000678125 0.00089505 0.00126409 0.00185403 0.00272654
          0.00391231 0.00538457 0.00703993 0.00869816 0.0101282 0.0110982 0.0114353 0.0110748 0.010079 0.0086185 0.0069239 0.00522583
          0.00370539 0.0024682 0.00154451 0.000907947 2.7538e-05 4.02723e-05 5.65939e-05 7.64386e-05 9.92759e-05 0.000124118 0.000149734 0.000175183
          0.000200775 0.00022955 0.000269235 0.000334384 0.000447938 0.000640955 0.000948953 0.00140373 0.00202103 0.00278681 0.00364732 0.00450903
          0.00525205 0.0057561 0.00593157 0.00574493 0.00522855 0.00447102 0.00359197 0.00271107 0.0019223 0.00128047 0.000801273 0.000471034
          0.00285124 0.00416933 0.00585769 0.00790705 0.0102549 0.0127784 0.0152985 0.0175975 0.0194482 0.0206508 0.021068 0.0206509
          0.0194483 0.0175976 0.0152987 0.0127787 0.0102553 0.00790768 0.00585852 0.00417036 0.00285245 0.00187472 0.00118401 0.000718635
          0.000419217 0.000235075 0.000126731 6.5698e-05 3.27575e-05 1.57128e-05 7.25225e-06 3.22136e-06 0.00451658 0.00660453 0.00927901 0.0125254
          0.0162445 0.0202419 0.024234 0.0278757 0.0308074 0.0327125 0.0333733 0.0327125 0.0308076 0.0278761 0.0242346 0.0202429
          0.016246 0.0125275 0.00928181 0.00660801 0.00452066 0.00297208 0.00187802 0.00114075 0.000666237 0.000374229 0.00020224 0.000105195
          5.26874e-05 2.54213e-05 1.18204e-05 5.29822e-06 0.00687406 0.0100518 0.0141223 0.0190631 0.0247235 0.0308074 0.0368832 0.0424258
          0.0468877 0.0497871 0.050793 0.0497874 0.0468883 0.0424269 0.0368852 0.0308106 0.0247283 0.0190698 0.0141312 0.0100629
          0.00688701 0.0045308 0.00286592 0.00174359 0.00102074 0.000575334 0.00031244 0.000163603 8.26707e-05 4.03439e-05 1.90251e-05 8.67206e-06
          0.0100518 0.0146986 0.0206508 0.0278757 0.0361528 0.0450492 0.0539337 0.0620385 0.0685632 0.0728031 0.0742741 0.0728039
          0.0685651 0.062042 0.0539396 0.0450587 0.0361671 0.0278958 0.0206774 0.0147317 0.0100905 0.00664699 0.00421314 0.00257129
          0.00151233 0.000858175 0.000470433 0.000249468 0.000128145 6.38282e-05 3.08451e-05 1.44593e-05 0.0141223 0.0206508 0.0290133 0.0391639
          0.0507928 0.0632918 0.075774 0.087161 0.0963279 0.102285 0.104352 0.102287 0.096333 0.0871706 0.0757906 0.0633183
          0.0508327 0.0392201 0.0290879 0.0207436 0.0142307 0.0093981 0.00598056 0.00367196 0.00217886 0.00125198 0.000698125 0.000378562
          0.000199944 0.000102936 5.16342e-05 2.5193e-05 0.0190631 0.0278757 0.0391639 0.0528657 0.0685632 0.085435 0.102284 0.117655
          0.130029 0.138071 0.140862 0.138077 0.130043 0.117681 0.102328 0.085505 0.0686682 0.0530139 0.0393602 0.0281201
          0.0193488 0.0128391 0.00823077 0.00510963 0.00308046 0.00180915 0.00103812 0.00058328 0.000321145 0.000173089 9.1063e-05 4.65663e-05
          0.0247235 0.0361528 0.0507928 0.0685632 0.0889216 0.110803 0.132656 0.152591 0.16864 0.17907 0.182692 0.179084
          0.168673 0.152654 0.132764 0.110976 0.0891817 0.06893 0.0512788 0.0367576 0.0254306 0.0170211 0.0110561 0.00699646
          0.0043317 0.00263421 0.00157768 0.000931076 0.000540315 0.000306961 0.000169715 9.07347e-05 0.0308074 0.0450492 0.0632918 0.085435
          0.110803 0.138069 0.1653 0.190141 0.21014 0.22314 0.227658 0.223173 0.210218 0.190287 0.165551 0.138472
          0.111408 0.0862878 0.0644216 0.0464554 0.0324514 0.0220475 0.0146412 0.00955603 0.00616055 0.00393499 0.00249025 0.00155599
          0.000953934 0.000569457 0.000328474 0.000181841 0.0368832 0.0539337 0.075774 0.102284 0.132656 0.165299 0.1979 0.227641
          0.251587 0.267156 0.272577 0.267228 0.251757 0.227961 0.198449 0.166179 0.133976 0.104147 0.0782419 0.057005
          0.0404739 0.0281776 0.0193674 0.0132227 0.00899808 0.00609889 0.00409654 0.00270463 0.00173898 0.00107939 0.000642084 0.000363982
          0.0424257 0.0620385 0.0871609 0.117655 0.15259 0.19014 0.22764 0.261853 0.289402 0.307321 0.313579 0.307469
          0.289751 0.26251 0.228768 0.191945 0.155301 0.121477 0.0922246 0.0683405 0.0497935 0.0359676 0.0259462 0.0187653
          0.0135877 0.00978448 0.00693717 0.00479061 0.00319127 0.00203495 0.00123504 0.000710539 0.0468877 0.0685632 0.0963277 0.130029
          0.168639 0.210138 0.251584 0.289398 0.319854 0.339677 0.346635 0.339962 0.320526 0.290665 0.253756 0.213616
          0.173863 0.137396 0.106088 0.0807105 0.0610894 0.0464049 0.0355408 0.0273935 0.0210758 0.0159961 0.0118311 0.00843785
          0.00575591 0.00373381 0.00229412 0.00133151 0.0497871 0.0728029 0.102284 0.13807 0.179067 0.223134 0.267145 0.307304
          0.339659 0.360743 0.368203 0.361259 0.340876 0.309597 0.271079 0.229432 0.188527 0.151411 0.119959 0.0947989
          0.075503 0.0609559 0.0497908 0.0407688 0.0330151 0.0260828 0.0198728 0.0144775 0.0100246 0.00657118 0.00406708 0.00237272
          0.0507928 0.0742736 0.104351 0.140859 0.182686 0.227644 0.272548 0.31353 0.346564 0.368132 0.375862 0.369009
          0.348634 0.31743 0.27924 0.238358 0.198776 0.163553 0.134415 0.11169 0.0945372 0.081417 0.0706368 0.0608221
          0.0511909 0.0415858 0.0323079 0.0238535 0.0166683 0.0109947 0.00683431 0.00399912 0.0497871 0.0728029 0.102285 0.13807
          0.179069 0.22314 0.267162 0.307349 0.339769 0.360998 0.368759 0.3624 0.343076 0.313581 0.277855 0.240261
          0.204782 0.174335 0.150328 0.132594 0.11969 0.109486 0.0998616 0.089299 0.0772024 0.0638782 0.0502422 0.0374016
          0.0262802 0.0173997 0.0108434 0.00635632 0.0468877 0.0685633 0.0963281 0.13003 0.168643 0.21015 0.251618 0.289489
          0.320079 0.3402 0.347777 0.342306 0.325044 0.298845 0.267671 0.235852 0.207242 0.184469 0.16845 0.158321
          0.151825 0.146058 0.138358 0.127047 0.111811 0.0936063 0.0741926 0.0555108 0.0391356 0.0259695 0.0162089 0.00951156
          0.0424258 0.0620387 0.0871615 0.117657 0.152597 0.190159 0.227694 0.261994 0.289751 0.308132 0.315349 0.311101
          0.296752 0.275187 0.250332 0.226404 0.207031 0.194429 0.188869 0.188617 0.190411 0.190406 0.185287 0.173203
          0.154205 0.130061 0.103582 0.0777419 0.0549215 0.0364947 0.0227994 0.0133876 0.0368832 0.0539339 0.0757748 0.102287
          0.132664 0.165325 0.197973 0.227834 0.252065 0.268265 0.275 0.272199 0.261339 0.245312 0.227964 0.213343
          0.204778 0.203993 0.210516 0.221623 0.232932 0.239551 0.23745 0.224596 0.201456 0.170717 0.136371 0.10255
          0.0725402 0.0482432 0.0301564 0.0177146 0.0308075 0.0450495 0.0632928 0.0854384 0.110814 0.138102 0.165392 0.190383
          0.210741 0.224536 0.230709 0.229432 0.222283 0.212135 0.202715 0.197861 0.200561 0.212013 0.230981 0.253742
          0.274794 0.288208 0.289251 0.275717 0.248503 0.211221 0.169049 0.127281 0.0901067 0.059958 0.0374929 0.0220297
          0.0247236 0.0361532 0.050794 0.0685672 0.0889346 0.110842 0.132764 0.152876 0.169345 0.18071 0.186274 0.186434
          0.18284 0.178306 0.1764 0.180706 0.193859 0.216548 0.246841 0.280139 0.309972 0.329529 0.333484 0.319504
          0.288873 0.246016 0.19714 0.148549 0.105217 0.0700369 0.0438056 0.0257429 0.0190632 0.0278761 0.0391652 0.0528702
          0.0685774 0.0854774 0.102403 0.117969 0.130805 0.139875 0.144802 0.146161 0.145626 0.145898 0.150328 0.162209
          0.183814 0.215396 0.254481 0.295842 0.332348 0.356601 0.362905 0.348872 0.316079 0.269531 0.216159 0.162965
          0.115467 0.0768767 0.048091 0.0282643 0.0141224 0.0206512 0.0290147 0.0391685 0.0508075 0.0633356 0.0758969 0.0874846
          0.0971288 0.104147 0.108419 0.110633 0.11242 0.116301 0.125343 0.142502 0.169702 0.206853 0.251165 0.297123
          0.337352 0.364277 0.372124 0.358551 0.3253 0.277632 0.222776 0.168011 0.119069 0.0792871 0.0496038 0.0291554
          0.0100519 0.014699 0.0206521 0.0278802 0.0361671 0.0450917 0.0540528 0.0623523 0.0693397 0.0746084 0.0782172 0.0808947
          0.0841607 0.090282 0.101977 0.121823 0.151404 0.190406 0.235968 0.282665 0.323336 0.35068 0.359167 0.346605
          0.314758 0.268792 0.215761 0.162759 0.115365 0.076828 0.0480687 0.0282544 0.00687415 0.0100522 0.0141235 0.0190672
          0.0247365 0.0308461 0.0369916 0.0427114 0.0475948 0.051431 0.0543836 0.0571548 0.0610894 0.0681417 0.0806275 0.100711
          0.129661 0.167048 0.210171 0.254038 0.292123 0.317801 0.32608 0.315014 0.286257 0.24455 0.196352 0.148142
          0.105015 0.0699404 0.0437614 0.0257235 0.00451666 0.00660481 0.00928004 0.0125288 0.0162556 0.020275 0.0243267 0.0281201
          0.0314122 0.0341186 0.0364446 0.0390144 0.0429548 0.0498717 0.0616505 0.0800333 0.106002 0.139104 0.176968 0.215297
          0.248503 0.270934 0.278346 0.269103 0.244648 0.209063 0.167889 0.126681 0.0898087 0.0598158 0.0374277 0.022001
          0.0028513 0.00416956 0.00585852 0.00790985 0.0102638 0.012805 0.015373 0.0177938 0.0199342 0.0217807 0.0235359 0.0257146
          0.0292089 0.0352718 0.0453635 0.0608221 0.0823771 0.109616 0.1406 0.171858 0.1989 0.21719 0.223335 0.216034
          0.196466 0.167923 0.134868 0.101774 0.0721545 0.0480592 0.0300721 0.0176774 0.00172941 0.002529 0.00355349 0.00479798
          0.00622663 0.00777054 0.00933527 0.0108216 0.0121628 0.0133782 0.0146412 0.0163477 0.0191637 0.0240147 0.0319733 0.0440158
          0.0606606 0.0815695 0.105261 0.129107 0.149714 0.163666 0.168406 0.162965 0.148239 0.12672 0.101785 0.0768131
          0.0544603 0.0362747 0.0226985 0.0133432 0.00100782 0.00147379 0.00207087 0.00279628 0.00362941 0.0045308 0.00544722 0.006325
          0.00713418 0.00790391 0.00876755 0.0100096 0.0120986 0.0156803 0.0215 0.0302325 0.0422289 0.0572355 0.0741926 0.0912312
          0.105945 0.115913 0.119327 0.115504 0.105085 0.0898402 0.0721667 0.0544637 0.0386156 0.0257214 0.0160951 0.00946147
          0.000564279 0.000825187 0.00115952 0.00156579 0.0020326 0.0025383 0.00305413 0.00355253 0.00402205 0.00448964 0.00504928 0.00589232
          0.00732905 0.00978448 0.0137476 0.0196593 0.0277454 0.0378301 0.049203 0.0606165 0.0704675 0.0771444 0.0794448 0.0769156
          0.0699859 0.0598377 0.0480687 0.0362782 0.0257224 0.0171336 0.0107214 0.00630258 0.000303553 0.000443912 0.000623786 0.000842398
          0.00109371 0.0013663 0.00164528 0.00191721 0.00217886 0.00245057 0.00279353 0.00332834 0.00424833 0.00581707 0.00833706 0.0120804
          0.0171844 0.023536 0.0306886 0.0378604 0.0440479 0.0482432 0.0496947 0.0481201 0.0437888 0.0374414 0.0300784 0.0227012
          0.0160961 0.0107216 0.00670916 0.003944 0.000156892 0.00022944 0.000322418 0.000435439 0.000565425 0.000706594 0.000851549 0.000994024
          0.00113385 0.00128448 0.00148295 0.0018005 0.00235043 0.00328663 0.00478544 0.00700507 0.0100246 0.0137763 0.0179966 0.0222254
          0.0258728 0.0283465 0.0292051 0.0282829 0.025739 0.0220089 0.0176812 0.0133448 0.00946215 0.00630281 0.00394406 0.00231854
          7.79109e-05 0.000113938 0.000160114 0.000216253 0.000280847 0.000351078 0.000423411 0.000495052 0.0005666 0.000646106 0.000754429 0.000931076
          0.00123846 0.00176115 0.00259591 0.00382943 0.00550472 0.0075838 0.00992073 0.0122613 0.0142796 0.0156487 0.0161249 0.0156171
          0.0142131 0.0121538 0.00976412 0.00736952 0.0052254 0.0034807 0.00217809 0.00128041 3.71726e-05 5.43622e-05 7.63951e-05 0.000103186
          0.000134023 0.000167584 0.00020224 0.000236789 0.0002718 0.000311677 0.0003674 0.000459518 0.000620356 0.000893632 0.00132932 0.00197213
          0.00284413 0.00392542 0.00514014 0.00635632 0.00740492 0.00811631 0.00836417 0.00810124 0.00737319 0.00630502 0.00506541 0.00382318
          0.00271086 0.00180574 0.00112997 0.000664263 0.00369786 0.00540733 0.00759701 0.0102549 0.0132999 0.0165727 0.0198411 0.0228227
          0.025223 0.0267827 0.0273237 0.0267827 0.0252231 0.0228228 0.0198413 0.0165731 0.0133005 0.0102557 0.00759811 0.00540869
          0.00369946 0.00243142 0.00153562 0.000932056 0.000543728 0.000304904 0.000164384 8.52231e-05 4.24965e-05 2.03866e-05 9.41081e-06 4.1809e-06
          0.00585769 0.00856561 0.0120342 0.0162445 0.021068 0.0262523 0.0314298 0.0361528 0.0399551 0.0424258 0.0432829 0.0424259
          0.0399553 0.0361533 0.0314306 0.0262537 0.02107 0.0162473 0.0120379 0.00857023 0.00586309 0.00385471 0.00243579 0.0014796
          0.000864177 0.000485446 0.000262369 0.000136489 6.83736e-05 3.29974e-05 1.53476e-05 6.88165e-06 0.00891518 0.0130365 0.0183156 0.0247235
          0.0320647 0.0399551 0.0478349 0.0550232 0.0608101 0.0645704 0.065875 0.0645708 0.0608109 0.0550248 0.0478375 0.0399593
          0.032071 0.0247324 0.0183274 0.0130512 0.00893233 0.00587653 0.0037173 0.00226171 0.00132418 0.000746477 0.00040546 0.000212369
          0.000107351 5.24116e-05 2.47295e-05 1.12796e-05 0.0130365 0.0190631 0.0267827 0.0361528 0.0468877 0.0584257 0.0699482 0.0804597
          0.0889217 0.0944205 0.0963283 0.0944215 0.0889242 0.0804642 0.0699561 0.0584382 0.0469065 0.0361794 0.0268179 0.0191069
          0.0130877 0.00862186 0.00546537 0.00333596 0.00196247 0.00111391 0.000610859 0.000324101 0.000166591 8.30446e-05 4.01691e-05 1.88498e-05
          0.0183156 0.0267827 0.0376283 0.0507928 0.0658748 0.082085 0.0982736 0.113042 0.124931 0.132656 0.135337 0.132659
          0.124937 0.113054 0.0982956 0.0821202 0.0659276 0.0508674 0.037727 0.0269055 0.0184593 0.012192 0.00775979 0.00476559
          0.00282885 0.00162631 0.000907495 0.000492536 0.000260424 0.000134241 6.74291e-05 3.29458e-05 0.0247235 0.0361528 0.0507928 0.0685632
          0.0889216 0.110803 0.132656 0.15259 0.168639 0.179068 0.182688 0.179076 0.168657 0.152624 0.132714 0.110896
          0.0890608 0.0687595 0.0510529 0.0364765 0.025102 0.0166602 0.0106838 0.00663557 0.0040031 0.00235315 0.00135183 0.000760601
          0.000419431 0.000226434 0.000119323 6.11106e-05 0.0320647 0.0468877 0.0658748 0.0889216 0.115325 0.143704 0.172045 0.1979
          0.218714 0.232242 0.23694 0.23226 0.218759 0.197983 0.172189 0.143933 0.11567 0.0894076 0.0665185 0.0476889
          0.0330014 0.0220968 0.0143613 0.00909555 0.00563761 0.00343323 0.00205967 0.00121776 0.000707996 0.000402933 0.000223129 0.000119452
          0.0399551 0.0584257 0.082085 0.110803 0.143704 0.179066 0.214382 0.246599 0.272537 0.289397 0.295258 0.28944
          0.27264 0.246793 0.214715 0.1796 0.144505 0.111933 0.0835818 0.0602885 0.042133 0.0286443 0.0190406 0.0124438
          0.00803559 0.00514257 0.00326115 0.00204176 0.00125403 0.000749768 0.000433031 0.000239964 0.0478349 0.0699482 0.0982736 0.132656
          0.172045 0.214382 0.256663 0.295235 0.326292 0.346483 0.353515 0.346579 0.326517 0.295659 0.25739 0.215547
          0.173795 0.135123 0.101543 0.0740171 0.0525919 0.0366543 0.0252315 0.0172587 0.0117699 0.00799538 0.00538167 0.00355961
          0.00229213 0.00142441 0.000848076 0.000481077 0.0550232 0.0804596 0.113042 0.15259 0.197899 0.246598 0.295234 0.339605
          0.375335 0.398575 0.406693 0.398771 0.375797 0.340475 0.296727 0.248989 0.201489 0.157654 0.11975 0.0888084
          0.0647839 0.0468728 0.033883 0.0245627 0.0178275 0.0128653 0.00913808 0.00631955 0.00421435 0.00268949 0.00163324 0.000940022
          0.0608101 0.0889216 0.12493 0.168638 0.218713 0.272534 0.326287 0.37533 0.41483 0.44054 0.449566 0.440918
          0.41572 0.377007 0.329165 0.277142 0.225633 0.178399 0.137861 0.105014 0.0796243 0.0606184 0.0465423 0.0359619
          0.0277294 0.0210842 0.015616 0.0111485 0.00761054 0.00493944 0.00303598 0.00176254 0.0645704 0.0944203 0.132656 0.179067
          0.232238 0.289389 0.346469 0.398553 0.440516 0.467863 0.477543 0.468546 0.442128 0.40159 0.35168 0.297733
          0.244769 0.19674 0.15607 0.12356 0.0986385 0.0798422 0.0653869 0.053661 0.0435346 0.0344403 0.0262659 0.019148
          0.0132648 0.0086979 0.00538457 0.00314183 0.0658748 0.0963277 0.135336 0.182684 0.23693 0.295238 0.353477 0.406628
          0.449473 0.477448 0.487482 0.478611 0.452214 0.411794 0.362342 0.309432 0.258247 0.212749 0.175165 0.145896
          0.123827 0.10693 0.0929917 0.0802203 0.0676095 0.0549761 0.0427385 0.0315684 0.0220659 0.0145579 0.00905048 0.00529643
          0.0645704 0.0944203 0.132656 0.179067 0.23224 0.289397 0.346491 0.398612 0.440661 0.4682 0.47828 0.470058
          0.445042 0.406868 0.360658 0.312078 0.266304 0.22711 0.196303 0.173631 0.157177 0.144134 0.13172 0.117953
          0.102073 0.084511 0.0664989 0.0495174 0.0347999 0.0230434 0.0143618 0.00841924 0.0608101 0.0889218 0.124931 0.16864
          0.218718 0.272551 0.326333 0.37545 0.415128 0.441233 0.451079 0.444022 0.421704 0.387844 0.347599 0.3066
          0.269854 0.24076 0.220477 0.207831 0.199829 0.192638 0.182752 0.167981 0.147934 0.123901 0.0982316 0.07351
          0.0518315 0.0343969 0.02147 0.0125993 0.0550233 0.0804598 0.113042 0.152593 0.197908 0.246624 0.295305 0.339792
          0.375797 0.399649 0.409038 0.403583 0.385072 0.35727 0.325295 0.294641 0.270021 0.254299 0.247784 0.248149
          0.251072 0.25147 0.244975 0.22916 0.204115 0.172206 0.137172 0.102964 0.0727458 0.0483413 0.0302014 0.0177344
          0.047835 0.0699485 0.0982747 0.132659 0.172057 0.214416 0.25676 0.29549 0.326924 0.347953 0.356724 0.353164
          0.339211 0.318645 0.29649 0.278029 0.267591 0.267397 0.276778 0.2921 0.307557 0.316679 0.314145 0.297283
          0.266735 0.226079 0.180616 0.135834 0.0960885 0.0639063 0.0399482 0.0234669 0.0399552 0.058426 0.0820864 0.110808
          0.143719 0.17911 0.214504 0.246921 0.273333 0.291247 0.299299 0.297733 0.288624 0.275737 0.26395 0.258277
          0.262613 0.278492 0.304237 0.334898 0.363184 0.38125 0.382839 0.36505 0.329087 0.279752 0.223916 0.168601
          0.119362 0.0794268 0.0496678 0.0291836 0.0320648 0.0468881 0.0658764 0.088927 0.115342 0.143755 0.172189 0.198277
          0.219649 0.234414 0.241685 0.241997 0.237526 0.231967 0.229997 0.236311 0.254344 0.28497 0.325597 0.370117
          0.409958 0.436103 0.441509 0.423101 0.382594 0.325861 0.261138 0.19678 0.139383 0.0927801 0.0580313 0.0341031
          0.0247237 0.0361533 0.0507946 0.0685691 0.0889405 0.110859 0.132813 0.153006 0.169667 0.181458 0.187908 0.189786
          0.189301 0.190007 0.196303 0.212512 0.241604 0.28388 0.336042 0.391151 0.439758 0.472071 0.480551 0.462046
          0.418659 0.357027 0.286341 0.215881 0.152963 0.101842 0.0637089 0.0374435 0.0183158 0.0267832 0.0376301 0.050799
          0.0658942 0.082143 0.0984364 0.11347 0.125992 0.135123 0.140726 0.143716 0.146249 0.151646 0.163942 0.187022
          0.223404 0.272945 0.331932 0.393049 0.446525 0.48233 0.492822 0.474904 0.430894 0.36777 0.295112 0.22257
          0.157737 0.105036 0.0657134 0.0386242 0.0130367 0.0190636 0.0267844 0.0361588 0.0469065 0.0584819 0.070106 0.0808753
          0.0899504 0.0968122 0.101552 0.10514 0.109585 0.117876 0.133596 0.160134 0.19957 0.25147 0.312031 0.374061
          0.428071 0.464392 0.475703 0.459106 0.416946 0.356068 0.285824 0.215615 0.15283 0.101779 0.0636799 0.0374307
          0.00891529 0.013037 0.0183172 0.0247289 0.0320818 0.0400063 0.0479785 0.0554017 0.0617468 0.0667482 0.0706317 0.074331
          0.0796243 0.0890913 0.105787 0.132562 0.171084 0.220772 0.278038 0.336266 0.386808 0.420892 0.431907 0.417277
          0.3792 0.323961 0.260116 0.196252 0.13912 0.0926549 0.0579739 0.0340778 0.00585779 0.00856599 0.0120356 0.0162491
          0.0210827 0.0262962 0.0315526 0.0364765 0.0407563 0.0442886 0.0473517 0.0507745 0.0560477 0.0652928 0.0809986 0.105463
          0.139977 0.183934 0.234186 0.285038 0.329087 0.358847 0.368696 0.356472 0.324088 0.276953 0.222411 0.167823
          0.118976 0.0792424 0.0495833 0.0291464 0.00369794 0.00540763 0.00759811 0.0102586 0.0133117 0.0166079 0.0199398 0.0230828
          0.0258668 0.0282795 0.0305931 0.0334911 0.0381538 0.0462373 0.0596707 0.0802203 0.108846 0.144997 0.186101 0.227559
          0.26342 0.287678 0.295837 0.286179 0.260264 0.222456 0.178667 0.134826 0.0955883 0.0636676 0.0398388 0.0234187
          0.00224293 0.00327994 0.00460865 0.00622271 0.00807569 0.0100784 0.0121088 0.014039 0.0157845 0.0173744 0.0190406 0.0213083
          0.0250592 0.031517 0.0420992 0.0580956 0.080189 0.107928 0.13935 0.170969 0.198291 0.216791 0.223082 0.215881
          0.196377 0.167873 0.134841 0.10176 0.0721476 0.0480559 0.0300706 0.0176768 0.00130707 0.00191141 0.00268579 0.00362663
          0.00470722 0.00587653 0.00706577 0.00820602 0.00925977 0.0102677 0.0114077 0.0130572 0.0158365 0.0205997 0.0283322 0.0399258
          0.0558432 0.0757468 0.0982316 0.120821 0.140326 0.153541 0.158071 0.153011 0.139211 0.119017 0.0956041 0.072152
          0.0511571 0.0340752 0.0213225 0.0125344 0.000731831 0.00107021 0.00150383 0.00203075 0.00263623 0.00329226 0.00396173 0.00460933
          0.00522114 0.00583397 0.00657308 0.00769221 0.00960221 0.0128653 0.0181282 0.025974 0.0367001 0.0500732 0.065151 0.0802808
          0.0933385 0.102189 0.105241 0.101893 0.092714 0.0792708 0.0636799 0.0480604 0.0340764 0.0226982 0.0142035 0.00834955
          0.000393687 0.000575724 0.000809011 0.00109255 0.00141852 0.00177216 0.00213428 0.00248771 0.00282885 0.00318524 0.00363835 0.00434809
          0.00557045 0.00765418 0.0109995 0.015966 0.0227352 0.0311567 0.0406384 0.0501445 0.0583455 0.0639063 0.0658313 0.0637466
          0.0580095 0.0496011 0.039847 0.030074 0.0213237 0.0142038 0.00888817 0.00522494 0.000203479 0.000297569 0.000418156 0.000564744
          0.000733349 0.0009165 0.00110467 0.0012899 0.0014723 0.00167001 0.00193229 0.00235362 0.003084 0.00432711 0.00631623 0.00926063
          0.0132648 0.0182386 0.0238327 0.0294375 0.0342716 0.0375502 0.0386886 0.0374677 0.0340979 0.0291567 0.0234236 0.0176789
          0.0125353 0.00834985 0.00522502 0.00307156 0.000101045 0.00014777 0.000207658 0.000280471 0.000364256 0.000455377 0.000549284 0.000642443
          0.000735821 0.000840234 0.000983422 0.00121776 0.00162589 0.00231975 0.00342738 0.00506344 0.00728476 0.0100409 0.0131384 0.0162404
          0.0189152 0.0207297 0.0213612 0.0206888 0.018829 0.0161009 0.0129353 0.00976298 0.0069225 0.00461116 0.0028855 0.00169626
          4.82103e-05 7.05042e-05 9.90799e-05 0.000133828 0.000173827 0.000217373 0.000262369 0.000307304 0.000353014 0.000405407 0.000479075 0.000601263
          0.000814775 0.00117748 0.00175551 0.00260801 0.00376414 0.00519746 0.00680745 0.00841924 0.00980888 0.0107517 0.0110803 0.0107321
          0.00976774 0.00835271 0.00671054 0.00506487 0.0035913 0.00239222 0.00149697 0.000880004 0.00460782 0.00673795 0.00946646 0.0127784
          0.0165727 0.0206508 0.0247235 0.0284388 0.0314298 0.0333733 0.0340475 0.0333733 0.0314299 0.028439 0.0247238 0.0206513
          0.0165734 0.0127794 0.00946783 0.00673965 0.00460981 0.00302974 0.0019135 0.00116141 0.000677525 0.000379932 0.000204833 0.000106193
          5.2953e-05 2.54027e-05 1.17262e-05 5.2095e-06 0.00729913 0.0106734 0.0149956 0.0202419 0.0262523 0.0327124 0.0391639 0.0450492
          0.0497871 0.0528658 0.0539338 0.0528659 0.0497874 0.0450498 0.0391649 0.0327141 0.0262548 0.0202454 0.0150002 0.0106792
          0.00730585 0.00480325 0.00303517 0.00184368 0.00107682 0.000604896 0.000326927 0.000170071 8.51957e-05 4.11152e-05 1.91231e-05 8.57431e-06
          0.011109 0.0162445 0.0228227 0.0308074 0.0399551 0.0497871 0.059606 0.0685632 0.0757741 0.0804597 0.0820853 0.0804602
          0.0757751 0.0685651 0.0596092 0.0497923 0.0399629 0.0308185 0.0228374 0.0162628 0.0111303 0.00732258 0.00463202 0.00281824
          0.00165001 0.000930145 0.000505216 0.000264614 0.000133758 6.53024e-05 3.08108e-05 1.40528e-05 0.0162445 0.0237541 0.0333733 0.0450492
          0.0584257 0.0728029 0.0871609 0.100259 0.110803 0.117655 0.120032 0.117656 0.110806 0.100265 0.0871706 0.0728185
          0.0584491 0.0450823 0.0334171 0.0238086 0.0163083 0.0107434 0.00681018 0.00415678 0.0024453 0.00138795 0.000761122 0.000403813
          0.000207556 0.00010346 5.00415e-05 2.34811e-05 0.0228227 0.0333733 0.0468877 0.0632918 0.082085 0.102284 0.122456 0.140859
          0.155673 0.1653 0.16864 0.165304 0.155682 0.140875 0.122484 0.102328 0.0821508 0.0633845 0.0470106 0.0335262
          0.0230015 0.0151919 0.00966904 0.00593804 0.00352474 0.00202631 0.00113065 0.000613621 0.000324426 0.00016722 8.39875e-05 4.10329e-05
          0.0308074 0.0450492 0.0632918 0.085435 0.110803 0.138069 0.165299 0.190139 0.210137 0.223133 0.227644 0.223142
          0.21016 0.190181 0.165371 0.138185 0.110976 0.0856793 0.0636155 0.0454521 0.0312784 0.0207592 0.0133121 0.00826778
          0.00498759 0.0029317 0.00168408 0.000947462 0.000522426 0.00028201 0.000148595 7.60954e-05 0.0399551 0.0584257 0.082085 0.110803
          0.143704 0.179066 0.214382 0.246598 0.272535 0.289391 0.295245 0.289414 0.27259 0.246702 0.21456 0.179352
          0.144133 0.111408 0.0828862 0.0594228 0.0411208 0.0275327 0.0178936 0.0113322 0.00702344 0.00427683 0.00256551 0.00151666
          0.000881681 0.000501729 0.000277812 0.000148715 0.0497871 0.0728029 0.102284 0.138069 0.179066 0.223131 0.267136 0.307281
          0.339602 0.360611 0.367914 0.360665 0.33973 0.307523 0.267551 0.223794 0.180063 0.139475 0.104147 0.0751212
          0.0524975 0.0356893 0.0237222 0.0155022 0.0100096 0.00640514 0.00406131 0.00254243 0.00156137 0.000933437 0.00053907 0.000298707
          0.0596059 0.0871609 0.122456 0.165299 0.214381 0.267136 0.319821 0.367885 0.406584 0.431745 0.440506 0.431863
          0.406864 0.368413 0.320727 0.268586 0.216559 0.16837 0.126525 0.0922246 0.0655261 0.0456659 0.0314319 0.0214976
          0.0146588 0.00995653 0.00670089 0.0044317 0.00285344 0.0017731 0.00105563 0.000598791 0.0685632 0.100259 0.140858 0.190139
          0.246598 0.30728 0.367884 0.423174 0.467697 0.496655 0.50677 0.496899 0.468271 0.424257 0.369742 0.310256
          0.251066 0.196441 0.149207 0.110649 0.0807105 0.0583905 0.0422036 0.0305903 0.0221992 0.0160182 0.0113763 0.00786676
          0.00524582 0.00334758 0.00203281 0.00116997 0.075774 0.110803 0.155673 0.210136 0.272533 0.339599 0.406579 0.46769
          0.516909 0.548947 0.560193 0.549416 0.518017 0.469777 0.41016 0.345334 0.281146 0.222283 0.171765 0.130831
          0.0991887 0.075503 0.057962 0.0447791 0.0345236 0.0262475 0.0194386 0.0138767 0.00947255 0.00614774 0.00377858 0.00219362
          0.0804596 0.117655 0.165299 0.223131 0.289386 0.360601 0.431727 0.496628 0.548917 0.582993 0.595054 0.583843
          0.550923 0.500408 0.438213 0.370985 0.304982 0.245126 0.194439 0.15392 0.122858 0.0994313 0.081417 0.0668075
          0.0541944 0.0428698 0.0326929 0.0238323 0.0165094 0.0108253 0.00670145 0.00391018 0.082085 0.120032 0.168638 0.227639
          0.295233 0.367889 0.440459 0.506689 0.560077 0.594936 0.607439 0.596383 0.563489 0.513119 0.451492 0.385554
          0.321762 0.265054 0.218207 0.181721 0.154207 0.133144 0.115773 0.0998616 0.0841564 0.0684273 0.0531934 0.0392899
          0.0274626 0.0181182 0.0112638 0.00659163 0.0804596 0.117655 0.165299 0.223132 0.289389 0.360611 0.431754 0.496701
          0.549097 0.583412 0.595971 0.585725 0.55455 0.506975 0.449385 0.388838 0.331783 0.282922 0.24451 0.216234
          0.195711 0.179444 0.16397 0.14682 0.127047 0.105184 0.0827636 0.0616277 0.0433103 0.0286785 0.0178737 0.010478
          0.0757741 0.110803 0.155673 0.210139 0.27254 0.339619 0.406635 0.46784 0.51728 0.549809 0.562076 0.55328
          0.525465 0.483264 0.433102 0.381994 0.336179 0.299894 0.274582 0.258788 0.248786 0.239804 0.227478 0.20908
          0.184121 0.154205 0.122255 0.0914869 0.0645064 0.0428082 0.0267201 0.0156802 0.0685632 0.100259 0.140859 0.190142
          0.246608 0.307312 0.367972 0.423406 0.468271 0.497991 0.509688 0.502887 0.479814 0.445158 0.405296 0.36707
          0.336354 0.316717 0.308548 0.308951 0.312549 0.313016 0.304911 0.285215 0.254038 0.21432 0.170717 0.128143
          0.0905346 0.0601621 0.0375864 0.0220709 0.059606 0.0871612 0.122458 0.165304 0.214396 0.267179 0.319942 0.368203
          0.407371 0.433573 0.444501 0.440059 0.422662 0.397019 0.369388 0.346346 0.33329 0.332988 0.344608 0.363633
          0.382835 0.394162 0.39099 0.369993 0.331968 0.281365 0.224784 0.169049 0.119585 0.079533 0.0497166 0.0292051
          0.0497872 0.0728033 0.102286 0.138075 0.179084 0.223185 0.267288 0.307682 0.340593 0.362913 0.372943 0.370985
          0.359623 0.343544 0.328825 0.32171 0.327051 0.346762 0.378757 0.416879 0.452052 0.474514 0.476477 0.454327
          0.409564 0.348162 0.278671 0.209829 0.148549 0.0988486 0.0618128 0.0363197 0.0399552 0.0584262 0.082087 0.11081
          0.143725 0.17913 0.21456 0.247068 0.273698 0.292095 0.30115 0.301532 0.295946 0.288995 0.286503 0.294317
          0.316716 0.354789 0.405314 0.460691 0.510251 0.542771 0.549488 0.526571 0.476153 0.405545 0.324994 0.244898
          0.173465 0.115467 0.0722212 0.0424421 0.0308076 0.0450498 0.0632939 0.0854423 0.110827 0.138139 0.165495 0.190656
          0.211416 0.226107 0.23414 0.236471 0.235852 0.236705 0.24451 0.264648 0.30082 0.353401 0.41829 0.486851
          0.547326 0.587527 0.598071 0.575035 0.521035 0.444331 0.356358 0.26867 0.190366 0.126745 0.0792871 0.0465992
          0.0228229 0.0333739 0.0468899 0.0632994 0.0821092 0.102356 0.122659 0.141392 0.156994 0.16837 0.175347 0.179064
          0.182205 0.188902 0.204182 0.232881 0.278133 0.339764 0.413154 0.4892 0.555738 0.600288 0.613338 0.591034
          0.536261 0.4577 0.367274 0.276993 0.196307 0.13072 0.0817817 0.0480687 0.0162447 0.0237547 0.0333755 0.0450566
          0.0584491 0.0728729 0.0873572 0.100776 0.112083 0.120632 0.126534 0.130996 0.136519 0.146824 0.166372 0.199381
          0.248442 0.313016 0.388371 0.465556 0.532763 0.577958 0.59203 0.571372 0.5189 0.443135 0.355715 0.268337
          0.190201 0.126666 0.079251 0.0465833 0.0111091 0.0162451 0.0228247 0.0308141 0.0399764 0.0498508 0.0597847 0.0690342
          0.0769398 0.08317 0.0880051 0.092607 0.0991887 0.110962 0.131728 0.165038 0.212967 0.274794 0.346052 0.41851
          0.481405 0.523818 0.537523 0.519314 0.471924 0.403177 0.32372 0.24424 0.173138 0.115311 0.0721497 0.0424106
          0.00729925 0.0106739 0.0149973 0.0202477 0.0262706 0.032767 0.0393168 0.0454521 0.0507842 0.0551841 0.0589975 0.0632559
          0.0698147 0.0813145 0.100853 0.131292 0.174237 0.228934 0.291468 0.354749 0.409564 0.446598 0.458854 0.443638
          0.403335 0.344675 0.276795 0.208859 0.148068 0.0986188 0.0617075 0.0362733 0.00460792 0.00673833 0.00946783 0.012783
          0.0165873 0.0206946 0.0248464 0.0287625 0.032231 0.0352361 0.0381163 0.041722 0.0475224 0.0575788 0.0742923 0.0998616
          0.135482 0.180467 0.231618 0.283211 0.327837 0.358025 0.368178 0.356157 0.323905 0.276851 0.222355 0.167794
          0.118962 0.0792356 0.0495802 0.029145 0.00279486 0.00408706 0.00574273 0.00775397 0.0100629 0.0125584 0.0150883 0.0174934
          0.0196679 0.0216481 0.0237222 0.0265439 0.0312105 0.039245 0.0524121 0.0723168 0.0998093 0.134329 0.173431 0.212779
          0.246781 0.269803 0.277632 0.26867 0.244396 0.208922 0.167813 0.126642 0.0897892 0.0598065 0.0374234 0.0219991
          0.00162871 0.00238176 0.0033467 0.00451905 0.00586554 0.00732258 0.00880441 0.0102251 0.0115379 0.0127931 0.0142121 0.0162647
          0.0197228 0.0256494 0.0352709 0.0496976 0.0695053 0.0942741 0.122255 0.150367 0.174641 0.191087 0.196724 0.190426
          0.173251 0.148119 0.118981 0.0897947 0.0636661 0.0424073 0.0265363 0.0155993 0.000911917 0.00133357 0.00187389 0.00253047
          0.00328494 0.00410239 0.00493656 0.00574343 0.00650559 0.00726875 0.00818874 0.00958136 0.0119579 0.0160182 0.0225671 0.0323302
          0.0456782 0.0623202 0.0810841 0.0999128 0.116163 0.127178 0.130975 0.126808 0.115385 0.0986542 0.079251 0.0598122
          0.0424088 0.0282484 0.0176766 0.0103912 0.000490564 0.000717396 0.00100809 0.0013614 0.00176758 0.00220823 0.00265945 0.00309979
          0.00352474 0.00396853 0.00453253 0.00541573 0.00693672 0.00952957 0.0136923 0.0198728 0.0282966 0.0387769 0.0505766 0.0624067
          0.0726127 0.079533 0.0819286 0.0793341 0.0721941 0.0617296 0.0495905 0.0374277 0.0265378 0.017677 0.0110615 0.00650255
          0.00025355 0.000370793 0.000521054 0.000703714 0.000913807 0.00114202 0.00137648 0.00160726 0.00183446 0.00208066 0.00240712 0.00293142
          0.00384026 0.00538713 0.00786238 0.0115265 0.0165094 0.0226991 0.0296609 0.0366361 0.042652 0.0467322 0.0481489 0.0466294
          0.0424356 0.0362861 0.0291512 0.0220018 0.0156004 0.0103916 0.00650264 0.00382261 0.00012591 0.000184133 0.000258758 0.000349488
          0.00045389 0.000567431 0.000684439 0.000800504 0.000916817 0.00104683 0.00122505 0.00151666 0.00202452 0.00288795 0.00426629 0.00630226
          0.00906659 0.0124965 0.0163513 0.0202117 0.0235405 0.0257987 0.0265845 0.0257476 0.0234331 0.0200379 0.0160982 0.0121502
          0.00861519 0.00573869 0.00359106 0.00211103 6.00737e-05 8.78537e-05 0.000123461 0.000166759 0.000216602 0.000270862 0.000326927 0.000382909
          0.000439845 0.00050508 0.000596773 0.000748828 0.00101452 0.00146586 0.00218517 0.00324605 0.00468481 0.00646855 0.00847216 0.010478
          0.0122074 0.0133807 0.0137897 0.0133564 0.0121562 0.0103951 0.0083514 0.00630334 0.00446944 0.00297716 0.00186301 0.00109518
          0.00551656 0.00806679 0.0113334 0.0152985 0.0198411 0.0247235 0.0295994 0.0340475 0.0376283 0.0399551 0.0407622 0.0399551
          0.0376284 0.0340477 0.0295998 0.0247241 0.0198419 0.0152997 0.011335 0.00806877 0.00551889 0.00362719 0.00229081 0.0013904
          0.000811089 0.000454813 0.000245192 0.000127107 6.33757e-05 3.03989e-05 1.40303e-05 6.23187e-06 0.00873865 0.0127784 0.017953 0.024234
          0.0314298 0.0391639 0.0468877 0.0539337 0.059606 0.0632918 0.0645704 0.063292 0.0596063 0.0539344 0.0468889 0.0391658
          0.0314327 0.024238 0.0179584 0.0127851 0.0087465 0.00575033 0.00363354 0.00220708 0.001289 0.00072403 0.000391272 0.000203514
          0.000101928 4.91776e-05 2.28655e-05 1.02483e-05 0.0132999 0.0194482 0.0273237 0.0368832 0.0478349 0.0596059 0.0713613 0.082085
          0.090718 0.0963278 0.0982739 0.0963283 0.0907192 0.0820872 0.0713651 0.0596121 0.0478441 0.0368961 0.0273409 0.0194696
          0.0133248 0.00876606 0.00554485 0.00337338 0.00197482 0.00111307 0.000604442 0.000316489 0.000159916 7.80341e-05 3.67952e-05 1.67702e-05
          0.0194482 0.0284388 0.0399551 0.0539337 0.0699482 0.0871609 0.104351 0.120032 0.132656 0.140859 0.143705 0.14086
          0.132659 0.120038 0.104362 0.0871791 0.0699756 0.0539723 0.0400063 0.0285026 0.0195227 0.0128602 0.00815123 0.0049746
          0.00292577 0.00166015 0.000909997 0.000482523 0.00024783 0.000123426 5.96359e-05 2.79505e-05 0.0273237 0.0399551 0.0561348 0.075774
          0.0982736 0.122456 0.146607 0.168638 0.186374 0.1979 0.201899 0.197904 0.186384 0.168657 0.146639 0.122508
          0.0983505 0.0758824 0.0562784 0.0401338 0.0275327 0.0181825 0.0115702 0.00710361 0.00421485 0.00242164 0.00135019 0.000732032
          0.00038656 0.000198968 9.9781e-05 4.86724e-05 0.0368832 0.0539337 0.075774 0.102284 0.132655 0.165299 0.197899 0.227638
          0.25158 0.267138 0.272539 0.26715 0.251606 0.227687 0.197983 0.165434 0.132858 0.10257 0.0761525 0.0544047
          0.0374338 0.0248387 0.0159225 0.0098838 0.00595799 0.00349856 0.00200712 0.00112745 0.000620589 0.000334384 0.000175871 8.99096e-05
          0.0478349 0.0699482 0.0982736 0.132655 0.172045 0.214381 0.256661 0.295232 0.326283 0.346464 0.353472 0.346491
          0.326348 0.295353 0.25687 0.214715 0.172546 0.133363 0.0992103 0.071114 0.0491978 0.0329266 0.0213855 0.0135311
          0.00837582 0.00509227 0.00304896 0.00179878 0.00104351 0.000592651 0.000327578 0.000175091 0.0596059 0.0871609 0.122456 0.165299
          0.214381 0.267136 0.31982 0.367883 0.406578 0.431729 0.440472 0.431792 0.406727 0.368165 0.320305 0.267912
          0.215547 0.166943 0.124634 0.0898713 0.0627748 0.0426442 0.0283143 0.0184759 0.0119075 0.0076032 0.00480993 0.00300433
          0.00184129 0.00109886 0.000633704 0.000350752 0.0713613 0.10435 0.146607 0.197899 0.256661 0.31982 0.382896 0.440439
          0.486769 0.516891 0.52738 0.51703 0.487097 0.441056 0.383954 0.321515 0.259207 0.201489 0.151364 0.110271
          0.0782826 0.0544893 0.0374424 0.0255546 0.0173834 0.0117778 0.00790809 0.00521941 0.00335499 0.00208203 0.00123831 0.000701886
          0.082085 0.120032 0.168638 0.227638 0.295231 0.367881 0.440437 0.506631 0.559934 0.594602 0.606709 0.594887
          0.560605 0.507897 0.44261 0.37136 0.300455 0.235005 0.178399 0.132179 0.0962867 0.0695312 0.0501401 0.0362483
          0.0262359 0.0188853 0.0133853 0.00924115 0.00615482 0.00392414 0.00238137 0.00136994 0.090718 0.132655 0.186374 0.251579
          0.326281 0.406573 0.486763 0.559926 0.618851 0.657205 0.670665 0.657754 0.620146 0.562366 0.49095 0.413278
          0.33635 0.26578 0.205188 0.15607 0.118092 0.0896709 0.0686476 0.0528877 0.0406744 0.0308612 0.02282 0.0162721
          0.0110987 0.00719895 0.00442288 0.00256692 0.0963277 0.140858 0.197899 0.267136 0.346458 0.431717 0.51687 0.59457
          0.65717 0.697962 0.712394 0.698957 0.659515 0.598989 0.524453 0.443858 0.364691 0.292851 0.231967 0.183257
          0.145896 0.117732 0.0961239 0.0786747 0.0636911 0.0503055 0.0383217 0.0279144 0.0193271 0.0126682 0.00784039 0.00457393
          0.0982736 0.143704 0.201897 0.272533 0.353459 0.440443 0.527324 0.606615 0.670529 0.712256 0.72721 0.713948
          0.674518 0.614132 0.540223 0.461095 0.384474 0.316276 0.259848 0.215826 0.182593 0.157177 0.136309 0.11733
          0.098727 0.080189 0.0622913 0.0459872 0.0321331 0.0211948 0.0131744 0.00770891 0.0963277 0.140859 0.197899 0.267137
          0.346462 0.431729 0.516903 0.594655 0.657381 0.698453 0.713466 0.701157 0.663755 0.606668 0.537515 0.46473
          0.396025 0.337039 0.290505 0.256109 0.23107 0.211277 0.192638 0.172219 0.148864 0.123158 0.0968603 0.0721017
          0.0506605 0.0335408 0.0209021 0.0122525 0.090718 0.132656 0.186375 0.251581 0.326289 0.406597 0.486829 0.560101
          0.619285 0.658213 0.672866 0.662271 0.628854 0.578134 0.517772 0.456138 0.400691 0.356516 0.325393 0.305668
          0.29299 0.281758 0.266832 0.244975 0.215572 0.180459 0.143025 0.107008 0.0754397 0.0500593 0.0312442 0.0183344
          0.0820851 0.120032 0.168639 0.227642 0.295243 0.367918 0.44054 0.506903 0.560605 0.596165 0.610121 0.601888
          0.5741 0.532333 0.484176 0.437783 0.400167 0.375623 0.364687 0.364018 0.367334 0.367218 0.357277 0.333935
          0.297283 0.250724 0.199673 0.149859 0.105867 0.0703471 0.0439478 0.0258056 0.0713614 0.104351 0.146609 0.197904
          0.256678 0.31987 0.383037 0.44081 0.487689 0.519029 0.532049 0.526612 0.505566 0.4745 0.440845 0.412426
          0.39568 0.393947 0.406329 0.42758 0.449255 0.461922 0.457809 0.432987 0.388355 0.329087 0.262873 0.197677
          0.139828 0.0929926 0.0581287 0.034146 0.0596061 0.0871614 0.122458 0.165306 0.214402 0.267199 0.319998 0.36835
          0.407735 0.434421 0.446352 0.443858 0.429984 0.410278 0.391941 0.382386 0.387393 0.409285 0.445686 0.489426
          0.529902 0.555683 0.557638 0.531514 0.479034 0.407158 0.325861 0.245347 0.173688 0.115573 0.0722699 0.0424635
          0.0478351 0.0699489 0.0982759 0.132663 0.17207 0.214456 0.25687 0.295781 0.327643 0.349625 0.360376 0.360658
          0.353654 0.344799 0.34098 0.349123 0.374317 0.417904 0.476167 0.540244 0.597666 0.635301 0.642882 0.615906
          0.556844 0.474222 0.380005 0.286341 0.202814 0.135001 0.084438 0.049621 0.0368834 0.0539344 0.0757766 0.102293
          0.132683 0.165381 0.198128 0.228242 0.253075 0.270616 0.280133 0.282733 0.281644 0.282078 0.290505 0.313284
          0.354807 0.415569 0.490809 0.570453 0.640755 0.687457 0.699575 0.672502 0.609279 0.519546 0.416663 0.314126
          0.22257 0.148185 0.0926981 0.0544809 0.0273239 0.0399558 0.0561374 0.0757829 0.0983019 0.122541 0.146844 0.169262
          0.187918 0.201489 0.209739 0.213991 0.217393 0.224807 0.242153 0.275139 0.327477 0.399003 0.484344 0.57287
          0.650364 0.702229 0.717331 0.69115 0.627046 0.535158 0.429416 0.323853 0.229514 0.15283 0.0956141 0.0561986
          0.0194484 0.0284395 0.0399576 0.0539423 0.0699756 0.0872427 0.10458 0.120636 0.134152 0.144339 0.151306 0.156456
          0.16272 0.174472 0.196957 0.235146 0.2921 0.367218 0.45499 0.544958 0.62332 0.676002 0.692343 0.668116
          0.606723 0.518115 0.415893 0.313728 0.222372 0.14809 0.0926549 0.0544619 0.0133001 0.0194489 0.027326 0.036891
          0.0478599 0.0596805 0.0715703 0.0826357 0.0920808 0.0994965 0.105195 0.110529 0.118092 0.131654 0.155681 0.194348
          0.250107 0.322132 0.405217 0.489744 0.563131 0.61261 0.628557 0.607218 0.551781 0.471387 0.378481 0.285552
          0.202422 0.134814 0.0843523 0.0495833 0.00873879 0.0127789 0.017955 0.0242407 0.0314511 0.0392276 0.0470665 0.0544047
          0.0607717 0.0660022 0.0704905 0.0754391 0.0830206 0.0963321 0.11901 0.154415 0.204442 0.26822 0.341182 0.415044
          0.479034 0.522261 0.53654 0.518717 0.471577 0.402983 0.323615 0.244186 0.173111 0.115298 0.0721438 0.042408
          0.00551668 0.00806723 0.011335 0.0153039 0.0198583 0.0247747 0.0297431 0.0344259 0.038565 0.042133 0.0455192 0.0497157
          0.0564425 0.0681156 0.0875512 0.11733 0.15886 0.211347 0.271055 0.331296 0.38341 0.418659 0.430497 0.416422
          0.378702 0.323682 0.259966 0.196174 0.139082 0.0926366 0.0579655 0.0340741 0.00334605 0.00489309 0.00687527 0.00928309
          0.0120472 0.0150342 0.0180614 0.0209365 0.0235298 0.0258779 0.0283143 0.0316017 0.0370244 0.0463668 0.0616973 0.0848988
          0.116971 0.157264 0.202922 0.248879 0.288595 0.315483 0.324617 0.314126 0.285739 0.244261 0.196196 0.148061
          0.104975 0.0699213 0.0437526 0.0257196 0.00194992 0.00285148 0.0040067 0.00541022 0.00702211 0.00876606 0.0105389 0.0122368
          0.0138013 0.015288 0.0169538 0.0193468 0.0233704 0.0302696 0.0414814 0.0583075 0.0814245 0.110344 0.143025 0.175863
          0.204222 0.223433 0.230013 0.222643 0.202558 0.173172 0.139105 0.104982 0.0744337 0.0495793 0.0310242 0.0182375
          0.00109176 0.00159656 0.00224344 0.00302948 0.00393264 0.00491102 0.00590891 0.00687289 0.00778058 0.00868361 0.00976294 0.0113873
          0.014155 0.0188853 0.026521 0.0379127 0.0534953 0.0729308 0.0948496 0.116847 0.135834 0.148702 0.153135 0.14826
          0.134902 0.115341 0.0926549 0.0699281 0.0495812 0.0330258 0.0206661 0.0121486 0.000587311 0.000858877 0.00120689 0.00162986
          0.00211608 0.00264346 0.00318316 0.00370909 0.00421485 0.00473951 0.00540091 0.00643146 0.00820386 0.0112263 0.0160819 0.0232954
          0.0331316 0.045373 0.0591583 0.072981 0.0849067 0.0929926 0.09579 0.0927545 0.0844055 0.0721704 0.0579777 0.0437577
          0.031026 0.0206665 0.0129323 0.00760226 0.000303554 0.000443919 0.00062381 0.000842481 0.00109397 0.00136709 0.0016475 0.00192304
          0.0021933 0.00248413 0.00286685 0.00347878 0.00453831 0.00634216 0.00923028 0.0135077 0.0193271 0.0265577 0.0346917 0.0428423
          0.0498723 0.0546401 0.0562947 0.054517 0.0496133 0.0424234 0.0340815 0.0257229 0.0182388 0.012149 0.00760238 0.00446909
          0.000150741 0.000220447 0.000309787 0.000418403 0.000543375 0.000679249 0.000819173 0.000957719 0.001096 0.00124949 0.00145837 0.00179878
          0.00239104 0.00339819 0.00500678 0.00738395 0.0106126 0.0146197 0.0191239 0.0236351 0.0275252 0.030164 0.0310819 0.0301029
          0.0273966 0.023427 0.0188209 0.0142051 0.0100722 0.00670922 0.00419839 0.00246805 7.19212e-05 0.00010518 0.000147808 0.000199642
          0.000259304 0.000324234 0.000391272 0.000458084 0.000525744 0.000602724 0.000710171 0.000887694 0.0011976 0.00172418 0.00256378 0.00380259
          0.00548317 0.00756718 0.00990843 0.0122525 0.0142736 0.0156448 0.0161225 0.0156156 0.0142122 0.0121533 0.00976385 0.00736939
          0.00522533 0.00348067 0.00217808 0.0012804 0.00634556 0.00927901 0.0130365 0.0175975 0.0228227 0.0284388 0.0340475 0.0391639
          0.0432828 0.0459593 0.0468877 0.0459593 0.0432829 0.0391641 0.0340478 0.0284394 0.0228236 0.0175988 0.0130383 0.0092812
          0.00634811 0.00417213 0.00263492 0.00159921 0.000932853 0.000523056 0.000281955 0.000146146 7.2855e-05 3.49374e-05 1.61201e-05 7.15747e-06
          0.0100518 0.0146986 0.0206508 0.0278757 0.0361528 0.0450492 0.0539337 0.0620385 0.0685632 0.0728029 0.0742737 0.0728031
          0.0685636 0.0620393 0.053935 0.0450513 0.036156 0.0278802 0.0206568 0.014706 0.0100605 0.006614 0.00417911 0.0025383
          0.0014823 0.000832484 0.00044979 0.000233885 0.000117095 5.64677e-05 2.6239e-05 1.17515e-05 0.0152985 0.0223708 0.0314298 0.0424257
          0.0550232 0.0685632 0.082085 0.0944203 0.104351 0.110803 0.113042 0.110804 0.104352 0.0944227 0.0820892 0.0685699
          0.0550333 0.04244 0.0314486 0.0223942 0.0153259 0.0100819 0.00637663 0.00387889 0.00227028 0.00127923 0.000694381 0.000363376
          0.00018347 8.94426e-05 4.21255e-05 1.91733e-05 0.0223708 0.0327124 0.0459593 0.0620385 0.0804596 0.100259 0.120032 0.138069
          0.15259 0.162026 0.1653 0.162028 0.152594 0.138077 0.120044 0.100279 0.0804897 0.062081 0.0460155 0.0327824
          0.0224526 0.0147885 0.00937176 0.0057179 0.00336156 0.00190631 0.00104408 0.000553024 0.000283647 0.000141024 6.80034e-05 3.18015e-05
          0.0314298 0.0459593 0.0645703 0.0871609 0.113042 0.140858 0.168638 0.19398 0.214382 0.227639 0.232239 0.227644
          0.214393 0.194001 0.168673 0.140915 0.113126 0.0872799 0.0647281 0.0461556 0.0316593 0.0209029 0.0132966 0.00815916
          0.00483737 0.00277626 0.00154562 0.0008364 0.000440653 0.000226204 0.000113109 5.5007e-05 0.0424257 0.0620385 0.0871609 0.117655
          0.15259 0.190139 0.227638 0.261846 0.289386 0.307282 0.313494 0.307294 0.289414 0.2619 0.22773 0.190287
          0.152813 0.117969 0.0875765 0.0625558 0.0430305 0.0285399 0.0182828 0.0113376 0.00682469 0.00399981 0.00228906 0.00128203
          0.000703315 0.000377618 0.000197909 0.00010084 0.0550232 0.0804596 0.113042 0.15259 0.197899 0.246597 0.295231 0.339597
          0.375315 0.398528 0.406589 0.398558 0.375386 0.33973 0.29546 0.246964 0.198449 0.153367 0.11407 0.0817399
          0.0565201 0.0377968 0.0245188 0.0154866 0.00956364 0.0057969 0.00345844 0.00203233 0.00117426 0.000664347 0.000365938 0.000195015
          0.0685632 0.100259 0.140858 0.190139 0.246597 0.307279 0.367881 0.423166 0.467675 0.496605 0.506661 0.496675
          0.46784 0.423476 0.368413 0.308132 0.247877 0.191945 0.14325 0.103236 0.0720434 0.0488715 0.0323825 0.0210714
          0.0135321 0.00860484 0.00541951 0.00337034 0.00205738 0.00122362 0.000703669 0.000388608 0.082085 0.120032 0.168638 0.227638
          0.295231 0.36788 0.440435 0.506625 0.559917 0.594564 0.606626 0.594717 0.560277 0.507302 0.441597 0.369742
          0.298027 0.231581 0.173863 0.126534 0.0896866 0.0622824 0.0426612 0.0289996 0.0196359 0.01324 0.00884915 0.00581707
          0.00372678 0.00230672 0.00136921 0.000774921 0.0944202 0.138069 0.19398 0.261846 0.339596 0.423164 0.506623 0.582764
          0.644075 0.683951 0.697873 0.684264 0.644813 0.584154 0.509009 0.426984 0.345334 0.269938 0.2047 0.151411
          0.110018 0.079169 0.0568382 0.0408846 0.0294402 0.0210917 0.0148893 0.0102468 0.00680811 0.0043329 0.002626 0.00150924
          0.10435 0.15259 0.214381 0.289385 0.375312 0.467671 0.55991 0.644067 0.711845 0.755957 0.77143 0.75656
          0.713267 0.646747 0.564509 0.475034 0.386371 0.304982 0.235044 0.178306 0.134415 0.101583 0.0773509 0.0592723
          0.0453635 0.0342816 0.0252712 0.0179791 0.0122429 0.007932 0.00486928 0.00282436 0.110803 0.162026 0.227638 0.30728
          0.398522 0.496593 0.594541 0.683916 0.755919 0.802833 0.819416 0.803925 0.758494 0.688769 0.602869 0.509927
          0.418547 0.335522 0.265054 0.208591 0.165244 0.132594 0.107649 0.0876671 0.0706852 0.0556609 0.0423093 0.0307723
          0.0212834 0.0139404 0.0086234 0.00502894 0.113042 0.165299 0.232237 0.313488 0.406574 0.50663 0.606566 0.697769
          0.771281 0.819264 0.836436 0.821123 0.775662 0.706025 0.620732 0.529311 0.440638 0.36153 0.295884 0.24451
          0.205648 0.175982 0.151825 0.130147 0.109179 0.0884897 0.0686392 0.0506236 0.0353493 0.0233055 0.0144819 0.00847216
          0.110803 0.162026 0.227638 0.307281 0.398526 0.496605 0.594577 0.68401 0.756151 0.803372 0.820594 0.806341
          0.763151 0.697203 0.617215 0.532851 0.45296 0.384052 0.329346 0.288604 0.258788 0.235333 0.213648 0.190406
          0.16423 0.135674 0.106601 0.0793025 0.0556965 0.0368645 0.0229689 0.0134622 0.104351 0.15259 0.214382 0.289387
          0.375321 0.467697 0.559983 0.644259 0.712321 0.757064 0.773848 0.761522 0.722831 0.664064 0.593966 0.522107
          0.457036 0.404635 0.367064 0.342607 0.326502 0.312549 0.295014 0.270239 0.23745 0.198582 0.15729 0.117632
          0.0829078 0.0550049 0.0343268 0.0201415 0.0944203 0.13807 0.193981 0.26185 0.33961 0.423205 0.506736 0.583062
          0.644813 0.685667 0.70162 0.691953 0.659634 0.610992 0.554661 0.499936 0.454846 0.424376 0.409297 0.406036
          0.407705 0.406114 0.394162 0.36783 0.327127 0.275717 0.219486 0.164685 0.116321 0.0772842 0.0482778 0.0283465
          0.0820851 0.120032 0.16864 0.227644 0.295249 0.367936 0.440589 0.507033 0.560927 0.596913 0.611755 0.605241
          0.580562 0.544033 0.504079 0.469588 0.447913 0.442955 0.453887 0.475029 0.49712 0.50976 0.504343 0.476477
          0.427069 0.361736 0.288873 0.21719 0.153613 0.102152 0.0638511 0.0375061 0.0685633 0.100259 0.140861 0.190146
          0.24662 0.307349 0.368076 0.423679 0.468947 0.499562 0.513119 0.509927 0.493382 0.469728 0.44709 0.433857
          0.436614 0.458105 0.495856 0.542061 0.585082 0.612334 0.613731 0.584534 0.526571 0.44743 0.358025 0.269531
          0.190794 0.126949 0.0793807 0.0466404 0.0550234 0.0804603 0.113044 0.152599 0.197926 0.246679 0.29546 0.3402
          0.376808 0.401999 0.414171 0.414117 0.405376 0.394036 0.387837 0.394582 0.420051 0.465875 0.528076 0.596978
          0.658895 0.699376 0.707099 0.677066 0.611938 0.521035 0.417464 0.31454 0.222776 0.148283 0.0927431 0.0545008
          0.0424259 0.0620393 0.0871637 0.117664 0.15262 0.190229 0.22789 0.26251 0.291028 0.311101 0.321835 0.324409
          0.322404 0.321637 0.329346 0.352669 0.396576 0.461731 0.542987 0.629323 0.705649 0.756284 0.769128 0.739082
          0.669443 0.570767 0.4577 0.345044 0.244467 0.162759 0.101814 0.0598377 0.03143 0.0459601 0.0645732 0.0871706
          0.113073 0.140951 0.168898 0.194665 0.216077 0.231581 0.24085 0.245312 0.248449 0.255669 0.273575 0.308548
          0.364773 0.442159 0.534866 0.631252 0.715706 0.772181 0.788423 0.759438 0.688884 0.587872 0.471684 0.355715
          0.252087 0.167859 0.105015 0.0617237 0.022371 0.0327132 0.0459621 0.062048 0.0804897 0.100349 0.120284 0.138733
          0.154234 0.165848 0.173648 0.179156 0.18561 0.197861 0.22174 0.262789 0.324446 0.406114 0.501786 0.599997
          0.685594 0.743107 0.760809 0.734036 0.666503 0.569121 0.456814 0.344586 0.24424 0.162651 0.101764 0.0598158
          0.0152987 0.0223715 0.0314323 0.0424344 0.0550506 0.068645 0.0823145 0.095025 0.105847 0.114283 0.120643 0.126401
          0.134415 0.148861 0.174692 0.216548 0.277175 0.35571 0.446464 0.53889 0.61917 0.673275 0.690622 0.667072
          0.606115 0.517775 0.41571 0.313634 0.222325 0.148068 0.0926446 0.0544574 0.010052 0.0146993 0.020653 0.0278831
          0.0361763 0.0451192 0.05413 0.0625558 0.0698435 0.0757797 0.0807756 0.0861441 0.0942791 0.108604 0.133144 0.171628
          0.226169 0.295842 0.375649 0.456501 0.526571 0.573889 0.589462 0.569814 0.517992 0.442627 0.355442 0.268196
          0.190131 0.126633 0.0792356 0.0465766 0.00634569 0.0092795 0.0130383 0.0176034 0.0228415 0.0284951 0.0342052 0.0395796
          0.0443116 0.0483512 0.0521122 0.0566793 0.0639462 0.0765804 0.0976951 0.130147 0.175505 0.232915 0.298285 0.364277
          0.42138 0.459996 0.472928 0.457423 0.415965 0.355519 0.285529 0.215462 0.152755 0.101743 0.0636633 0.0374234
          0.00384887 0.00562837 0.00790838 0.0106779 0.0138569 0.0172915 0.0207699 0.0240679 0.0270289 0.0296812 0.0323825 0.0359676
          0.0418499 0.0519976 0.0686946 0.0940227 0.129094 0.173203 0.223224 0.273594 0.317133 0.346605 0.356594 0.345044
          0.313849 0.268282 0.215487 0.162618 0.115295 0.0767945 0.0480533 0.0282477 0.00224294 0.00327997 0.00460876 0.00622308
          0.00807687 0.0100819 0.0121187 0.0140651 0.0158492 0.0175248 0.0193692 0.0219825 0.0263588 0.0338703 0.0461023 0.0644925
          0.0897919 0.121471 0.15729 0.193296 0.224395 0.24546 0.252661 0.24455 0.222481 0.190201 0.152782 0.115302
          0.0817506 0.0544528 0.0340737 0.0200301 0.00125582 0.00183648 0.00258054 0.00348463 0.0045233 0.00564806 0.0067942 0.00789869
          0.00893243 0.00994816 0.0111419 0.0129176 0.0159334 0.0210917 0.0294322 0.0418933 0.0589573 0.0802562 0.104288 0.128415
          0.149241 0.163355 0.16821 0.162846 0.148169 0.126681 0.101764 0.0768023 0.0544549 0.0362721 0.0226974 0.0133426
          0.000675567 0.000987939 0.00138824 0.00187472 0.00243387 0.00304011 0.00365984 0.00426208 0.00483737 0.00542647 0.00615734 0.00728471
          0.00921844 0.0125181 0.0178263 0.0257218 0.0364978 0.0499171 0.0650355 0.0801986 0.0932823 0.102152 0.105217 0.101879
          0.0927058 0.0792662 0.0636774 0.0480592 0.0340758 0.0226979 0.0142034 0.00834949 0.00034917 0.000510625 0.000717542 0.000969047
          0.00125825 0.00157217 0.0018941 0.00220945 0.0025165 0.00284258 0.00326522 0.00393499 0.005092 0.0070629 0.0102221 0.0149061
          0.0212834 0.0292117 0.0381338 0.0470761 0.0547898 0.0600208 0.0618342 0.0598792 0.0544919 0.0465942 0.0374319 0.0282514
          0.0200316 0.0133432 0.00834961 0.00490836 0.000173394 0.000253572 0.000356333 0.000481258 0.000624966 0.00078113 0.000941732 0.00110021
          0.00125717 0.00142905 0.00165961 0.00203233 0.0026795 0.00378055 0.00554092 0.0081448 0.0116839 0.0160783 0.0210196 0.0259695
          0.0302384 0.0331339 0.03414 0.0330636 0.0300904 0.0257302 0.020671 0.0156015 0.0110623 0.00736868 0.00461105 0.00271063
          8.27288e-05 0.000120984 0.000170017 0.000229633 0.000298237 0.000372858 0.00044979 0.000526182 0.00060292 0.000689042 0.000807597 0.00100202
          0.00134081 0.00191672 0.00283582 0.00419308 0.00603553 0.0083213 0.01089 0.0134622 0.0156802 0.0171849 0.0177086 0.0171513
          0.0156096 0.0133481 0.0107237 0.00809377 0.00573894 0.00382278 0.00239216 0.00140625 0.00701293 0.0102549 0.0144076 0.0194482
          0.025223 0.0314298 0.0376283 0.0432828 0.0478349 0.0507928 0.051819 0.0507929 0.047835 0.043283 0.0376287 0.0314304
          0.0252239 0.0194496 0.0144094 0.0102571 0.00701556 0.00461071 0.00291182 0.00176719 0.00103078 0.000577907 0.000311479 0.000161419
          8.04483e-05 3.8566e-05 1.77868e-05 7.89335e-06 0.011109 0.0162445 0.0228227 0.0308074 0.0399551 0.0497871 0.0596059 0.0685632
          0.075774 0.0804597 0.0820851 0.0804598 0.0757744 0.068564 0.0596073 0.0497892 0.0399583 0.030812 0.0228288 0.0162521
          0.0111179 0.00730891 0.00461791 0.00280456 0.00163756 0.000919495 0.000496659 0.000258155 0.000129177 6.22512e-05 2.89014e-05 1.29303e-05
          0.0169075 0.0247235 0.0347353 0.0468877 0.0608101 0.075774 0.090718 0.104351 0.115325 0.122457 0.124931 0.122457
          0.115327 0.104353 0.0907223 0.0757809 0.0608205 0.0469024 0.0347547 0.0247477 0.0169358 0.0111401 0.00704498 0.00428462
          0.00250704 0.00141204 0.000766026 0.000400548 0.000202025 9.8356e-05 4.62472e-05 2.10083e-05 0.0247235 0.0361528 0.0507928 0.0685632
          0.0889216 0.110803 0.132655 0.15259 0.168638 0.179067 0.182685 0.179068 0.168642 0.152598 0.132668 0.110824
          0.0889527 0.068607 0.0508509 0.0362251 0.024808 0.0163373 0.0103506 0.00631266 0.00370909 0.00210166 0.00114976 0.000608068
          0.000311268 0.000154383 7.42338e-05 3.46043e-05 0.0347353 0.0507928 0.0713613 0.0963276 0.12493 0.155673 0.186374 0.214381
          0.236928 0.25158 0.256664 0.251585 0.23694 0.214402 0.18641 0.155731 0.125017 0.0964505 0.071524 0.0509954
          0.0349721 0.0230828 0.014676 0.00899876 0.00532927 0.00305382 0.00169659 0.000915621 0.000480796 0.000245864 0.00012242 5.92726e-05
          0.0468877 0.0685632 0.0963276 0.130029 0.168638 0.210136 0.251579 0.289385 0.319821 0.339599 0.346464 0.339612
          0.31985 0.28944 0.251674 0.210289 0.168868 0.130352 0.0967565 0.0690969 0.0475117 0.0314927 0.0201553 0.0124812
          0.00749804 0.00438249 0.00249928 0.00139382 0.000760947 0.00040645 0.000211913 0.000107442 0.0608101 0.0889216 0.12493 0.168638
          0.218712 0.272532 0.32628 0.375313 0.414787 0.440441 0.449348 0.440472 0.41486 0.37545 0.326517 0.27291
          0.21928 0.169439 0.125992 0.0902426 0.0623544 0.0416512 0.026973 0.0169947 0.0104595 0.00631256 0.00374662 0.00218905
          0.00125733 0.000707283 0.000387569 0.000205616 0.075774 0.110803 0.155673 0.210136 0.272532 0.339596 0.406571 0.46767
          0.51686 0.548832 0.559944 0.548904 0.51703 0.46799 0.40712 0.340475 0.273853 0.211999 0.158141 0.113874
          0.0793648 0.0537307 0.0354986 0.0230068 0.0146997 0.00929124 0.00581385 0.00359222 0.00217974 0.00128969 0.000738485 0.00040644
          0.090718 0.132655 0.186374 0.251579 0.32628 0.406571 0.486755 0.559906 0.618803 0.657092 0.670419 0.657249
          0.619174 0.560605 0.487955 0.408492 0.329165 0.255647 0.191764 0.139364 0.0985609 0.0682197 0.0465155 0.0314365
          0.0211428 0.014155 0.00939621 0.00613928 0.00391339 0.00241253 0.00142762 0.0008061 0.10435 0.15259 0.214381 0.289384
          0.375312 0.467669 0.559904 0.644053 0.71181 0.755876 0.771254 0.756199 0.712572 0.645487 0.562366 0.47161
          0.381231 0.297733 0.225441 0.166355 0.120443 0.0862375 0.0615181 0.0439266 0.0313911 0.0223304 0.0156681 0.0107303
          0.0071028 0.00450793 0.00272654 0.00156472 0.115325 0.168638 0.236928 0.319819 0.414784 0.516856 0.618795 0.711801
          0.786705 0.835449 0.852534 0.836071 0.788172 0.714567 0.62354 0.524453 0.426194 0.335912 0.258247 0.19517
          0.146344 0.109842 0.0829844 0.0630814 0.0479268 0.0359987 0.0264117 0.0187247 0.0127184 0.00822522 0.00504284 0.00292238
          0.122456 0.179066 0.251579 0.339596 0.440434 0.548819 0.657068 0.75584 0.835409 0.887244 0.905544 0.888371
          0.838067 0.760848 0.665661 0.562576 0.461095 0.368736 0.290183 0.22711 0.178625 0.142149 0.11444 0.0924968
          0.0741218 0.0580956 0.0440116 0.0319348 0.0220512 0.0144269 0.00891731 0.00519746 0.12493 0.182684 0.256661 0.346457
          0.449333 0.559911 0.670356 0.771147 0.852381 0.905388 0.924319 0.907305 0.856901 0.779665 0.684973 0.583313
          0.484479 0.396025 0.322329 0.264409 0.220477 0.187022 0.160087 0.136367 0.113862 0.09198 0.0711846 0.05242
          0.0365654 0.0240902 0.0149622 0.00875016 0.122456 0.179066 0.251579 0.339598 0.440439 0.548832 0.657105 0.755937
          0.835649 0.8878 0.906759 0.890864 0.842872 0.769549 0.680461 0.586228 0.4966 0.418806 0.356516 0.309663
          0.275139 0.248149 0.223805 0.198497 0.170636 0.140648 0.110344 0.0820055 0.0575567 0.0380787 0.0237182 0.0138984
          0.115325 0.168638 0.236929 0.319822 0.414793 0.516882 0.618871 0.712 0.787196 0.836591 0.855029 0.84119
          0.798039 0.732434 0.653933 0.57302 0.499102 0.438728 0.394457 0.364687 0.344529 0.327505 0.307557 0.280744
          0.246111 0.205515 0.162622 0.121541 0.0856264 0.0567924 0.0354354 0.0207893 0.104351 0.15259 0.214382 0.289389
          0.375326 0.46771 0.560021 0.64436 0.712572 0.757647 0.77512 0.764132 0.727863 0.673176 0.609467 0.546877
          0.49422 0.457073 0.436533 0.429063 0.42758 0.423561 0.409549 0.38125 0.338528 0.285038 0.22676 0.170071
          0.120092 0.079775 0.0498275 0.0292539 0.0907181 0.132656 0.186376 0.251585 0.326299 0.406628 0.486915 0.560327
          0.619845 0.659515 0.67571 0.668107 0.640103 0.598503 0.55242 0.511507 0.483809 0.473731 0.480678 0.498922
          0.518927 0.529902 0.522853 0.493118 0.441509 0.373713 0.298309 0.224222 0.158557 0.105428 0.0658929 0.0387033
          0.0757742 0.110804 0.155675 0.210144 0.272556 0.339668 0.406772 0.4682 0.518172 0.551883 0.566607 0.562576
          0.543384 0.51571 0.488295 0.470192 0.46858 0.486609 0.521939 0.566629 0.608689 0.63508 0.635301 0.604356
          0.544024 0.462046 0.369613 0.278202 0.196907 0.131006 0.081913 0.0481265 0.0608103 0.0889223 0.124933 0.168647
          0.21874 0.272616 0.326517 0.375935 0.416327 0.444022 0.457172 0.456524 0.445802 0.43148 0.421826 0.425214
          0.447916 0.491867 0.553139 0.621837 0.683851 0.724231 0.73122 0.699575 0.631956 0.537906 0.430894 0.324617
          0.229893 0.153011 0.0956971 0.0562352 0.0468879 0.068564 0.0963305 0.130038 0.168669 0.210229 0.251839 0.29007
          0.321515 0.343539 0.35507 0.35727 0.353887 0.351074 0.356516 0.377825 0.420369 0.485027 0.566623 0.653856
          0.731164 0.782338 0.794835 0.763326 0.69115 0.589141 0.472366 0.356068 0.252263 0.167943 0.105053 0.0617406
          0.0347355 0.0507937 0.0713643 0.0963377 0.124962 0.155768 0.186642 0.215088 0.238678 0.255647 0.265548 0.269814
          0.272077 0.278029 0.294642 0.328685 0.384652 0.462594 0.556586 0.654665 0.740733 0.798209 0.814408 0.784125
          0.71109 0.606723 0.486758 0.367059 0.260116 0.1732 0.108354 0.0636855 0.0247237 0.0361536 0.0507957 0.0685729
          0.0889527 0.110896 0.132916 0.153275 0.170334 0.18301 0.191297 0.19674 0.202706 0.214279 0.237593 0.278492
          0.340653 0.423561 0.521089 0.621445 0.709 0.767775 0.785641 0.75775 0.687901 0.587322 0.471387 0.355562
          0.252011 0.167823 0.104998 0.0617164 0.0169077 0.0247243 0.0347379 0.0468966 0.0608383 0.0758585 0.0909548 0.104974
          0.116869 0.126047 0.132773 0.138549 0.146344 0.160519 0.186264 0.228457 0.290014 0.370117 0.462944 0.557638
          0.639948 0.695385 0.71301 0.68853 0.625519 0.534303 0.428956 0.323615 0.229395 0.152774 0.0955883 0.0561873
          0.0111092 0.0162451 0.0228249 0.030815 0.0399793 0.0498593 0.0598085 0.0690969 0.077095 0.0835309 0.0887934 0.0942244
          0.102306 0.116607 0.141331 0.180383 0.236003 0.30728 0.389089 0.472071 0.544024 0.592592 0.60848 0.588087
          0.534544 0.456738 0.366757 0.276726 0.196174 0.130656 0.0817527 0.0480559 0.00701306 0.0102554 0.0144094 0.0194543
          0.0252424 0.0314878 0.037791 0.0437117 0.0488963 0.0532607 0.0572093 0.0618531 0.0691542 0.081887 0.103296 0.136367
          0.182752 0.2416 0.308711 0.376522 0.435222 0.474904 0.488133 0.47206 0.429237 0.366842 0.294613 0.222312
          0.157609 0.104975 0.0656854 0.0386119 0.00425365 0.00622029 0.00874001 0.0118006 0.0153132 0.0191069 0.0229456 0.0265761
          0.0298145 0.0326703 0.0354986 0.0391562 0.045106 0.0553923 0.0723915 0.0982738 0.134208 0.179485 0.230891 0.282693
          0.327483 0.357793 0.368031 0.356068 0.323853 0.276822 0.22234 0.167786 0.118958 0.0792337 0.0495793 0.0291446
          0.00247882 0.00362491 0.0050934 0.00687734 0.00892558 0.0111401 0.013387 0.0155281 0.0174756 0.0192739 0.0212009 0.0238731
          0.0283189 0.0359619 0.0484494 0.0672778 0.0932346 0.125783 0.162622 0.199673 0.231683 0.25336 0.26075 0.252355
          0.229567 0.196252 0.157639 0.118966 0.0843475 0.0561822 0.0351557 0.0206661 0.0013879 0.00202961 0.00285189 0.00385096
          0.00499853 0.0062406 0.00750462 0.00871852 0.00984492 0.0109318 0.0121769 0.0139955 0.0170681 0.0223304 0.0308612 0.0436364
          0.0611604 0.0830595 0.107788 0.132626 0.154071 0.168601 0.173588 0.168038 0.152886 0.13071 0.104998 0.0792424
          0.0561845 0.037424 0.0234181 0.0137663 0.000746615 0.00109183 0.00153421 0.00207179 0.00268954 0.00335892 0.00404217 0.00470351
          0.00532927 0.00595799 0.00671932 0.00787521 0.0098494 0.0132216 0.0186584 0.0267606 0.0378347 0.0516392 0.0672018 0.0828169
          0.096293 0.105428 0.108578 0.105125 0.0956558 0.0817864 0.065701 0.0495858 0.035158 0.0234187 0.0146544 0.00861458
          0.000385891 0.000564323 0.000792989 0.00107091 0.0013904 0.00173698 0.00209178 0.00243781 0.00277126 0.0031185 0.0035583 0.00424558
          0.00542851 0.00744533 0.0106842 0.0154941 0.0220512 0.0302101 0.039397 0.048608 0.0565547 0.0619429 0.0638077 0.0617865
          0.0562254 0.0480754 0.0386213 0.0291488 0.0206677 0.0137668 0.00861472 0.00506419 0.000191629 0.000280238 0.0003938 0.000531841
          0.000690594 0.000862982 0.00103994 0.00121371 0.00138392 0.00156662 0.00180636 0.00218905 0.00285139 0.00397913 0.00578512 0.0084604
          0.0121006 0.016624 0.0217129 0.0268125 0.031211 0.034194 0.035229 0.0341163 0.0310475 0.026548 0.0213277 0.016097
          0.0114136 0.00760266 0.00475745 0.00279669 9.14292e-05 0.000133707 0.000187893 0.000253767 0.000329551 0.000411916 0.000496659 0.000580374
          0.000663491 0.000754908 0.000878115 0.00107782 0.00142481 0.00201505 0.00295843 0.0043534 0.00624897 0.00860229 0.0112481 0.0138984
          0.0161841 0.0177344 0.0182733 0.0176973 0.016106 0.0137723 0.0110643 0.00835084 0.00592119 0.00394416 0.00246811 0.00145089
          0.00744658 0.010889 0.0152985 0.0206508 0.0267827 0.0333733 0.0399551 0.0459593 0.0507928 0.0539337 0.0550233 0.0539338
          0.050793 0.0459595 0.0399554 0.0333739 0.0267836 0.0206521 0.0153003 0.0108912 0.00744913 0.00489555 0.00309161 0.0018762
          0.00109427 0.000613434 0.000330573 0.000171274 8.53333e-05 4.0891e-05 1.88493e-05 8.35949e-06 0.0117959 0.017249 0.024234 0.0327124
          0.0424257 0.0528657 0.0632918 0.0728029 0.0804596 0.085435 0.087161 0.0854352 0.08046 0.0728036 0.0632931 0.0528678
          0.0424289 0.0327169 0.0242399 0.0172564 0.0118046 0.00775996 0.00490253 0.00297708 0.00173799 0.000975648 0.000526804 0.000273691
          0.000136862 6.58986e-05 3.05622e-05 1.36556e-05 0.017953 0.0262523 0.0368832 0.0497871 0.0645703 0.0804596 0.0963276 0.110803
          0.122456 0.130029 0.132656 0.130029 0.122458 0.110806 0.0963318 0.0804663 0.0645804 0.0498013 0.036902 0.0262758
          0.0179804 0.011826 0.00747765 0.00454669 0.00265945 0.00149712 0.000811595 0.000423958 0.000213554 0.000103796 4.87053e-05 2.20712e-05
          0.0262523 0.0383884 0.0539337 0.0728029 0.0944202 0.117655 0.140858 0.162026 0.179066 0.190139 0.193981 0.190141
          0.17907 0.162033 0.140871 0.117675 0.0944503 0.0728453 0.0539899 0.0384584 0.0263342 0.0173389 0.0109818 0.00669442
          0.00393062 0.00222493 0.00121548 0.000641611 0.000327639 0.000162013 7.76249e-05 3.60391e-05 0.0368832 0.0539337 0.075774 0.102284
          0.132655 0.165299 0.197899 0.227638 0.251579 0.267137 0.272535 0.267141 0.25159 0.227658 0.197934 0.165355
          0.13274 0.102403 0.0759318 0.05413 0.0371127 0.0244861 0.0155586 0.00953112 0.00563688 0.0032239 0.00178642 0.000960862
          0.000502459 0.000255693 0.000126627 6.09606e-05 0.0497871 0.0728029 0.102284 0.138069 0.179066 0.22313 0.267136 0.307279
          0.339597 0.360598 0.367887 0.360611 0.339626 0.307333 0.267228 0.223278 0.179289 0.138383 0.1027 0.0733202
          0.0503918 0.0333767 0.0213361 0.0131896 0.00790391 0.00460407 0.00261412 0.00145003 0.000786744 0.000417423 0.000216156 0.000108876
          0.0645703 0.0944202 0.132655 0.179066 0.232236 0.289384 0.346456 0.398521 0.440435 0.467675 0.477133 0.467705
          0.440506 0.398654 0.346685 0.289751 0.232787 0.179843 0.133684 0.0957005 0.0660672 0.0440697 0.0284788 0.0178885
          0.0109633 0.00658058 0.00388001 0.00225022 0.00128246 0.000715972 0.000389603 0.000205438 0.0804596 0.117655 0.165299 0.22313
          0.289384 0.360595 0.431712 0.496589 0.54882 0.582768 0.594564 0.582838 0.548985 0.496899 0.432244 0.361448
          0.290665 0.224936 0.167691 0.120632 0.0839399 0.0566881 0.0373169 0.0240642 0.0152762 0.00958136 0.00594483 0.00364185
          0.0021922 0.00128795 0.000733157 0.000401596 0.0963276 0.140858 0.197899 0.267135 0.346456 0.431712 0.516854 0.594528
          0.657066 0.69772 0.711866 0.697873 0.657425 0.595206 0.518017 0.433573 0.349252 0.271079 0.203123 0.14736
          0.103929 0.0716405 0.0485688 0.0325827 0.0217239 0.0144091 0.00947807 0.00614213 0.0038882 0.00238373 0.00140452 0.00079047
          0.110803 0.162026 0.227638 0.307279 0.39852 0.496587 0.594526 0.683877 0.755822 0.802609 0.818927 0.802922
          0.75656 0.685268 0.596913 0.500408 0.404257 0.315371 0.238358 0.175367 0.126401 0.0899334 0.0636336 0.0450062
          0.031842 0.0224365 0.0156128 0.0106207 0.00699378 0.00442149 0.00266661 0.00152712 0.122456 0.179066 0.251579 0.339596
          0.440433 0.548816 0.657058 0.755814 0.835345 0.887094 0.905216 0.887697 0.836767 0.758494 0.661657 0.556179
          0.451492 0.355193 0.272242 0.204782 0.152521 0.11348 0.0848609 0.0638274 0.048018 0.0357678 0.0260707 0.0183923
          0.0124481 0.00802991 0.00491416 0.00284413 0.130029 0.190139 0.267136 0.360596 0.467669 0.582756 0.697697 0.802573
          0.887055 0.942078 0.961475 0.943171 0.889631 0.807427 0.706025 0.59609 0.487694 0.388838 0.304552 0.236705
          0.184469 0.145226 0.115623 0.0925038 0.0735038 0.057239 0.0431582 0.0312111 0.0215013 0.0140444 0.00867106 0.00504993
          0.132655 0.19398 0.272532 0.367881 0.477118 0.594533 0.711806 0.818823 0.905067 0.961323 0.981364 0.963181
          0.909448 0.82708 0.725972 0.617215 0.511182 0.415923 0.336179 0.273191 0.225262 0.188869 0.15996 0.135082
          0.112055 0.0900998 0.0695053 0.0510713 0.0355715 0.0234116 0.0145305 0.00849357 0.130029 0.190139 0.267136 0.360597
          0.467673 0.582768 0.697733 0.802667 0.887287 0.942617 0.962652 0.945587 0.894288 0.81586 0.720371 0.619014
          0.522107 0.437369 0.368844 0.316717 0.278014 0.247965 0.221623 0.195242 0.167048 0.137252 0.10745 0.0797413
          0.0559144 0.0369684 0.0230166 0.0134832 0.122456 0.179066 0.251579 0.339599 0.440442 0.548842 0.657131 0.756006
          0.835821 0.888201 0.907634 0.892658 0.846331 0.775811 0.691115 0.603252 0.522157 0.454846 0.404261 0.369083
          0.344608 0.324446 0.302524 0.274794 0.240105 0.200068 0.15809 0.118046 0.083113 0.0551028 0.0343716 0.0201613
          0.110803 0.162026 0.227639 0.307283 0.398533 0.496628 0.59464 0.684175 0.75656 0.804324 0.822674 0.810611
          0.771381 0.712105 0.642564 0.573359 0.51377 0.469809 0.442955 0.429992 0.424088 0.416879 0.400957 0.371951
          0.329529 0.277062 0.22021 0.165059 0.116507 0.0773728 0.0483184 0.0283644 0.0963278 0.140859 0.1979 0.267141
          0.346475 0.431767 0.517009 0.594936 0.658076 0.700068 0.716995 0.708396 0.67771 0.631937 0.580499 0.533419
          0.499138 0.482452 0.483147 0.495856 0.511362 0.519118 0.510251 0.48006 0.429157 0.362905 0.289502 0.217516
          0.153774 0.102229 0.0638864 0.0375217 0.0804598 0.117655 0.165301 0.223138 0.289408 0.360665 0.431907 0.497103
          0.550092 0.585725 0.601023 0.59609 0.574528 0.543151 0.510921 0.487173 0.479401 0.491097 0.520297 0.559457
          0.596978 0.620151 0.618666 0.587527 0.528315 0.448406 0.358551 0.269803 0.190929 0.127013 0.0794102 0.0466534
          0.0645705 0.0944209 0.132658 0.179075 0.232264 0.289466 0.346685 0.399124 0.441929 0.471147 0.484716 0.483264
          0.470497 0.45296 0.439063 0.437369 0.454388 0.492351 0.54769 0.610939 0.668442 0.705649 0.711059 0.679468
          0.613338 0.521819 0.417886 0.314758 0.222884 0.148334 0.0927668 0.0545112 0.0497873 0.0728036 0.102287 0.138079
          0.179096 0.22322 0.267387 0.307943 0.341239 0.364417 0.376228 0.377725 0.372615 0.36707 0.368844 0.38566
          0.423052 0.482145 0.55811 0.640088 0.71301 0.761121 0.772181 0.740934 0.670522 0.571372 0.458025 0.345212
          0.24455 0.162799 0.101832 0.0598457 0.0368834 0.0539345 0.0757769 0.102294 0.132687 0.165392 0.198159 0.228323
          0.253275 0.271079 0.281146 0.28481 0.285647 0.289327 0.302836 0.332988 0.384387 0.457282 0.54607 0.639226
          0.721159 0.775764 0.790685 0.760809 0.689684 0.58832 0.471924 0.35584 0.252149 0.167889 0.105029 0.0617296
          0.0262525 0.0383892 0.0539365 0.0728123 0.0944503 0.117745 0.141111 0.16269 0.18071 0.193961 0.202329 0.20727
          0.212086 0.221817 0.242567 0.280185 0.338406 0.416879 0.50976 0.605673 0.689476 0.745657 0.762419 0.735013
          0.667072 0.56944 0.456985 0.344675 0.244284 0.162672 0.101774 0.0598201 0.0179531 0.0262531 0.0368857 0.0497957
          0.0645978 0.0805415 0.0965572 0.111408 0.123953 0.133509 0.140257 0.145626 0.152521 0.165244 0.188934 0.228445
          0.286722 0.363072 0.451918 0.542771 0.621825 0.675019 0.691723 0.66774 0.606504 0.517992 0.415827 0.313694
          0.222355 0.148082 0.0926512 0.0544603 0.0117961 0.0172496 0.0242361 0.0327198 0.0424492 0.0529357 0.0634881 0.0733202
          0.0817399 0.0884118 0.0936629 0.0987762 0.106176 0.119368 0.142502 0.179444 0.232442 0.300679 0.379232 0.459051
          0.528315 0.575035 0.590185 0.570253 0.518248 0.44277 0.355519 0.268236 0.19015 0.126642 0.07924 0.0465785
          0.00744671 0.0108895 0.0153003 0.0206568 0.0268015 0.0334295 0.0401128 0.0463749 0.0518216 0.0563256 0.0602477 0.0646537
          0.0714562 0.0833758 0.103603 0.135082 0.179465 0.235968 0.300547 0.365887 0.422481 0.460719 0.473384 0.4577
          0.416126 0.355609 0.285578 0.215487 0.152767 0.101749 0.0636661 0.0374246 0.00451668 0.00660489 0.00928034 0.0125298
          0.0162587 0.0202844 0.0243531 0.0281895 0.031584 0.034518 0.0373169 0.0408043 0.0464049 0.0561192 0.0722777 0.0970156
          0.131495 0.175055 0.224596 0.274571 0.317801 0.347043 0.356871 0.345212 0.313947 0.268337 0.215517 0.162633
          0.115302 0.0767981 0.0480549 0.0282484 0.0026321 0.00384904 0.00540827 0.0073023 0.00947655 0.011826 0.0142067 0.016467
          0.0185036 0.0203434 0.0222447 0.0248011 0.0290133 0.0362721 0.0481904 0.0662366 0.0911916 0.12255 0.15809 0.193865
          0.224784 0.245716 0.252823 0.244648 0.222538 0.190233 0.152799 0.115311 0.081755 0.0544549 0.0340746 0.0200305
          0.00147371 0.0021551 0.00302818 0.00408889 0.00530698 0.00662458 0.00796331 0.00924349 0.0104187 0.0115263 0.0127519 0.0144957
          0.0174196 0.0224365 0.0306013 0.0428698 0.0597409 0.0808604 0.104736 0.128733 0.149459 0.163498 0.1683 0.162901
          0.148201 0.126699 0.101774 0.0768073 0.0544574 0.0362733 0.0226979 0.0133429 0.00079278 0.00115934 0.00162905 0.00219978
          0.00285545 0.00356542 0.00428876 0.0049855 0.00563688 0.00627542 0.00702344 0.00813366 0.0100179 0.0132415 0.0184553 0.0262471
          0.0369194 0.0502422 0.0652763 0.08037 0.0933995 0.102229 0.105266 0.101908 0.0927229 0.0792758 0.0636826 0.0480618
          0.0340771 0.0226985 0.0142037 0.00834961 0.000409752 0.000599213 0.000842003 0.00113705 0.00147614 0.00184368 0.00221915 0.00258335
          0.00292973 0.00328136 0.00371286 0.00437376 0.00550523 0.0074368 0.0105472 0.0151776 0.0215013 0.0293797 0.0382583 0.0471647
          0.0548504 0.0600606 0.0618593 0.0598945 0.0545008 0.0465992 0.0374346 0.0282528 0.0200323 0.0133435 0.00834976 0.00490842
          0.000203478 0.000297564 0.000418139 0.000564687 0.000733167 0.000915957 0.00110315 0.00128589 0.00146237 0.00164694 0.0018819 0.00225022
          0.0028847 0.00396622 0.00570234 0.00827963 0.0117921 0.0161618 0.0210814 0.0260135 0.0302685 0.0331536 0.0341525 0.0330711
          0.0300948 0.0257327 0.0206723 0.0156022 0.0110626 0.00736885 0.00461112 0.00271066 9.70824e-05 0.000141973 0.000199505 0.000269438
          0.000349861 0.000437186 0.000526804 0.00061477 0.000700825 0.000793001 0.000913656 0.00110598 0.00143872 0.00200531 0.00291283 0.00425741
          0.00608716 0.0083611 0.0109194 0.0134832 0.0156946 0.0171943 0.0177146 0.0171549 0.0156117 0.0133492 0.0107243 0.0080941
          0.00573911 0.00382286 0.0023922 0.00140626 0.00759701 0.011109 0.0156076 0.021068 0.0273237 0.0340475 0.0407622 0.0468877
          0.0518189 0.0550232 0.0561348 0.0550233 0.051819 0.0468879 0.0407626 0.034048 0.0273246 0.0210692 0.0156092 0.011111
          0.00759934 0.00499414 0.00315374 0.0019138 0.0011161 0.000625587 0.000337058 0.000174589 8.69543e-05 4.16486e-05 1.91872e-05 8.50314e-06
          0.0120342 0.0175975 0.0247235 0.0333733 0.0432828 0.0539337 0.0645703 0.0742736 0.082085 0.0871609 0.0889217 0.0871611
          0.0820854 0.0742743 0.0645716 0.0539356 0.0432857 0.0333773 0.0247289 0.0176042 0.0120421 0.00791568 0.00500049 0.00303618
          0.00177216 0.000994548 0.000536796 0.000278729 0.000139279 6.69979e-05 3.10344e-05 1.38461e-05 0.0183156 0.0267827 0.0376283 0.0507928
          0.0658748 0.082085 0.0982736 0.113042 0.12493 0.132656 0.135336 0.132656 0.124931 0.113044 0.0982774 0.0820911
          0.0658839 0.0508058 0.0376454 0.026804 0.0183406 0.0120616 0.0076253 0.00463524 0.00271016 0.00152479 0.000825923 0.000430962
          0.000216762 0.000105156 4.9228e-05 2.2246e-05 0.0267827 0.0391639 0.0550232 0.0742736 0.0963276 0.120032 0.143704 0.165299
          0.182684 0.19398 0.1979 0.193982 0.182687 0.165306 0.143715 0.12005 0.0963551 0.0743122 0.0550744 0.0392276
          0.0268572 0.0176793 0.0111934 0.0068198 0.00400105 0.0022622 0.00123387 0.000649915 0.000330955 0.000163086 7.78162e-05 3.59577e-05
          0.0376283 0.0550232 0.0773047 0.10435 0.135335 0.168638 0.201897 0.232236 0.256661 0.272533 0.27804 0.272537
          0.256671 0.232255 0.201929 0.168689 0.135412 0.104459 0.0774484 0.055202 0.0378373 0.0249531 0.0158444 0.00969601
          0.00572557 0.00326749 0.00180521 0.000967209 0.000503346 0.000254688 0.000125323 5.99221e-05 0.0507928 0.0742736 0.10435 0.140858
          0.182684 0.227638 0.272532 0.313487 0.346457 0.367883 0.375318 0.367894 0.346483 0.313536 0.272616 0.227773
          0.182886 0.141144 0.104729 0.0747446 0.0513435 0.0339781 0.021692 0.0133832 0.00799724 0.00464033 0.00262133 0.00144491
          0.000778233 0.000409599 0.000210349 0.000105095 0.0658748 0.0963276 0.135335 0.182684 0.236928 0.29523 0.353455 0.406571
          0.449332 0.477122 0.486769 0.477149 0.449397 0.406693 0.353664 0.295564 0.237429 0.183391 0.136272 0.0974934
          0.0672377 0.0447796 0.0288681 0.0180695 0.0110206 0.00657308 0.00384555 0.0022105 0.00124797 0.000690198 0.000372294 0.000194786
          0.082085 0.120032 0.168638 0.227638 0.29523 0.36788 0.440433 0.50662 0.559906 0.594539 0.606571 0.594602
          0.560056 0.506903 0.440918 0.368656 0.296396 0.229282 0.170816 0.122742 0.0852538 0.057414 0.0376382 0.0241311
          0.0152031 0.00944839 0.00580254 0.00351737 0.00209605 0.00122042 0.000689424 0.000375292 0.0982736 0.143704 0.201897 0.272532
          0.353455 0.440433 0.527295 0.606538 0.670337 0.71181 0.726236 0.711949 0.670665 0.607155 0.528354 0.442128
          0.356001 0.276123 0.206653 0.149624 0.105195 0.072172 0.0486051 0.0323251 0.0213289 0.0139869 0.00909646 0.00583362
          0.00366 0.00222755 0.00130502 0.000731267 0.113042 0.165299 0.232236 0.313486 0.40657 0.506619 0.606536 0.697691
          0.771087 0.818813 0.835449 0.819098 0.771759 0.698957 0.608709 0.510097 0.411794 0.320854 0.241997 0.177446
          0.127243 0.0898711 0.0629803 0.0440363 0.0307744 0.0214264 0.0147523 0.00994766 0.00650566 0.00409153 0.0024581 0.00140373
          0.12493 0.182684 0.256661 0.346456 0.44933 0.559902 0.67033 0.771079 0.852212 0.904995 0.923461 0.905544
          0.853507 0.773519 0.674518 0.566607 0.459399 0.360658 0.275475 0.206098 0.152305 0.11215 0.0828383 0.0614948
          0.0456901 0.0336695 0.0243308 0.0170529 0.0114864 0.00738395 0.00450769 0.00260427 0.132655 0.19398 0.272532 0.36788
          0.477116 0.594527 0.711789 0.81878 0.90496 0.961075 0.980823 0.96207 0.907305 0.8232 0.719372 0.606668
          0.495349 0.393595 0.3066 0.236378 0.182224 0.141602 0.111192 0.087814 0.069017 0.0532875 0.0399258 0.0287435
          0.0197388 0.0128647 0.00793044 0.00461359 0.135335 0.197899 0.278038 0.375312 0.486756 0.606542 0.726181 0.835355
          0.923325 0.980685 1.00106 0.982377 0.927314 0.842872 0.73908 0.627194 0.517772 0.419055 0.335989 0.270021
          0.219655 0.181528 0.151681 0.126654 0.10416 0.0832312 0.0639278 0.046833 0.0325532 0.0213952 0.0132663 0.00774937
          0.132656 0.19398 0.272532 0.367881 0.47712 0.594539 0.711822 0.818866 0.905171 0.961566 0.981895 0.96427
          0.911546 0.830878 0.732434 0.62754 0.526683 0.437783 0.365139 0.309231 0.267397 0.235146 0.207706 0.181358
          0.15419 0.12614 0.0984644 0.0729308 0.0510722 0.0337373 0.0209922 0.0122922 0.12493 0.182684 0.256662 0.346459
          0.449338 0.559926 0.670397 0.771254 0.852645 0.906003 0.925663 0.910062 0.862214 0.789287 0.701339 0.609467
          0.523741 0.451393 0.39568 0.355696 0.327202 0.304237 0.281023 0.253582 0.220587 0.183267 0.144536 0.107788
          0.0758275 0.0502443 0.031329 0.0183717 0.113042 0.165299 0.232237 0.31349 0.406583 0.506656 0.606639 0.697962
          0.771759 0.820375 0.838861 0.826098 0.785253 0.723392 0.650275 0.57652 0.511507 0.461471 0.428285 0.409285
          0.39829 0.387558 0.370117 0.341723 0.301821 0.253265 0.20104 0.150565 0.106218 0.0705145 0.0440245 0.0258394
          0.0982737 0.143704 0.201898 0.272537 0.353472 0.440483 0.527436 0.606909 0.671257 0.713948 0.730906 0.721531
          0.689134 0.640599 0.585244 0.533038 0.492474 0.46858 0.461618 0.466933 0.476167 0.479605 0.468971 0.439758
          0.392301 0.331296 0.264061 0.198291 0.140133 0.0931381 0.0581954 0.0341754 0.0820851 0.120032 0.16864 0.227644
          0.295252 0.367943 0.44061 0.507088 0.561064 0.597231 0.612451 0.606668 0.583313 0.549015 0.512554 0.48313
          0.468242 0.471624 0.491867 0.522297 0.552381 0.570453 0.566962 0.53717 0.48233 0.409003 0.326854 0.24586
          0.173942 0.115695 0.0723257 0.0424881 0.0658749 0.0963283 0.135338 0.182691 0.236953 0.295305 0.353664 0.40712
          0.450692 0.480283 0.493674 0.491316 0.476703 0.456138 0.437774 0.429972 0.439199 0.467932 0.513229 0.566623
          0.615706 0.647154 0.650364 0.620444 0.559489 0.475703 0.380802 0.286752 0.203018 0.135098 0.0844827 0.0496407
          0.050793 0.0742743 0.104353 0.140867 0.182711 0.22772 0.272761 0.314091 0.347953 0.37136 0.382913 0.383477
          0.376521 0.367927 0.365139 0.375623 0.404836 0.454143 0.519385 0.590792 0.654665 0.696597 0.705344 0.676002
          0.611318 0.520688 0.417277 0.314444 0.222728 0.14826 0.0927326 0.0544961 0.0376284 0.055024 0.0773074 0.104359
          0.135364 0.168723 0.202133 0.23286 0.258205 0.276123 0.28588 0.288624 0.28768 0.288405 0.297443 0.321321
          0.364539 0.42758 0.505514 0.587938 0.660669 0.709 0.721605 0.693743 0.628557 0.536004 0.429871 0.324088
          0.22963 0.152886 0.0956396 0.0562099 0.0267829 0.0391646 0.0550258 0.0742822 0.0963551 0.120113 0.143933 0.165904
          0.18418 0.19746 0.2055 0.209578 0.212749 0.21974 0.236311 0.268017 0.31848 0.387558 0.470058 0.555683
          0.630654 0.680821 0.695385 0.669961 0.607798 0.518717 0.416217 0.313896 0.222456 0.14813 0.0926731 0.0544699
          0.0183158 0.0267833 0.0376306 0.0508007 0.0658997 0.0821595 0.0984826 0.113592 0.126293 0.135824 0.142257 0.146857
          0.152305 0.16261 0.182593 0.216827 0.268146 0.336042 0.415521 0.497078 0.568147 0.615906 0.630638 0.60848
          0.552517 0.471799 0.378702 0.285667 0.202479 0.134841 0.0843648 0.0495888 0.0120344 0.017598 0.0247255 0.03338
          0.0433041 0.0539974 0.0647491 0.0747446 0.0832507 0.0898713 0.0948418 0.0993082 0.1055 0.116672 0.136693 0.169185
          0.216295 0.277359 0.347953 0.419863 0.48233 0.524426 0.537906 0.519546 0.47206 0.403253 0.323761 0.244261
          0.173149 0.115316 0.072152 0.0424116 0.00759713 0.0111094 0.0156092 0.0210734 0.0273409 0.0340987 0.0409059 0.0472662
          0.0527556 0.0572011 0.0608917 0.0647839 0.0706331 0.0809558 0.098714 0.126654 0.166343 0.217116 0.27533 0.334338
          0.38549 0.420026 0.43136 0.416946 0.379007 0.323853 0.260057 0.196222 0.139105 0.0926478 0.0579706 0.0340764
          0.00460791 0.00673828 0.00946767 0.0127825 0.0165856 0.0206895 0.024832 0.0287245 0.0321368 0.0350172 0.0376382 0.040741
          0.0456315 0.0541548 0.0684678 0.090554 0.12151 0.160764 0.205515 0.250724 0.289857 0.316312 0.32514 0.314444
          0.285924 0.244364 0.196252 0.14809 0.104989 0.0699281 0.0437557 0.025721 0.00268526 0.00392676 0.00551742 0.00744947
          0.00966688 0.0120616 0.0144845 0.0167753 0.018817 0.020614 0.0223873 0.0246727 0.0283862 0.034808 0.045427 0.061603
          0.0840693 0.112384 0.144536 0.176939 0.204957 0.223916 0.230318 0.222828 0.202665 0.173233 0.139138 0.104998
          0.074442 0.0495833 0.031026 0.0182383 0.00150348 0.00219861 0.00308928 0.00417125 0.00541345 0.00675621 0.00811801 0.00941396
          0.0105889 0.0116656 0.0128051 0.0143693 0.0169633 0.0214264 0.0287301 0.0397579 0.0549761 0.0740726 0.0956954 0.117449
          0.136245 0.148973 0.153306 0.148363 0.134962 0.115374 0.0926731 0.0699375 0.0495858 0.0330281 0.0206671 0.012149
          0.000808793 0.00118275 0.00166191 0.00224407 0.00291267 0.00363607 0.00437154 0.00507604 0.00572557 0.00634365 0.00703745 0.00803559
          0.00971458 0.0125932 0.0172703 0.024288 0.0339282 0.0459872 0.0596134 0.0733048 0.0851281 0.0931381 0.0958818 0.0928102
          0.084438 0.0721886 0.0579875 0.0437628 0.0310285 0.0206677 0.0129328 0.00760251 0.000418027 0.000611311 0.000858987 0.00115994
          0.00150569 0.00188012 0.00226171 0.00262956 0.00297411 0.00331323 0.00371269 0.00430788 0.00531913 0.00704868 0.00984449 0.0140208
          0.0197388 0.0268752 0.0349269 0.0430097 0.0499868 0.0547153 0.0563422 0.0545458 0.0496301 0.0424328 0.0340866 0.0257255
          0.0182401 0.0121496 0.00760266 0.00446922 0.000207587 0.000303571 0.000426572 0.000576047 0.000747829 0.000934014 0.00112418 0.00130856
          0.00148374 0.00166121 0.0018784 0.0022105 0.00277878 0.00374903 0.00531179 0.00763871 0.0108171 0.0147774 0.0192407 0.0237182
          0.0275821 0.0302014 0.0311055 0.0301172 0.0274049 0.0234317 0.0188234 0.0142064 0.0100729 0.00670953 0.00419853 0.00246811
          9.9043e-05 0.000144839 0.000203528 0.000274856 0.000356851 0.000445785 0.000536796 0.000625476 0.000710741 0.00079916 0.000910575 0.00108413
          0.0013826 0.00189157 0.0027093 0.00392414 0.00558072 0.0076424 0.00996415 0.0122922 0.0143007 0.0156626 0.0161337 0.0156224
          0.0142162 0.0121555 0.00976505 0.00737001 0.00522564 0.00348081 0.00217815 0.00128043 0.00744658 0.010889 0.0152985 0.0206508
          0.0267827 0.0333733 0.0399551 0.0459593 0.0507928 0.0539337 0.0550232 0.0539337 0.0507929 0.0459594 0.0399554 0.0333738
          0.0267834 0.0206519 0.0152999 0.0108907 0.00744857 0.00489493 0.00309097 0.00187558 0.00109371 0.000612951 0.000330185 0.000170981
          8.51258e-05 4.07528e-05 1.87628e-05 8.30863e-06 0.0117959 0.017249 0.024234 0.0327124 0.0424257 0.0528657 0.0632918 0.0728029
          0.0804596 0.085435 0.0871609 0.0854351 0.0804599 0.0728035 0.0632928 0.0528674 0.0424282 0.0327159 0.0242386 0.0172548
          0.0118027 0.00775786 0.00490037 0.00297498 0.00173609 0.000974016 0.000525493 0.000272701 0.00013616 6.5431e-05 3.02695e-05 1.34836e-05
          0.017953 0.0262523 0.0368832 0.0497871 0.0645703 0.0804596 0.0963276 0.110803 0.122456 0.130029 0.132656 0.130029
          0.122457 0.110805 0.0963309 0.0804648 0.0645782 0.0497981 0.0368978 0.0262706 0.0179743 0.0118194 0.00747078 0.00454003
          0.00265338 0.00149193 0.000807427 0.000420812 0.000211323 0.00010231 4.77753e-05 2.15245e-05 0.0262523 0.0383884 0.0539337 0.0728029
          0.0944202 0.117655 0.140858 0.162026 0.179066 0.190139 0.193981 0.190141 0.179069 0.162031 0.140868 0.11767
          0.0944437 0.0728359 0.0539775 0.0384429 0.0263161 0.017319 0.0109613 0.00667454 0.00391252 0.00220945 0.00120304 0.000632219
          0.000320979 0.000157576 7.48484e-05 3.44069e-05 0.0368832 0.0539337 0.075774 0.102284 0.132655 0.165299 0.197899 0.227638
          0.251579 0.267136 0.272534 0.26714 0.251587 0.227654 0.197926 0.165343 0.132721 0.102377 0.0758969 0.0540866
          0.0370619 0.0244303 0.0155011 0.00947536 0.0055861 0.00318047 0.00175153 0.000934519 0.000483779 0.00024325 0.00011884 5.6383e-05
          0.0497871 0.0728029 0.102284 0.138069 0.179066 0.22313 0.267135 0.307279 0.339597 0.360598 0.367885 0.360607
          0.339619 0.307321 0.267208 0.223246 0.179239 0.138314 0.102608 0.0732057 0.0502581 0.0332297 0.0211845 0.0130427
          0.00777014 0.00448964 0.00252217 0.00138063 0.00073753 0.00038464 0.000195641 9.68159e-05 0.0645703 0.0944202 0.132655 0.179066
          0.232236 0.289384 0.346456 0.39852 0.440435 0.467673 0.477129 0.467697 0.44049 0.398624 0.346635 0.28967
          0.232665 0.179671 0.133457 0.0954173 0.0657361 0.0437061 0.0281036 0.0175248 0.0106322 0.00629737 0.00365245 0.00207845
          0.00116066 0.000634832 0.000338827 0.000175588 0.0804596 0.117655 0.165299 0.22313 0.289384 0.360595 0.431712 0.496588
          0.548818 0.582764 0.594555 0.582818 0.548947 0.49683 0.432126 0.361259 0.290381 0.224536 0.167162 0.119973
          0.08317 0.0558426 0.0364446 0.0232187 0.0145064 0.00892289 0.00541573 0.00324246 0.001909 0.00109929 0.000615099 0.000332193
          0.0963276 0.140858 0.197899 0.267135 0.346456 0.431711 0.516854 0.594526 0.657061 0.69771 0.711845 0.697829
          0.657342 0.595054 0.517759 0.433161 0.348634 0.270207 0.201968 0.145922 0.102248 0.0697938 0.0466635 0.030736
          0.0200425 0.0129708 0.00832241 0.00526979 0.00326962 0.00197167 0.00114666 0.000638881 0.110803 0.162026 0.227638 0.307279
          0.39852 0.496587 0.594525 0.683874 0.755814 0.802589 0.818884 0.802833 0.756389 0.684957 0.596383 0.499562
          0.402988 0.313581 0.235986 0.172416 0.122951 0.0861441 0.059724 0.041217 0.0283919 0.0194855 0.0132415 0.00883079
          0.00572454 0.00357599 0.00213751 0.00121608 0.122456 0.179066 0.251579 0.339596 0.440433 0.548815 0.657056 0.755807
          0.835328 0.887055 0.905132 0.887525 0.836436 0.757895 0.660638 0.55455 0.449045 0.351743 0.267671 0.199094
          0.145871 0.106176 0.0773251 0.0565234 0.0413676 0.0300794 0.0215 0.0149421 0.0100016 0.00640017 0.00389429 0.00224458
          0.130029 0.190139 0.267135 0.360596 0.467668 0.582754 0.697692 0.802561 0.887026 0.942009 0.961323 0.94286
          0.889031 0.806341 0.704178 0.593138 0.483264 0.382591 0.296275 0.226404 0.172427 0.132001 0.101977 0.079278
          0.0614616 0.0469387 0.0348817 0.0249636 0.0170712 0.0110933 0.00682432 0.00396429 0.132655 0.19398 0.272532 0.36788
          0.477117 0.59453 0.711798 0.818803 0.905016 0.961205 0.981107 0.962652 0.908428 0.825233 0.722831 0.612195
          0.503646 0.405296 0.322101 0.255669 0.204778 0.166372 0.136748 0.112584 0.0915704 0.0725784 0.0554265 0.0404441
          0.0280357 0.0183916 0.0113891 0.00664684 0.130029 0.190139 0.267136 0.360597 0.467672 0.582764 0.69772 0.802634
          0.887206 0.942429 0.96224 0.944741 0.892658 0.812909 0.715351 0.610992 0.510065 0.420386 0.346346 0.288718
          0.24528 0.212013 0.18453 0.159291 0.134314 0.109253 0.0849524 0.062759 0.0438721 0.0289466 0.0179966 0.0105321
          0.122456 0.179066 0.251579 0.339598 0.44044 0.548835 0.657113 0.755957 0.835699 0.887918 0.907015 0.891389
          0.843884 0.771381 0.683579 0.59121 0.504079 0.429353 0.370488 0.327051 0.295469 0.270476 0.246841 0.220824
          0.190965 0.158037 0.124317 0.0925523 0.0650355 0.0430606 0.0268358 0.0157312 0.110803 0.162026 0.227639 0.307282
          0.39853 0.496618 0.594613 0.684106 0.756389 0.803925 0.821802 0.808821 0.767931 0.705857 0.631937 0.556377
          0.488277 0.433857 0.395327 0.370718 0.354789 0.340769 0.322432 0.295842 0.260231 0.217788 0.172582 0.129107
          0.0910133 0.0603905 0.0376912 0.022117 0.0963277 0.140859 0.1979 0.26714 0.34647 0.431754 0.516974 0.594844
          0.657848 0.699539 0.715839 0.706025 0.673139 0.623661 0.56642 0.510921 0.465365 0.434824 0.420051 0.417331
          0.419557 0.41829 0.406222 0.379232 0.337352 0.28438 0.226406 0.169888 0.120001 0.0797316 0.0498076 0.0292452
          0.0804597 0.117655 0.165301 0.223136 0.289402 0.360649 0.431863 0.496988 0.549809 0.585067 0.599584 0.593138
          0.568839 0.532851 0.4934 0.459174 0.437369 0.431823 0.441771 0.461731 0.482725 0.494668 0.4892 0.462044
          0.414061 0.35068 0.280025 0.210529 0.148897 0.0990144 0.0618888 0.0363532 0.0645705 0.0944208 0.132657 0.179073
          0.232258 0.289448 0.346635 0.39899 0.441597 0.470377 0.483034 0.479814 0.463846 0.440917 0.418578 0.404635
          0.405248 0.423052 0.455885 0.496685 0.534866 0.558945 0.559698 0.532763 0.479762 0.407566 0.32608 0.24546
          0.173744 0.1156 0.0722822 0.0424689 0.0497872 0.0728035 0.102286 0.138077 0.17909 0.2232 0.267332 0.307796
          0.340876 0.363572 0.374381 0.373936 0.365311 0.353844 0.346346 0.349709 0.369083 0.406036 0.457282 0.514605
          0.566306 0.599997 0.605943 0.57981 0.523818 0.445889 0.357196 0.269103 0.190581 0.126848 0.0793341 0.0466199
          0.0368833 0.0539343 0.0757763 0.102292 0.13268 0.165371 0.198101 0.228171 0.2529 0.270207 0.27924 0.2809
          0.278111 0.275681 0.279624 0.295895 0.328704 0.378757 0.442041 0.50976 0.569798 0.609526 0.61917 0.594572
          0.538322 0.458854 0.367895 0.277314 0.196466 0.130796 0.0818166 0.048084 0.0262525 0.038389 0.0539359 0.0728102
          0.0944437 0.117725 0.141055 0.162543 0.180346 0.193116 0.200482 0.20348 0.204782 0.208591 0.220069 0.244233
          0.284437 0.340769 0.408932 0.48019 0.542771 0.584534 0.596182 0.573889 0.520368 0.443957 0.356157 0.268566
          0.190314 0.12672 0.0792758 0.0465942 0.0179531 0.0262529 0.0368852 0.0497938 0.0645917 0.0805234 0.0965064 0.111274
          0.123622 0.132739 0.138576 0.142176 0.145871 0.153202 0.16845 0.195711 0.237582 0.293773 0.360112 0.428518
          0.488249 0.528315 0.540361 0.521035 0.472928 0.403739 0.324022 0.244396 0.173216 0.115348 0.0721667 0.042418
          0.0117961 0.0172495 0.0242357 0.0327182 0.042444 0.0529203 0.0634447 0.0732057 0.0814567 0.0877533 0.0922246 0.0958251
          0.100487 0.109068 0.124981 0.151445 0.190411 0.241405 0.300707 0.361325 0.414061 0.449552 0.460719 0.44477
          0.403995 0.345044 0.276993 0.208962 0.148119 0.0986431 0.0617186 0.0362782 0.00744668 0.0108894 0.0152999 0.0206554
          0.0267974 0.0334171 0.0400779 0.046283 0.051594 0.0557965 0.0590921 0.0622824 0.0668855 0.0750993 0.0895239 0.112584
          0.145692 0.18834 0.23745 0.287362 0.330676 0.359891 0.369355 0.356871 0.324321 0.277084 0.222481 0.167859
          0.118994 0.079251 0.0495873 0.0291481 0.00451666 0.00660481 0.00928004 0.0125288 0.0162556 0.020275 0.0243267 0.0281201
          0.0314122 0.0341186 0.0364446 0.0390144 0.0429548 0.0498717 0.0616505 0.0800333 0.106002 0.139104 0.176968 0.215297
          0.248503 0.270934 0.278346 0.269103 0.244648 0.209063 0.167889 0.126681 0.0898087 0.0598158 0.0374277 0.022001
          0.00263208 0.00384898 0.00540806 0.0073016 0.00947432 0.0118194 0.0141881 0.0164178 0.0183818 0.0200602 0.0216261 0.0235319
          0.0265667 0.031842 0.0406546 0.0541944 0.0731141 0.0970566 0.124317 0.151834 0.175644 0.191746 0.19714 0.190679
          0.173398 0.148201 0.119026 0.0898176 0.0636774 0.0424127 0.0265388 0.0156004 0.0014737 0.00215506 0.00302804 0.00408842
          0.00530549 0.00662015 0.00795086 0.0092107 0.0103375 0.0113376 0.0123398 0.0136502 0.0157898 0.0194855 0.0255814 0.034848
          0.0476987 0.0638782 0.0822383 0.100734 0.116725 0.127547 0.131208 0.126949 0.115467 0.0987003 0.0792758 0.059825
          0.0424151 0.0282514 0.017678 0.0103918 0.000792774 0.00115931 0.00162896 0.00219949 0.00285452 0.00356264 0.00428097 0.00496498
          0.0055861 0.00615736 0.00676557 0.00760456 0.00899808 0.0113948 0.0153139 0.0212272 0.0293835 0.039615 0.0511975 0.0628486
          0.0729149 0.0797316 0.082054 0.0794102 0.0722384 0.0617544 0.0496038 0.0374346 0.0265413 0.0176786 0.0110623 0.00650288
          0.000409748 0.000599199 0.000841952 0.00113688 0.00147559 0.00184205 0.00221457 0.00257129 0.00289988 0.00321196 0.00356127 0.00406272
          0.00490568 0.00635116 0.00870047 0.0122265 0.0170712 0.0231323 0.0299818 0.0368645 0.0428082 0.0468348 0.0482137 0.0466687
          0.0424585 0.0362989 0.0291581 0.0220054 0.0156022 0.0103924 0.00650303 0.00382278 0.000203476 0.000297556 0.000418111 0.000564592
          0.000732865 0.000915056 0.00110062 0.00127923 0.00144589 0.00160861 0.00179819 0.00207845 0.0025536 0.00336667 0.00468247 0.00664989
          0.00934557 0.0127116 0.0165106 0.0203251 0.0236181 0.0258496 0.0266167 0.0257671 0.0234445 0.0200443 0.0161016 0.012152
          0.00861607 0.00573911 0.00359126 0.00211112 9.70813e-05 0.000141969 0.000199491 0.000269389 0.000349705 0.000436718 0.000525493 0.000611315
          0.000692273 0.000773117 0.000870224 0.00101686 0.00126694 0.00169427 0.00238373 0.00341191 0.00481792 0.00657118 0.00854819 0.0105321
          0.0122444 0.013405 0.013805 0.0133657 0.0121616 0.0103982 0.00835304 0.00630418 0.00446986 0.00297736 0.0018631 0.00109522
          0.00701293 0.0102549 0.0144076 0.0194482 0.025223 0.0314298 0.0376283 0.0432828 0.0478349 0.0507928 0.0518189 0.0507929
          0.047835 0.0432829 0.0376285 0.0314302 0.0252236 0.019449 0.0144087 0.0102563 0.00701452 0.00460957 0.00291065 0.00176605
          0.00102974 0.000577021 0.000310768 0.000160882 8.00675e-05 3.83123e-05 1.7628e-05 7.80002e-06 0.011109 0.0162445 0.0228227 0.0308074
          0.0399551 0.0497871 0.0596059 0.0685632 0.075774 0.0804596 0.0820851 0.0804597 0.0757743 0.0685636 0.0596068 0.0497884
          0.039957 0.0308102 0.0228264 0.0162491 0.0111144 0.00730506 0.00461394 0.00280071 0.00163405 0.0009165 0.000494252 0.000256338
          0.000127889 6.1393e-05 2.83643e-05 1.26146e-05 0.0169075 0.0247235 0.0347353 0.0468877 0.0608101 0.075774 0.090718 0.104351
          0.115325 0.122457 0.12493 0.122457 0.115326 0.104352 0.0907206 0.0757782 0.0608164 0.0468966 0.0347471 0.0247382
          0.0169246 0.0111278 0.00703237 0.0042724 0.00249591 0.00140252 0.000758377 0.000394774 0.000197931 9.56286e-05 4.45404e-05 2.00049e-05
          0.0247235 0.0361528 0.0507928 0.0685632 0.0889216 0.110803 0.132655 0.15259 0.168638 0.179066 0.182684 0.179067
          0.168641 0.152595 0.132663 0.110816 0.0889405 0.0685897 0.050828 0.0361966 0.0247747 0.0163008 0.0103129 0.00627616
          0.00367586 0.00207324 0.00112692 0.00059083 0.000299044 0.00014624 6.91382e-05 3.16088e-05 0.0347353 0.0507928 0.0713613 0.0963276
          0.12493 0.155673 0.186374 0.214381 0.236928 0.251579 0.256663 0.251582 0.236935 0.214394 0.186396 0.155708
          0.124983 0.0964022 0.07146 0.0509157 0.0348789 0.0229805 0.0145704 0.00889641 0.00523608 0.00297411 0.00163254 0.000867276
          0.000446514 0.000223027 0.000108129 5.08715e-05 0.0468877 0.0685632 0.0963276 0.130029 0.168638 0.210136 0.251579 0.289385
          0.31982 0.339598 0.346461 0.339605 0.319838 0.289418 0.251637 0.210229 0.168777 0.130225 0.0965878 0.0688869
          0.0472662 0.0312231 0.0198771 0.0122116 0.00725253 0.00417249 0.00233054 0.00126645 0.000670626 0.000346283 0.000174262 8.53077e-05
          0.0608101 0.0889216 0.12493 0.168638 0.218712 0.272532 0.32628 0.375312 0.414785 0.440437 0.449341 0.440456
          0.41483 0.375396 0.326423 0.272761 0.219056 0.169124 0.125574 0.0897228 0.0617468 0.0409838 0.0262844 0.0163273
          0.00985188 0.0057928 0.00332899 0.0018738 0.00103378 0.000558369 0.000294381 0.000150834 0.075774 0.110803 0.155673 0.210136
          0.272532 0.339596 0.40657 0.467669 0.516857 0.548824 0.559926 0.548868 0.51696 0.467863 0.406904 0.340129
          0.273333 0.211266 0.157169 0.112666 0.0779519 0.052179 0.0338976 0.0214551 0.0132869 0.00808277 0.00484281 0.00285925
          0.00165998 0.000943453 0.000521817 0.000279068 0.090718 0.132655 0.186374 0.251579 0.32628 0.40657 0.486754 0.559903
          0.618795 0.657074 0.67038 0.65717 0.61902 0.560327 0.487482 0.407735 0.32803 0.254046 0.189643 0.136724
          0.0954749 0.0648305 0.0430186 0.0280472 0.0180569 0.0115154 0.00727527 0.00453831 0.00277814 0.00165629 0.000954373 0.000527893
          0.10435 0.15259 0.214381 0.289384 0.375312 0.467668 0.559902 0.644046 0.711795 0.75584 0.771174 0.756036
          0.712256 0.644916 0.561395 0.470058 0.378902 0.294448 0.22109 0.160939 0.114111 0.0792832 0.0543431 0.0369724
          0.0250592 0.0169144 0.0113162 0.00744533 0.0047734 0.00295621 0.00175551 0.000993873 0.115325 0.168638 0.236928 0.319819
          0.414784 0.516854 0.618791 0.711789 0.786674 0.835379 0.852381 0.835756 0.787565 0.713466 0.621669 0.521462
          0.421704 0.32958 0.249859 0.184731 0.134139 0.0964374 0.0691542 0.0496767 0.0357217 0.0255591 0.0180232 0.0123927
          0.00822838 0.00523422 0.00317111 0.00182205 0.122456 0.179066 0.251579 0.339596 0.440433 0.548816 0.65706 0.755818
          0.835355 0.887117 0.905266 0.8878 0.836966 0.758855 0.662271 0.55716 0.452965 0.35727 0.274993 0.208206
          0.156525 0.117876 0.0893971 0.0682239 0.0520211 0.0391918 0.028822 0.0204691 0.0139208 0.00901091 0.00552805 0.00320502
          0.12493 0.182684 0.256661 0.346457 0.449332 0.559906 0.670342 0.77111 0.852287 0.905171 0.923846 0.906334
          0.855029 0.776276 0.679207 0.5741 0.470648 0.376521 0.29649 0.232252 0.182882 0.145733 0.117487 0.0950774
          0.0762674 0.0598237 0.0453462 0.0329162 0.0227352 0.0148772 0.00919687 0.0053609 0.122456 0.179066 0.251579 0.339597
          0.440436 0.548824 0.657082 0.755876 0.8355 0.887454 0.906003 0.889312 0.839881 0.764132 0.671249 0.571506
          0.4745 0.387639 0.315226 0.258277 0.215063 0.182168 0.15573 0.132516 0.11056 0.0892626 0.0690549 0.0508385
          0.035456 0.0233564 0.0145052 0.00848244 0.115325 0.168638 0.236928 0.319821 0.414789 0.51687 0.618836 0.71191
          0.786972 0.836071 0.853894 0.838861 0.793549 0.724303 0.640103 0.550919 0.465925 0.391941 0.332474 0.287548
          0.254344 0.228457 0.205364 0.181696 0.155927 0.128376 0.100639 0.0747542 0.0524493 0.0346917 0.0216051 0.0126589
          0.104351 0.15259 0.214382 0.289387 0.37532 0.467693 0.559973 0.644233 0.712256 0.756914 0.773519 0.760848
          0.721531 0.661711 0.589963 0.51571 0.447433 0.391093 0.349123 0.320279 0.300399 0.28388 0.265435 0.241569
          0.211347 0.176255 0.13935 0.10409 0.0733048 0.048608 0.0303237 0.0177882 0.090718 0.132656 0.186375 0.251582
          0.326292 0.406605 0.486851 0.560158 0.619427 0.658544 0.673589 0.663755 0.631714 0.583313 0.526582 0.470217
          0.421826 0.386321 0.364878 0.354807 0.35044 0.344855 0.331932 0.308071 0.273022 0.229599 0.18251 0.136812
          0.0965745 0.0641381 0.0400545 0.0235137 0.0757741 0.110804 0.155674 0.210141 0.272546 0.339639 0.406693 0.46799
          0.517653 0.550674 0.563967 0.55716 0.532944 0.496806 0.456138 0.418806 0.391441 0.377825 0.377825 0.387276
          0.399003 0.404785 0.397696 0.374061 0.334338 0.282693 0.225498 0.169418 0.119768 0.0796205 0.0497566 0.0292227
          0.0608102 0.0889221 0.124932 0.168644 0.218729 0.272583 0.326423 0.37569 0.41572 0.44261 0.454086 0.450192
          0.433597 0.409379 0.384232 0.365139 0.357731 0.364687 0.384652 0.412151 0.438703 0.45499 0.453432 0.430333
          0.386808 0.328221 0.262407 0.197436 0.139708 0.0929355 0.0581025 0.0341345 0.0468878 0.0685636 0.0963294 0.130035
          0.168657 0.210192 0.251736 0.2898 0.320848 0.341987 0.35168 0.350316 0.340482 0.326801 0.315226 0.311845
          0.321321 0.345346 0.381576 0.423561 0.461922 0.486634 0.489744 0.467622 0.421909 0.358847 0.287319 0.216387
          0.153214 0.101962 0.0637638 0.0374677 0.0347354 0.0507933 0.0713631 0.0963338 0.12495 0.155731 0.186537 0.21481
          0.237989 0.254046 0.262051 0.262639 0.258247 0.252985 0.252042 0.26061 0.28246 0.31848 0.365665 0.41706
          0.462944 0.493118 0.499632 0.479034 0.433302 0.369118 0.295837 0.222945 0.157923 0.105125 0.0657541 0.0386421
          0.0247237 0.0361533 0.0507946 0.0685691 0.0889405 0.110859 0.132813 0.153006 0.169667 0.181458 0.187908 0.189786
          0.189301 0.190007 0.196303 0.212512 0.241604 0.28388 0.336042 0.391151 0.439758 0.472071 0.480551 0.462046
          0.418659 0.357027 0.286341 0.215881 0.152963 0.101842 0.0637089 0.0374435 0.0169076 0.024724 0.0347369 0.0468931
          0.0608272 0.0758252 0.0908616 0.104729 0.116262 0.124634 0.129687 0.132217 0.134139 0.138419 0.14867 0.168381
          0.199829 0.242936 0.294457 0.347953 0.394801 0.426144 0.435222 0.419288 0.380372 0.324617 0.260469 0.196434
          0.139211 0.0926981 0.0579937 0.0340866 0.0111091 0.0162449 0.0228241 0.030812 0.0399697 0.0498309 0.0597288 0.0688869
          0.0765752 0.0823225 0.0861539 0.0888084 0.0918666 0.0977032 0.109175 0.128998 0.158864 0.198497 0.244975 0.292717
          0.334338 0.362297 0.370875 0.357793 0.324858 0.277384 0.222643 0.167943 0.119035 0.0792708 0.0495963 0.0291521
          0.00701301 0.0102552 0.0144087 0.0194519 0.0252348 0.031465 0.037727 0.0435429 0.0484787 0.0522897 0.0550883 0.0575012
          0.0607657 0.0666974 0.0774579 0.0950774 0.120769 0.15419 0.192912 0.232407 0.266735 0.289857 0.297212 0.287013
          0.26075 0.222728 0.178814 0.134902 0.0956259 0.0636855 0.039847 0.0234223 0.00425362 0.00622014 0.00873947 0.0117987
          0.0153074 0.0190897 0.0228972 0.0264487 0.0294993 0.0319373 0.0338976 0.0358712 0.038774 0.0439266 0.0528877 0.0671068
          0.0874207 0.113505 0.143481 0.173909 0.200302 0.218112 0.223916 0.216387 0.196672 0.168038 0.13493 0.101806
          0.0721704 0.0480667 0.0300755 0.0176789 0.00247879 0.0036248 0.00509302 0.00687605 0.00892149 0.0111278 0.0133527 0.0154377
          0.0172521 0.0187542 0.0200656 0.0215437 0.0238288 0.0278315 0.0346192 0.0451771 0.0600575 0.0789962 0.100639 0.122534
          0.141498 0.154311 0.158557 0.153306 0.139383 0.119113 0.0956558 0.0721788 0.0511704 0.0340815 0.0213254 0.0125357
          0.00138788 0.00202954 0.00285163 0.0038501 0.0049958 0.00623246 0.00748179 0.00865836 0.00969601 0.0105856 0.0114206 0.0124438
          0.0140771 0.0169144 0.0216483 0.0289142 0.0390597 0.0518925 0.0664989 0.0812402 0.0939946 0.10262 0.105513 0.102058
          0.0928102 0.0793246 0.0637089 0.0480754 0.0340838 0.0227018 0.0142051 0.00835026 0.000746604 0.00109179 0.00153406 0.00207126
          0.00268783 0.00335382 0.00402788 0.00466586 0.00523608 0.00574132 0.00624607 0.00690418 0.00797768 0.00983234 0.012893 0.0175477
          0.0240045 0.0321354 0.0413635 0.0506605 0.0586984 0.0641381 0.0659777 0.0638354 0.0580613 0.0496301 0.0398626 0.030082
          0.0213277 0.0142057 0.00888905 0.00522533 0.000385884 0.000564297 0.000792896 0.00107059 0.0013894 0.00173398 0.00208338 0.00241568
          0.00271648 0.00299113 0.0032801 0.00367474 0.00432818 0.00545289 0.00729494 0.0100781 0.0139208 0.0187444 0.0242074 0.0297043
          0.034454 0.03767 0.0387643 0.0375136 0.0341247 0.0291717 0.0234317 0.0176831 0.0125373 0.00835084 0.00522547 0.00307175
          0.000191625 0.000280224 0.000393748 0.000531666 0.00069004 0.000861328 0.0010353 0.00120149 0.00135366 0.00149628 0.00165272 0.0018738
          0.00224373 0.0028788 0.00391339 0.0054694 0.00761054 0.0102921 0.0133245 0.0163728 0.0190058 0.0207893 0.0213988 0.0207116
          0.0188423 0.0161084 0.0129393 0.00976505 0.00692353 0.00461165 0.00288573 0.00169636 9.14272e-05 0.0001337 0.000187866 0.000253677
          0.000329263 0.000411058 0.000494252 0.000574033 0.000647795 0.000718416 0.000798408 0.000914273 0.00110956 0.00144421 0.00198739 0.00280169
          0.00391957 0.00531731 0.00689623 0.00848244 0.0098521 0.0107801 0.0110982 0.010743 0.00977408 0.00835625 0.00671245 0.00506586
          0.00359179 0.00239245 0.00149707 0.000880051 0.00634556 0.00927901 0.0130365 0.0175975 0.0228227 0.0284388 0.0340475 0.0391639
          0.0432828 0.0459593 0.0468877 0.0459593 0.0432829 0.039164 0.0340476 0.0284391 0.0228231 0.0175981 0.0130374 0.00928004
          0.00634676 0.00417065 0.00263339 0.00159773 0.000931508 0.000521906 0.00028103 0.000145448 7.236e-05 3.46077e-05 1.59138e-05 7.03617e-06
          0.0100518 0.0146986 0.0206508 0.0278757 0.0361528 0.0450492 0.0539337 0.0620385 0.0685632 0.0728029 0.0742736 0.072803
          0.0685634 0.0620389 0.0539343 0.0450502 0.0361543 0.0278778 0.0206536 0.0147021 0.0100559 0.006609 0.00417395 0.0025333
          0.00147774 0.00082859 0.000446661 0.000231524 0.000115421 5.53522e-05 2.55409e-05 1.13412e-05 0.0152985 0.0223708 0.0314298 0.0424257
          0.0550232 0.0685632 0.082085 0.0944202 0.104351 0.110803 0.113042 0.110803 0.104351 0.0944214 0.082087 0.0685663
          0.055028 0.0424325 0.0314387 0.0223818 0.0153115 0.0100661 0.00636023 0.003863 0.00225582 0.00126685 0.000684439 0.000355872
          0.000178148 8.58977e-05 3.99072e-05 1.78692e-05 0.0223708 0.0327124 0.0459593 0.0620385 0.0804596 0.100259 0.120032 0.138069
          0.15259 0.162026 0.165299 0.162027 0.152592 0.138073 0.120038 0.100268 0.0804738 0.0620586 0.0459858 0.0327455
          0.0224094 0.0147411 0.00932282 0.00567047 0.00331837 0.00186937 0.0010144 0.000530619 0.00026776 0.000130441 6.13807e-05 2.79082e-05
          0.0314298 0.0459593 0.0645703 0.0871609 0.113042 0.140858 0.168638 0.19398 0.214381 0.227638 0.232238 0.22764
          0.214386 0.19399 0.168655 0.140885 0.113081 0.0872171 0.0646449 0.046052 0.0315382 0.0207699 0.0131594 0.00802614
          0.00471625 0.00267266 0.00146237 0.000773565 0.000396096 0.000196523 9.45351e-05 4.40879e-05 0.0424257 0.0620385 0.0871609 0.117655
          0.15259 0.190139 0.227638 0.261846 0.289385 0.30728 0.31349 0.307286 0.289398 0.261871 0.227681 0.190209
          0.152695 0.117803 0.0873572 0.0622829 0.0427114 0.0281895 0.0179212 0.0109872 0.00650559 0.00372687 0.00206974 0.00111648
          0.000585924 0.000299418 0.000148973 7.20718e-05 0.0550232 0.0804596 0.113042 0.15259 0.197899 0.246597 0.29523 0.339596
          0.375313 0.398523 0.406579 0.398537 0.375346 0.339659 0.295339 0.24677 0.198159 0.152957 0.113527 0.0810644
          0.0557303 0.0369294 0.0236239 0.0146192 0.00877385 0.00512136 0.00291563 0.0016226 0.000883714 0.000470801 0.00024482 0.000123813
          0.0685632 0.100259 0.140858 0.190139 0.246597 0.307279 0.36788 0.423164 0.467671 0.496595 0.506638 0.496628
          0.467748 0.42331 0.368132 0.307682 0.247202 0.190992 0.141988 0.101665 0.0702071 0.0468547 0.0303017 0.0190546
          0.0116958 0.00703417 0.00415744 0.00241767 0.00138184 0.000773615 0.000422061 0.00022306 0.082085 0.120032 0.168638 0.227638
          0.29523 0.36788 0.440433 0.506621 0.559907 0.594541 0.606576 0.594613 0.560077 0.506941 0.440982 0.368759
          0.296551 0.229501 0.171106 0.123103 0.0856758 0.0578774 0.0381163 0.0245945 0.015625 0.00980928 0.00609253 0.00373626
          0.00225127 0.00132381 0.000754128 0.00041333 0.0944202 0.138069 0.19398 0.261846 0.339596 0.423163 0.50662 0.582756
          0.644055 0.683904 0.697769 0.684052 0.644403 0.583412 0.507747 0.424968 0.342306 0.265668 0.199044 0.144371
          0.101788 0.0701304 0.0475126 0.031846 0.0212104 0.0140525 0.0092331 0.00597726 0.00378055 0.0023161 0.00136392 0.000767303
          0.10435 0.15259 0.214381 0.289384 0.375312 0.467668 0.559904 0.644051 0.711806 0.755866 0.77123 0.756151
          0.712477 0.645317 0.562076 0.471147 0.380536 0.296752 0.224142 0.164737 0.118552 0.0841607 0.0593754 0.0418499
          0.0295002 0.020713 0.0143685 0.0097493 0.00640716 0.00404453 0.00243656 0.00139424 0.110803 0.162026 0.227638 0.307279
          0.39852 0.496589 0.59453 0.683887 0.755847 0.802667 0.819054 0.803183 0.757064 0.68618 0.598464 0.502887
          0.407979 0.32062 0.245312 0.184022 0.136519 0.101046 0.0750993 0.0561192 0.0419605 0.0310913 0.0225671 0.0158701
          0.0107162 0.00690112 0.00421832 0.00243933 0.113042 0.165299 0.232236 0.313487 0.406572 0.506623 0.606547 0.69772
          0.77116 0.818983 0.835821 0.819861 0.773229 0.70162 0.613239 0.517337 0.422662 0.33618 0.262301 0.202715
          0.156786 0.122317 0.0964565 0.0764826 0.060317 0.0466955 0.0350566 0.0252742 0.0173738 0.0113313 0.00698861 0.00406708
          0.110803 0.162026 0.227638 0.30728 0.398522 0.496595 0.594547 0.683931 0.755957 0.802922 0.819611 0.804324
          0.759264 0.690163 0.605241 0.513716 0.424235 0.343544 0.275681 0.221817 0.180706 0.149577 0.12517 0.104649
          0.0861477 0.0688867 0.0529365 0.0387941 0.0269717 0.0177297 0.0109947 0.00642293 0.104351 0.15259 0.214382 0.289386
          0.375316 0.467681 0.559938 0.644142 0.71203 0.756389 0.772373 0.758494 0.716995 0.653497 0.575991 0.493382
          0.413915 0.343825 0.286503 0.242348 0.209288 0.183814 0.162192 0.141503 0.120236 0.0983231 0.07673 0.0568222
          0.0397869 0.0262802 0.0163513 0.00957429 0.0944203 0.138069 0.193981 0.261848 0.339602 0.423182 0.506673 0.582896
          0.644403 0.684714 0.699539 0.687684 0.651404 0.59609 0.529311 0.459427 0.394036 0.338619 0.295689 0.264648
          0.242405 0.224568 0.206853 0.186284 0.161828 0.134329 0.105878 0.0789286 0.0555108 0.0367759 0.0229283 0.0134443
          0.0820851 0.120032 0.168639 0.22764 0.295239 0.367906 0.440506 0.506813 0.560384 0.59565 0.608999 0.599584
          0.569659 0.524291 0.470497 0.415923 0.367352 0.329346 0.30338 0.287721 0.278133 0.269251 0.256199 0.235968
          0.208083 0.174427 0.138367 0.103582 0.0730525 0.0484876 0.0302685 0.0177639 0.0685632 0.100259 0.140859 0.190142
          0.246608 0.307312 0.367972 0.423406 0.468271 0.497991 0.509688 0.502887 0.479814 0.445158 0.405296 0.36707
          0.336354 0.316717 0.308548 0.308951 0.312549 0.313016 0.304911 0.285215 0.254038 0.21432 0.170717 0.128143
          0.0905346 0.0601621 0.0375864 0.0220709 0.0550233 0.0804599 0.113043 0.152594 0.197912 0.246636 0.295339 0.339881
          0.376018 0.400163 0.41016 0.405887 0.389513 0.365311 0.338974 0.3165 0.302836 0.300575 0.30909 0.324446
          0.340272 0.349437 0.346052 0.327127 0.293316 0.248503 0.198478 0.149241 0.105561 0.0702007 0.0438807 0.025776
          0.0424258 0.0620389 0.0871622 0.117659 0.152604 0.190181 0.227757 0.262159 0.290161 0.309084 0.31743 0.315371
          0.304982 0.290089 0.275681 0.266913 0.267841 0.280185 0.302478 0.330005 0.35571 0.371951 0.372595 0.354749
          0.319504 0.271449 0.21719 0.163498 0.115732 0.0770031 0.0481489 0.0282898 0.0314299 0.0459596 0.0645717 0.0871655
          0.113056 0.140902 0.168761 0.194304 0.215182 0.229501 0.236305 0.235986 0.230474 0.22312 0.218207 0.220069
          0.231951 0.25485 0.286722 0.322432 0.354659 0.375649 0.379303 0.362905 0.327837 0.279053 0.22354 0.168406
          0.119266 0.0793807 0.0496467 0.0291743 0.0223709 0.0327128 0.0459606 0.062043 0.0804738 0.100301 0.120151 0.138383
          0.153367 0.163831 0.169243 0.170118 0.168188 0.166313 0.168075 0.177033 0.195711 0.224568 0.261276 0.300679
          0.335655 0.358774 0.364277 0.349704 0.316564 0.269803 0.216305 0.16304 0.115504 0.0768946 0.0480992 0.0282679
          0.0152986 0.0223711 0.031431 0.0424298 0.0550362 0.0686018 0.0821934 0.0947059 0.105058 0.112447 0.116632 0.118171
          0.118552 0.120136 0.125829 0.138466 0.15996 0.190411 0.227478 0.266357 0.300547 0.323336 0.329575 0.317133
          0.287492 0.245242 0.196724 0.148334 0.105111 0.0699859 0.0437822 0.0257327 0.0100519 0.0146989 0.0206519 0.0278792
          0.0361639 0.0450823 0.0540264 0.0622829 0.0691679 0.074209 0.0773449 0.0791048 0.0807105 0.0840345 0.0913502 0.104841
          0.12591 0.154454 0.18834 0.223391 0.254038 0.274571 0.280642 0.270495 0.24546 0.209518 0.168133 0.126808
          0.0898714 0.0598457 0.0374414 0.022007 0.00634562 0.00927924 0.0130374 0.0176003 0.0228316 0.0284654 0.034122 0.0393602
          0.0437688 0.0470891 0.0493556 0.051023 0.0530435 0.0568382 0.0641125 0.0764826 0.0949449 0.119306 0.147779 0.176968
          0.202394 0.219486 0.224784 0.216913 0.196979 0.16821 0.135022 0.101853 0.0721941 0.048078 0.0300807 0.0176812
          0.00384882 0.00562818 0.00790768 0.0106755 0.0138494 0.0172691 0.0207071 0.0239023 0.0266192 0.0287286 0.0303017 0.031698
          0.0336201 0.0370954 0.0433451 0.0535143 0.0682833 0.0874471 0.109616 0.132206 0.151834 0.165059 0.169286 0.163498
          0.148549 0.126894 0.101879 0.0768615 0.0544843 0.0362861 0.0227038 0.0133455 0.0022429 0.00327983 0.00460827 0.00622141
          0.00807155 0.0100661 0.0120741 0.0139478 0.0155586 0.0168493 0.0178936 0.018955 0.020523 0.023303 0.0281269 0.0357678
          0.046671 0.0606606 0.07673 0.0930372 0.10718 0.116725 0.11984 0.115815 0.105266 0.0899416 0.0722212 0.0544919
          0.0386296 0.0257281 0.0160982 0.00946282 0.0012558 0.00183639 0.00258021 0.00348352 0.00451975 0.00563748 0.00676452 0.00782049
          0.00873888 0.00949815 0.010159 0.0109008 0.0120459 0.0140525 0.017458 0.0227585 0.0302325 0.0397478 0.0506236 0.0616277
          0.071159 0.0775988 0.0797316 0.0770896 0.0700873 0.0598945 0.0480992 0.036294 0.0257302 0.0171373 0.0107231 0.00630334
          0.000675552 0.000987881 0.00138803 0.00187403 0.00243166 0.00303348 0.00364127 0.00421314 0.00471625 0.00514486 0.00554225 0.00602263
          0.00678572 0.008113 0.010333 0.0137476 0.0185223 0.0245677 0.0314528 0.0384043 0.0444199 0.0484876 0.049849 0.0482137
          0.0438434 0.0374719 0.0300948 0.0227097 0.0161003 0.0107237 0.00671008 0.00394441 0.000349161 0.000510591 0.00071742 0.000968637
          0.00125695 0.00156828 0.00188318 0.00218068 0.0024453 0.00267703 0.00290363 0.00319305 0.00366188 0.00447329 0.00581707 0.00786676
          0.0107162 0.0143095 0.0183916 0.0225066 0.0260651 0.0284729 0.0292848 0.0283313 0.0257671 0.0220247 0.0176897 0.0133492
          0.00946433 0.00630385 0.00394454 0.00231875 0.000173389 0.000253554 0.000356266 0.000481031 0.000624246 0.000778979 0.000935702 0.00108433
          0.00121785 0.00133763 0.00145992 0.0016226 0.00188971 0.00235043 0.0031082 0.00425733 0.00584811 0.00784857 0.0101169 0.0124009
          0.0143751 0.0157114 0.0161646 0.0156411 0.0142271 0.0121616 0.00976833 0.0073717 0.00522648 0.00348121 0.00217833 0.00128051
          8.27263e-05 0.000120975 0.000169982 0.000229515 0.000297863 0.000371742 0.000446661 0.00051794 0.00058252 0.000641611 0.000703999 0.000789452
          0.000931076 0.00117478 0.00157374 0.00217629 0.00300797 0.00405175 0.00523372 0.00642293 0.00745047 0.00814624 0.00838306 0.0081127
          0.00737987 0.00630876 0.00506743 0.00382422 0.00271138 0.00180599 0.00113009 0.000664313 0.00551656 0.00806679 0.0113334 0.0152985
          0.0198411 0.0247235 0.0295994 0.0340475 0.0376283 0.0399551 0.0407622 0.0399551 0.0376283 0.0340475 0.0295996 0.0247237
          0.0198414 0.015299 0.011334 0.00806752 0.00551742 0.00362558 0.00228914 0.00138879 0.000809621 0.000453558 0.000244183 0.000126346
          6.28357e-05 3.00392e-05 1.38052e-05 6.09955e-06 0.00873865 0.0127784 0.017953 0.024234 0.0314298 0.0391639 0.0468877 0.0539337
          0.0596059 0.0632918 0.0645704 0.0632918 0.0596061 0.0539339 0.0468881 0.0391646 0.0314308 0.0242355 0.017955 0.0127809
          0.00874154 0.00574487 0.00362792 0.00220163 0.00128404 0.000719783 0.00038786 0.000200939 0.000100102 4.79609e-05 2.21041e-05 9.80067e-06
          0.0132999 0.0194482 0.0273237 0.0368832 0.0478349 0.0596059 0.0713613 0.082085 0.090718 0.0963277 0.0982737 0.0963279
          0.0907184 0.0820858 0.0713627 0.0596082 0.0478383 0.0368879 0.02733 0.0194561 0.0133091 0.00874873 0.00552697 0.00335605
          0.00195904 0.00109958 0.000593597 0.000308303 0.000154111 7.41673e-05 3.43754e-05 1.53476e-05 0.0194482 0.0284388 0.0399551 0.0539337
          0.0699482 0.0871609 0.10435 0.120032 0.132656 0.140859 0.143704 0.140859 0.132657 0.120034 0.104355 0.0871676
          0.0699583 0.0539479 0.0399739 0.0284623 0.0194756 0.0128085 0.00809785 0.00492286 0.00287866 0.00161986 0.000877621 0.000458084
          0.0002305 0.000111881 5.24116e-05 2.37036e-05 0.0273237 0.0399551 0.0561348 0.075774 0.0982736 0.122456 0.146607 0.168638
          0.186374 0.197899 0.201897 0.197901 0.186378 0.168645 0.146619 0.122475 0.0983019 0.0758139 0.0561876 0.0400208
          0.0274006 0.0180374 0.0114205 0.00695851 0.00408274 0.00230863 0.00125938 0.000663491 0.000337957 0.000166591 7.95201e-05 3.67617e-05
          0.0368832 0.0539337 0.075774 0.102284 0.132655 0.165299 0.197899 0.227638 0.251579 0.267136 0.272534 0.267141
          0.251589 0.227656 0.19793 0.165349 0.13273 0.102389 0.0759132 0.054107 0.0370857 0.0244565 0.0155281 0.0095015
          0.00560991 0.00320083 0.00176788 0.000946868 0.000492536 0.000249083 0.00012249 5.85289e-05 0.0478349 0.0699482 0.0982736 0.132655
          0.172045 0.214381 0.256661 0.295231 0.326281 0.346459 0.353461 0.346469 0.326305 0.295275 0.256738 0.214504
          0.172229 0.132916 0.0986182 0.0703771 0.0483363 0.0319804 0.0204092 0.0125849 0.00751431 0.00435538 0.00245685 0.00135183
          0.00072658 0.000381528 0.00019546 9.74233e-05 0.0596059 0.0871609 0.122456 0.165299 0.214381 0.267135 0.319819 0.367881
          0.406573 0.431717 0.440446 0.431741 0.406628 0.367985 0.319998 0.267421 0.21481 0.165904 0.123258 0.088158
          0.0607717 0.0404442 0.0260445 0.0162759 0.00990439 0.00588987 0.00343323 0.00196515 0.00110439 0.000607987 0.000326521 0.000170168
          0.0713613 0.10435 0.146607 0.197899 0.256661 0.319819 0.382894 0.440434 0.486759 0.516866 0.527324 0.516917
          0.486879 0.440661 0.383283 0.320443 0.257597 0.19922 0.148357 0.106528 0.0739075 0.0496842 0.0324847 0.0207494
          0.0130083 0.00803559 0.0049011 0.00294962 0.00174547 0.00100985 0.000567363 0.000307456 0.082085 0.120032 0.168638 0.227638
          0.29523 0.36788 0.440434 0.506622 0.559911 0.594551 0.606596 0.594655 0.560158 0.507088 0.441233 0.36916
          0.297152 0.230348 0.172229 0.1245 0.0873095 0.0596717 0.0399676 0.0263888 0.0172587 0.0112067 0.00721539 0.00458384
          0.00285229 0.00172418 0.00100467 0.000560618 0.090718 0.132655 0.186374 0.251579 0.32628 0.406571 0.486756 0.559908
          0.618808 0.657105 0.670447 0.657307 0.619285 0.560806 0.488297 0.409038 0.329985 0.256803 0.193295 0.141269
          0.100788 0.0706662 0.0490396 0.033883 0.0233704 0.0160603 0.0109272 0.00729494 0.00473288 0.00295843 0.00176923 0.00100692
          0.0963276 0.140858 0.197899 0.267136 0.346457 0.431713 0.516858 0.594539 0.657092 0.697781 0.712 0.698147
          0.657955 0.596165 0.519648 0.436179 0.353164 0.276596 0.210432 0.156456 0.114563 0.0833194 0.0606184 0.0442616
          0.0323576 0.0235046 0.0167865 0.0116588 0.00780013 0.00498964 0.00303525 0.00174913 0.0982736 0.143704 0.201897 0.272532
          0.353456 0.440436 0.527304 0.606562 0.670397 0.711949 0.72654 0.712572 0.671864 0.609327 0.532049 0.448033
          0.364866 0.288624 0.223216 0.170236 0.129293 0.0986385 0.0759118 0.0587916 0.045427 0.0345991 0.0256588 0.0183355
          0.0125252 0.00813302 0.00500057 0.00290377 0.0963277 0.140858 0.197899 0.267136 0.346458 0.431717 0.51687 0.59457
          0.65717 0.697962 0.712394 0.698957 0.659515 0.598989 0.524453 0.443858 0.364691 0.292851 0.231967 0.183257
          0.145896 0.117732 0.0961239 0.0786747 0.0636911 0.0503055 0.0383217 0.0279144 0.0193271 0.0126682 0.00784039 0.00457393
          0.090718 0.132656 0.186374 0.25158 0.326283 0.40658 0.486781 0.559973 0.618968 0.657476 0.671257 0.658969
          0.622488 0.566607 0.498164 0.424805 0.353654 0.290183 0.237516 0.196303 0.16513 0.141331 0.121948 0.104548
          0.0877115 0.0710942 0.0551481 0.0406747 0.0284026 0.0187259 0.0116363 0.00680745 0.082085 0.120032 0.168639 0.227639
          0.295235 0.367894 0.440472 0.506722 0.560158 0.595125 0.607852 0.597231 0.565123 0.516077 0.456524 0.393595
          0.333834 0.282078 0.24076 0.209789 0.187022 0.169185 0.152957 0.135902 0.116971 0.0964955 0.0757468 0.0563141
          0.0395345 0.0261598 0.0162961 0.00954999 0.0713613 0.104351 0.146608 0.197901 0.256667 0.319838 0.382946 0.440571
          0.487097 0.517653 0.529042 0.520442 0.493674 0.452965 0.404212 0.353887 0.307803 0.270021 0.242153 0.22326
          0.21038 0.19957 0.187129 0.170636 0.149481 0.124767 0.0986975 0.0737508 0.0519511 0.034454 0.0214962 0.0126109
          0.059606 0.0871611 0.122457 0.165301 0.214389 0.267159 0.319885 0.368053 0.406999 0.432708 0.44261 0.436179
          0.415183 0.383477 0.346351 0.309534 0.278029 0.255056 0.241366 0.235146 0.232618 0.229181 0.220772 0.205012
          0.181751 0.152878 0.121541 0.0911179 0.0643231 0.0427208 0.02668 0.0156626 0.047835 0.0699485 0.0982744 0.132658
          0.172054 0.214409 0.256738 0.295433 0.326781 0.347622 0.356001 0.35168 0.33635 0.313466 0.28768 0.26395
          0.246456 0.237593 0.237293 0.24296 0.250107 0.253582 0.249045 0.234186 0.209285 0.176939 0.141131 0.106029
          0.0749537 0.0498275 0.0311379 0.0182876 0.0368832 0.0539339 0.0757749 0.102287 0.132666 0.165329 0.197983 0.22786
          0.252129 0.268416 0.275328 0.272873 0.262639 0.247665 0.231967 0.21974 0.214381 0.217535 0.228457 0.24395
          0.259035 0.26822 0.26703 0.253265 0.227559 0.193044 0.154311 0.116093 0.0821432 0.0546401 0.0341595 0.0200679
          0.0273238 0.0399553 0.0561357 0.0757773 0.098284 0.122487 0.146694 0.168868 0.186942 0.19922 0.204782 0.203819
          0.197785 0.189301 0.181757 0.178625 0.182593 0.194683 0.213664 0.236003 0.256528 0.269684 0.271055 0.258605
          0.23321 0.198291 0.158736 0.119533 0.0846291 0.0563166 0.0352173 0.0206932 0.0194483 0.0284391 0.039956 0.0539369
          0.0699583 0.087191 0.104435 0.120254 0.133206 0.142139 0.1465 0.146596 0.143716 0.140059 0.138419 0.141602
          0.151673 0.169185 0.192638 0.218455 0.2416 0.256765 0.259798 0.248879 0.225003 0.191613 0.153541 0.115695
          0.0819456 0.0545458 0.0341163 0.0200488 0.0132999 0.0194485 0.0273246 0.0368861 0.0478441 0.0596334 0.0714382 0.0822876
          0.0912193 0.0974934 0.10082 0.101552 0.100788 0.10032 0.102381 0.109175 0.122246 0.14182 0.166343 0.19246
          0.215572 0.230891 0.23472 0.225498 0.204222 0.174104 0.139606 0.105241 0.0745623 0.0496407 0.0310523 0.0182499
          0.0087387 0.0127786 0.0179537 0.0242364 0.0314376 0.0391873 0.0469535 0.054107 0.0600348 0.0642889 0.0667482 0.0677605
          0.0682197 0.0695312 0.07342 0.0815623 0.0950774 0.113991 0.136862 0.160764 0.181751 0.195758 0.199673 0.192215
          0.174293 0.148702 0.119295 0.089957 0.0637466 0.0424457 0.0265539 0.0156071 0.00551661 0.00806695 0.011334 0.0153005
          0.0198474 0.0247424 0.0296523 0.0341867 0.0379729 0.0407563 0.0425122 0.0435458 0.0445496 0.0465804 0.0509187 0.0587916
          0.0709834 0.0874207 0.10688 0.126976 0.144536 0.156307 0.159818 0.154071 0.139828 0.119362 0.09579 0.0722481
          0.0512048 0.0340979 0.021333 0.012539 0.003346 0.00489288 0.00687451 0.00928051 0.012039 0.0150098 0.0179929 0.0207559
          0.0230828 0.0248387 0.0260445 0.0269444 0.0280472 0.0301112 0.0340456 0.0407115 0.0506385 0.0637197 0.0789962 0.0946503
          0.108283 0.117449 0.120297 0.116093 0.105428 0.0900322 0.0722699 0.054517 0.0386421 0.0257341 0.0161009 0.00946403
          0.00194988 0.00285133 0.00400616 0.00540839 0.00701631 0.00874873 0.0104903 0.0121088 0.0134843 0.0145512 0.0153443 0.0160443
          0.0170046 0.0187426 0.0218734 0.026974 0.0343874 0.0440116 0.0551481 0.0664989 0.0763614 0.0830063 0.0851281 0.0822157
          0.0746975 0.0638077 0.0512284 0.0386487 0.0273966 0.0182459 0.0114162 0.00671054 0.00109174 0.00159646 0.00224308 0.00302826
          0.00392878 0.00489947 0.00587653 0.00678759 0.00756945 0.00819273 0.00869077 0.00918738 0.00991447 0.0112067 0.0134593 0.0170401
          0.0221619 0.0287435 0.036311 0.0439949 0.0506605 0.055158 0.0566216 0.0547153 0.0497289 0.0424881 0.0341163 0.0257409
          0.0182477 0.0121533 0.00760433 0.00446996 0.000587295 0.000858814 0.00120667 0.0016291 0.00211366 0.00263623 0.0031629 0.00365571
          0.00408274 0.00443233 0.00472996 0.00505476 0.00555021 0.00642112 0.00790809 0.0102337 0.0135236 0.0177213 0.0225258 0.027391
          0.0316067 0.034454 0.0353931 0.0342159 0.0311055 0.0265805 0.0213452 0.016106 0.011418 0.0076048 0.00475843 0.00279712
          0.000303545 0.000443882 0.000623678 0.000842034 0.00109255 0.00136284 0.00163559 0.00189166 0.00211563 0.00230355 0.00247242 0.00266946
          0.00297831 0.00351737 0.00442514 0.00582913 0.00780013 0.0103021 0.0131566 0.0160414 0.0185389 0.020227 0.0207893 0.020104
          0.0182798 0.0156224 0.0125464 0.0094673 0.00671185 0.0044704 0.00279723 0.0016443 0.000150736 0.000220426 0.000309714 0.000418156
          0.00054259 0.000676904 0.000812595 0.000940389 0.00105311 0.00114976 0.00124054 0.00135183 0.00152953 0.00183819 0.00235313 0.00314342
          0.00424687 0.00564253 0.00723103 0.00883418 0.0102212 0.0111593 0.0114739 0.0110982 0.0100926 0.00862614 0.00692801 0.00522795
          0.00370644 0.0024687 0.00154474 0.000908049 7.19184e-05 0.000105169 0.00014777 0.000199514 0.000258896 0.000323017 0.00038786 0.000449093
          0.000503492 0.000550986 0.000597165 0.00065582 0.000750655 0.000914865 0.00118708 0.00160263 0.00218065 0.00290988 0.0037385 0.00457393
          0.00529643 0.00578526 0.00594998 0.0057561 0.00523506 0.00447467 0.00359393 0.00271208 0.00192281 0.00128071 0.000801383 0.000471083
          0.00460782 0.00673795 0.00946646 0.0127784 0.0165727 0.0206508 0.0247235 0.0284388 0.0314298 0.0333733 0.0340475 0.0333733
          0.0314298 0.0284389 0.0247236 0.020651 0.0165729 0.0127787 0.00946685 0.00673843 0.00460839 0.00302818 0.00191189 0.00115985
          0.000676108 0.00037872 0.000203859 0.000105458 5.24317e-05 2.50554e-05 1.15089e-05 5.08175e-06 0.00729913 0.0106734 0.0149956 0.0202419
          0.0262523 0.0327124 0.0391639 0.0450492 0.0497871 0.0528657 0.0539337 0.0528658 0.0497872 0.0450494 0.0391642 0.0327129
          0.0262531 0.0202429 0.0149969 0.0106751 0.00730106 0.00479798 0.00302974 0.00183842 0.00107203 0.000600796 0.000323632 0.000167584
          8.34322e-05 3.99405e-05 1.83879e-05 8.14215e-06 0.011109 0.0162445 0.0228227 0.0308074 0.0399551 0.0497871 0.0596059 0.0685632
          0.075774 0.0804596 0.0820851 0.0804598 0.0757743 0.0685637 0.0596069 0.0497886 0.0399573 0.0308106 0.0228269 0.0162497
          0.0111151 0.00730585 0.00461475 0.0028015 0.00163477 0.000917114 0.000494746 0.000256711 0.000128153 6.15691e-05 2.84746e-05 1.26794e-05
          0.0162445 0.0237541 0.0333733 0.0450492 0.0584257 0.0728029 0.0871609 0.100259 0.110803 0.117655 0.120032 0.117655
          0.110804 0.10026 0.0871637 0.0728073 0.0584324 0.0450587 0.0333858 0.0237697 0.0162628 0.0106935 0.00675864 0.00410683
          0.00239982 0.00134905 0.000729864 0.000380218 0.000190824 9.23149e-05 4.30668e-05 1.93809e-05 0.0228227 0.0333733 0.0468877 0.0632918
          0.082085 0.102284 0.122456 0.140858 0.155673 0.165299 0.168639 0.1653 0.155675 0.140863 0.122464 0.102297
          0.0821038 0.0633183 0.0469229 0.0334171 0.0228739 0.0150518 0.0095245 0.00579795 0.00339718 0.00191721 0.00104299 0.000547447
          0.000277502 0.000135962 6.44265e-05 2.95336e-05 0.0308074 0.0450492 0.0632918 0.085435 0.110803 0.138069 0.165299 0.190139
          0.210136 0.223131 0.227639 0.223134 0.210143 0.190151 0.16532 0.138102 0.110853 0.085505 0.0633845 0.0451646
          0.0309424 0.0203901 0.0129313 0.00789869 0.00465153 0.00264425 0.00145311 0.000773117 0.000398797 0.000199655 9.70584e-05 4.57988e-05
          0.0399551 0.0584257 0.082085 0.110803 0.143704 0.179066 0.214381 0.246597 0.272533 0.289386 0.295234 0.289393
          0.272548 0.246627 0.214432 0.179148 0.143827 0.110976 0.0823145 0.0587113 0.0402891 0.0266192 0.0169511 0.0104187
          0.00619168 0.00356539 0.00199385 0.00108515 0.000575696 0.000297898 0.000150258 7.37301e-05 0.0497871 0.0728029 0.102284 0.138069
          0.179066 0.22313 0.267136 0.30728 0.339597 0.360599 0.367889 0.360615 0.339634 0.307349 0.267254 0.22332
          0.179352 0.138472 0.102818 0.0734671 0.0505636 0.0335653 0.0215308 0.0133782 0.00807569 0.00475099 0.00273217 0.00153915
          0.000849936 0.000459518 0.000242498 0.000124362 0.0596059 0.0871609 0.122456 0.165299 0.214381 0.267136 0.31982 0.367881
          0.406574 0.43172 0.440453 0.431754 0.406654 0.368032 0.320079 0.267551 0.215005 0.166179 0.123622 0.0886116
          0.0613021 0.0410268 0.0266455 0.0168584 0.0104348 0.00634355 0.00379778 0.00224032 0.00129952 0.000737969 0.000407862 0.000217986
          0.0685632 0.100259 0.140858 0.190139 0.246597 0.307279 0.367881 0.423166 0.467675 0.496605 0.506661 0.496675
          0.46784 0.423476 0.368413 0.308132 0.247877 0.191945 0.14325 0.103236 0.0720434 0.0488715 0.0323825 0.0210714
          0.0135321 0.00860484 0.00541951 0.00337034 0.00205738 0.00122362 0.000703669 0.000388608 0.075774 0.110803 0.155673 0.210136
          0.272532 0.339596 0.406572 0.467673 0.516868 0.54885 0.559983 0.548985 0.517185 0.468271 0.407598 0.341239
          0.275 0.213616 0.160283 0.116541 0.0824824 0.0571548 0.0390314 0.0264309 0.0178174 0.0119579 0.00795658 0.00520964
          0.00332666 0.0020537 0.00121659 0.000687505 0.0804596 0.117655 0.165299 0.22313 0.289385 0.360597 0.431715 0.496597
          0.548842 0.582818 0.594673 0.583062 0.549416 0.49768 0.433573 0.363572 0.293853 0.229432 0.173648 0.128045
          0.092607 0.066207 0.047138 0.0335832 0.0239433 0.0169947 0.0119016 0.00813827 0.00538065 0.00341191 0.0020623 0.00118296
          0.082085 0.120032 0.168638 0.227638 0.295231 0.367882 0.44044 0.506638 0.55995 0.59464 0.606791 0.595054
          0.560927 0.50848 0.4436 0.372943 0.302832 0.238358 0.18284 0.137706 0.102748 0.0766279 0.0574621 0.0433451
          0.0326976 0.0244122 0.0178263 0.0125934 0.00853193 0.00550763 0.0033723 0.00195247 0.0804596 0.117655 0.165299 0.223131
          0.289386 0.360599 0.431723 0.496618 0.548893 0.582939 0.594936 0.583601 0.550456 0.499562 0.436774 0.368687
          0.301532 0.240261 0.187993 0.145898 0.11348 0.089131 0.0707898 0.0565072 0.0448159 0.034848 0.0262471 0.0189668
          0.0130592 0.00852696 0.00526321 0.00306468 0.075774 0.110803 0.155673 0.210137 0.272534 0.339602 0.406589 0.467716
          0.516974 0.549097 0.560522 0.550092 0.519319 0.472135 0.414171 0.351743 0.290767 0.235852 0.189741 0.153202
          0.125343 0.104228 0.0875986 0.0735038 0.0606778 0.0486184 0.0374141 0.0274453 0.0190941 0.0125571 0.00778945 0.00455149
          0.0685632 0.100259 0.140859 0.19014 0.2466 0.307288 0.367906 0.423232 0.46784 0.496988 0.507497 0.498391
          0.471147 0.429464 0.378599 0.324409 0.272313 0.226404 0.188902 0.16005 0.138466 0.121823 0.10765 0.0940227
          0.0799551 0.0654194 0.0510713 0.0378301 0.026493 0.0175013 0.01089 0.00637682 0.059606 0.087161 0.122457 0.1653
          0.214385 0.267148 0.319854 0.367972 0.406799 0.432244 0.441597 0.434102 0.41118 0.376228 0.334021 0.28983
          0.248449 0.213343 0.186104 0.166372 0.152213 0.140872 0.129661 0.116704 0.101345 0.0841035 0.0662796 0.0494041
          0.0347436 0.0230166 0.0143494 0.00841382 0.0497871 0.072803 0.102285 0.138071 0.179071 0.223146 0.267179 0.307394
          0.339881 0.361259 0.36933 0.363572 0.345334 0.317669 0.28481 0.251374 0.221465 0.197861 0.181495 0.171382
          0.165038 0.159291 0.151247 0.139104 0.12255 0.102666 0.0814092 0.0609277 0.0429627 0.0285127 0.0177977 0.0104445
          0.0399551 0.0584258 0.0820856 0.110805 0.14371 0.179084 0.214432 0.246732 0.272866 0.290161 0.296926 0.292864
          0.27924 0.258744 0.235044 0.212086 0.193273 0.180706 0.174692 0.173677 0.174697 0.174237 0.169255 0.158037
          0.1406 0.118531 0.094371 0.0708151 0.0500216 0.033236 0.0207624 0.012191 0.0308075 0.0450494 0.0632924 0.0854371
          0.11081 0.138089 0.165355 0.190287 0.210503 0.223983 0.229501 0.226952 0.217504 0.20348 0.187993 0.174335
          0.165244 0.162209 0.165 0.171628 0.178793 0.182772 0.180467 0.17028 0.152502 0.129107 0.103069 0.0774768
          0.0547898 0.0364319 0.0227706 0.0133749 0.0228227 0.0333734 0.0468883 0.0632939 0.0820919 0.102305 0.122514 0.141011
          0.156051 0.166179 0.17056 0.169243 0.163274 0.154623 0.145871 0.139701 0.138254 0.142502 0.151825 0.16397
          0.175505 0.182685 0.182479 0.173431 0.156029 0.13247 0.105945 0.0797316 0.0564275 0.0375399 0.0234712 0.0137897
          0.0162446 0.0237543 0.0333739 0.0450513 0.0584324 0.0728229 0.0872171 0.100407 0.11117 0.118508 0.121894 0.121477
          0.118171 0.1136 0.109855 0.109068 0.112866 0.121823 0.135082 0.150332 0.16423 0.173203 0.174427 0.166617
          0.150367 0.127912 0.102426 0.0771444 0.0546248 0.0363532 0.0227345 0.013359 0.011109 0.0162447 0.0228233 0.0308093
          0.0399612 0.0498053 0.0596572 0.0686981 0.076108 0.0812362 0.0837811 0.0839399 0.0824824 0.0807105 0.0802693 0.082807
          0.0895239 0.100711 0.115429 0.131495 0.145851 0.155284 0.15729 0.15078 0.136371 0.116163 0.0930973 0.0701568
          0.0496947 0.03308 0.0206909 0.0121595 0.00729917 0.0106735 0.0149961 0.0202436 0.0262576 0.0327281 0.0392077 0.0451646
          0.0500727 0.05353 0.0553845 0.0558426 0.0555251 0.0554394 0.0568382 0.0609559 0.0686508 0.0800333 0.0942063 0.109253
          0.12255 0.131374 0.133624 0.128415 0.116321 0.0991785 0.079533 0.059958 0.0424812 0.0282829 0.0176924 0.0103982
          0.00460785 0.00673806 0.00946685 0.0127797 0.0165769 0.0206634 0.0247587 0.0285316 0.0316593 0.033907 0.0352132 0.0357652
          0.0360404 0.0367876 0.0389252 0.0433451 0.0506408 0.0608221 0.0731141 0.0859487 0.0972145 0.104736 0.106848 0.102868
          0.0932823 0.079589 0.0638511 0.0481489 0.0341203 0.0227192 0.0142131 0.00835378 0.00279481 0.00408685 0.00574199 0.00775148
          0.010055 0.0125348 0.0150221 0.017319 0.0192364 0.0206448 0.0215308 0.0220475 0.0225434 0.023551 0.0257156 0.0296559
          0.0357678 0.0440158 0.0537854 0.0638782 0.072698 0.07861 0.08037 0.0774768 0.070313 0.0600208 0.0481671 0.0363291
          0.0257476 0.0171456 0.0107269 0.00630502 0.00162867 0.00238162 0.00334617 0.00451729 0.00585994 0.00730585 0.00875749 0.0101015
          0.0112319 0.0120816 0.0126582 0.0130763 0.0135769 0.0145206 0.0163403 0.0194465 0.024093 0.0302325 0.0374141 0.04478
          0.0511975 0.0555108 0.0568444 0.0548504 0.0498076 0.0425321 0.03414 0.0257531 0.0182538 0.0121562 0.00760566 0.00447054
          0.000911892 0.00133347 0.00187354 0.0025293 0.00328121 0.00409125 0.00490531 0.00566108 0.00630176 0.00679483 0.00715361 0.00745741
          0.00786388 0.00860484 0.00995653 0.0121787 0.0154271 0.0196593 0.0245677 0.0295769 0.0339318 0.0368645 0.0377947 0.0364947
          0.0331536 0.0283183 0.0227345 0.0171513 0.0121577 0.00809682 0.00506603 0.00297783 0.000490548 0.000717336 0.00100787 0.00136066
          0.00176524 0.00220126 0.00263988 0.00304825 0.00339718 0.00367196 0.00388475 0.00408659 0.00437473 0.00489041 0.00580086 0.00726223
          0.00936592 0.0120804 0.0152095 0.0183916 0.0211539 0.0230166 0.0236181 0.0228177 0.0207353 0.0177146 0.0142234 0.0107312
          0.00760718 0.00506642 0.00317004 0.00186339 0.000253541 0.000370758 0.000520927 0.000703282 0.000912433 0.00113792 0.00136499 0.00157696
          0.00175948 0.00190631 0.00202631 0.00215006 0.00233415 0.00265991 0.00322323 0.00411311 0.00538065 0.00700507 0.00886962 0.0107609
          0.0124009 0.0135078 0.0138699 0.013405 0.0121845 0.010411 0.00835994 0.00630775 0.00447164 0.00297821 0.00186349 0.00109539
          0.000125905 0.000184114 0.000258687 0.000349249 0.000453132 0.000565167 0.000678089 0.000783773 0.000875407 0.000950544 0.00101475 0.00108515
          0.00119277 0.00138184 0.00170431 0.00220822 0.00292071 0.00382943 0.00486928 0.00592211 0.00683431 0.00745047 0.00765384 0.00739942
          0.00672687 0.00574834 0.00461618 0.00348315 0.00246931 0.00164465 0.00102908 0.000604919 6.00711e-05 8.78435e-05 0.000123425 0.000166636
          0.000216208 0.000269687 0.000323632 0.000374229 0.000418362 0.000455129 0.000487671 0.000524964 0.000583008 0.0006845 0.000856027 0.00112209
          0.00149637 0.00197213 0.00251537 0.00306468 0.00354035 0.0038618 0.00396859 0.00383745 0.00348908 0.00298177 0.00239461 0.00180691
          0.001281 0.000853203 0.000533867 0.000313822 0.00369786 0.00540733 0.00759701 0.0102549 0.0132999 0.0165727 0.0198411 0.0228227
          0.025223 0.0267827 0.0273237 0.0267827 0.025223 0.0228227 0.0198411 0.0165728 0.0133 0.0102551 0.00759726 0.00540763
          0.00369822 0.00243006 0.00153421 0.000930694 0.000542489 0.000303844 0.000163532 8.45799e-05 4.20404e-05 2.00828e-05 9.22069e-06 4.06914e-06
          0.00585769 0.00856561 0.0120342 0.0162445 0.021068 0.0262523 0.0314298 0.0361528 0.0399551 0.0424257 0.0432828 0.0424258
          0.0399551 0.0361529 0.0314299 0.0262526 0.0210684 0.0162451 0.0120351 0.00856664 0.00585889 0.0038501 0.00243103 0.00147499
          0.000859983 0.000481859 0.000259487 0.000134313 6.68308e-05 3.19696e-05 1.47045e-05 6.50356e-06 0.00891518 0.0130365 0.0183156 0.0247235
          0.0320647 0.0399551 0.0478349 0.0550232 0.0608101 0.0645704 0.0658748 0.0645704 0.0608103 0.0550236 0.0478355 0.039956
          0.0320661 0.0247255 0.0183183 0.0130398 0.00891901 0.00586189 0.0037022 0.00224707 0.00131086 0.000735077 0.0003963 0.000205454
          0.000102448 4.91454e-05 2.26856e-05 1.0078e-05 0.0130365 0.0190631 0.0267827 0.0361528 0.0468877 0.0584257 0.0699482 0.0804596
          0.0889216 0.0944203 0.0963278 0.0944205 0.0889222 0.0804606 0.06995 0.0584285 0.0468919 0.0361588 0.0267905 0.0190729
          0.013048 0.00857816 0.00542028 0.00329226 0.00192267 0.00107988 0.000583511 0.000303458 0.000151953 7.32935e-05 3.4067e-05 1.52626e-05
          0.0183156 0.0267827 0.0376283 0.0507928 0.0658748 0.082085 0.0982736 0.113042 0.12493 0.132656 0.135336 0.132656
          0.124932 0.113044 0.0982785 0.0820929 0.0658865 0.0508095 0.0376503 0.0268101 0.0183477 0.0120694 0.00763333 0.00464302
          0.00271725 0.00153085 0.000830796 0.000434641 0.00021937 0.000106893 5.03153e-05 2.28852e-05 0.0247235 0.0361528 0.0507928 0.0685632
          0.0889216 0.110803 0.132655 0.15259 0.168638 0.179067 0.182685 0.179068 0.168642 0.152598 0.132668 0.110824
          0.0889527 0.068607 0.0508509 0.0362251 0.024808 0.0163373 0.0103506 0.00631266 0.00370909 0.00210166 0.00114976 0.000608068
          0.000311268 0.000154383 7.42338e-05 3.46043e-05 0.0320647 0.0468877 0.0658748 0.0889216 0.115325 0.143704 0.172045 0.197899
          0.218712 0.232237 0.23693 0.232242 0.218722 0.197918 0.172077 0.143755 0.115402 0.08903 0.0660184 0.0470665
          0.0322737 0.0212975 0.0135367 0.00829634 0.00490991 0.0028108 0.00155953 0.000840234 0.000440292 0.000224604 0.000111533 5.38482e-05
          0.0399551 0.0584257 0.082085 0.110803 0.143704 0.179066 0.214381 0.246597 0.272533 0.289387 0.295236 0.289397
          0.272556 0.246641 0.214456 0.179185 0.143883 0.111055 0.082419 0.0588413 0.040441 0.0267861 0.0171233 0.0105856
          0.00634365 0.00369537 0.00209829 0.00116399 0.0006316 0.000335139 0.000173562 8.743e-05 0.0478349 0.0699482 0.0982736 0.132655
          0.172045 0.214381 0.256661 0.295231 0.326282 0.346462 0.353468 0.346483 0.326333 0.295326 0.256824 0.214641
          0.172435 0.133206 0.0990031 0.0708561 0.0488963 0.0325955 0.0210438 0.0132 0.00807435 0.00483441 0.00284176 0.00164238
          0.000932609 0.000518772 0.000281346 0.000147913 0.0550232 0.0804596 0.113042 0.15259 0.197899 0.246597 0.295231 0.339598
          0.375316 0.398532 0.406597 0.398575 0.37542 0.339792 0.295564 0.247131 0.1987 0.15372 0.114538 0.0823225
          0.0572011 0.0385448 0.0252906 0.0162346 0.0102447 0.00637944 0.00392652 0.00238566 0.00142481 0.000831246 0.000470381 0.000256414
          0.0608101 0.0889216 0.12493 0.168638 0.218712 0.272532 0.326281 0.375315 0.414793 0.440456 0.449382 0.44054
          0.414992 0.37569 0.326924 0.273561 0.220256 0.170816 0.127815 0.0925124 0.0650081 0.0445657 0.0299799 0.0199091
          0.0131132 0.00858235 0.00557045 0.00356575 0.00223355 0.00135759 0.000794519 0.00044485 0.0645703 0.0944202 0.132655 0.179066
          0.232237 0.289385 0.346459 0.398527 0.44045 0.46771 0.47721 0.467863 0.44081 0.399204 0.347622 0.291247
          0.235033 0.18301 0.13788 0.100922 0.072172 0.0507745 0.0353964 0.0245933 0.0170681 0.0118023 0.00807576 0.00541734
          0.00352828 0.00221201 0.0013258 0.0007558 0.0658748 0.0963277 0.135335 0.182684 0.236928 0.295232 0.35346 0.406583
          0.449361 0.477188 0.486915 0.477448 0.449973 0.407735 0.355438 0.298399 0.241685 0.189392 0.144222 0.107388
          0.0788056 0.0574845 0.0419762 0.0307744 0.0225885 0.0164676 0.011796 0.00821185 0.00550356 0.00352503 0.00214629 0.00123766
          0.0645704 0.0944202 0.132656 0.179066 0.232237 0.289387 0.346464 0.39854 0.440483 0.467786 0.477374 0.4682
          0.44146 0.400382 0.349625 0.294448 0.239838 0.189786 0.146857 0.112095 0.0852337 0.06512 0.0501973 0.0389388
          0.0301298 0.0229746 0.0170529 0.0121937 0.00833343 0.00541293 0.00332888 0.00193335 0.0608101 0.0889217 0.12493 0.168639
          0.218713 0.272536 0.326292 0.375342 0.41486 0.44061 0.449719 0.441233 0.416327 0.378108 0.331037 0.280133
          0.230123 0.184731 0.146249 0.115454 0.0918294 0.0740232 0.0603725 0.0493666 0.0399345 0.0315239 0.0240045 0.0174805
          0.0121006 0.00793044 0.00490771 0.00286287 0.0550232 0.0804597 0.113042 0.152591 0.197901 0.246603 0.295247 0.339639
          0.37542 0.398771 0.40712 0.399649 0.377489 0.343539 0.301939 0.257317 0.213991 0.175284 0.143107 0.117876
          0.0987675 0.0841966 0.0723915 0.0618864 0.0518111 0.0419331 0.0324947 0.02395 0.0167162 0.0110175 0.0068448 0.00400374
          0.0478349 0.0699483 0.0982738 0.132656 0.172047 0.214389 0.256683 0.295288 0.326423 0.34679 0.354184 0.347953
          0.329165 0.300455 0.265548 0.228583 0.193364 0.16272 0.138103 0.119517 0.105787 0.0950774 0.0855091 0.0756818
          0.0649647 0.0534953 0.0419419 0.0311567 0.0218614 0.0144604 0.00900577 0.00527674 0.0399551 0.0584258 0.0820853 0.110804
          0.143707 0.179076 0.214409 0.246669 0.272711 0.2898 0.296138 0.291247 0.276123 0.253099 0.225441 0.19674
          0.170236 0.14822 0.131654 0.120115 0.112077 0.105463 0.0982978 0.0892626 0.0779799 0.0649691 0.0513331 0.0383284
          0.0269851 0.0178904 0.0111593 0.00654563 0.0320647 0.0468878 0.0658751 0.0889228 0.115329 0.143715 0.172077 0.197983
          0.218921 0.232722 0.237989 0.234414 0.22291 0.2055 0.184976 0.164367 0.146344 0.132666 0.123827 0.11901
          0.116384 0.113675 0.108846 0.100674 0.0890203 0.0747542 0.0593677 0.0444761 0.0313828 0.0208367 0.0130103 0.00763663
          0.0247236 0.0361529 0.0507932 0.0685645 0.0889258 0.110816 0.132691 0.152683 0.168868 0.1796 0.183849 0.181458
          0.173249 0.160939 0.146857 0.133497 0.12299 0.116607 0.11444 0.115364 0.11733 0.117953 0.115192 0.107928
          0.0962314 0.0812402 0.0647393 0.048608 0.0343483 0.0228279 0.014263 0.00837574 0.0183157 0.0267828 0.0376287 0.0507942
          0.0658791 0.0820979 0.0983099 0.113137 0.125167 0.133206 0.136538 0.135123 0.129687 0.121655 0.112926 0.1055
          0.101024 0.100362 0.103296 0.108508 0.113862 0.116971 0.115865 0.109545 0.0982316 0.0832286 0.0664768 0.0499868
          0.0353571 0.0235137 0.0146979 0.00863376 0.0130366 0.0190632 0.0267831 0.0361542 0.0468919 0.0584382 0.0699834 0.0805524
          0.0891512 0.0949539 0.0974934 0.0968122 0.0935322 0.0888084 0.0841499 0.0811199 0.0809558 0.0841966 0.0904303 0.0982738
          0.105643 0.110274 0.110344 0.104988 0.094518 0.0802808 0.0642233 0.0483413 0.0342159 0.0227647 0.014234 0.00836298
          0.0089152 0.0130366 0.018316 0.0247247 0.0320685 0.0399665 0.0478669 0.0551077 0.0610191 0.0650563 0.0669362 0.0667482
          0.0650081 0.0626248 0.0607657 0.0606184 0.0630841 0.0684678 0.0762674 0.0851587 0.0932346 0.0984644 0.0992442 0.0948496
          0.0856264 0.072854 0.0583455 0.0439478 0.0311204 0.0207116 0.0129529 0.00761136 0.00585771 0.00856569 0.0120345 0.0162455
          0.0210713 0.0262621 0.0314572 0.0362251 0.0401338 0.0428414 0.0441907 0.0442886 0.0435458 0.0426548 0.0424901 0.0439266
          0.0476003 0.053661 0.061603 0.070255 0.0779799 0.0830595 0.0841548 0.0806844 0.072981 0.0621702 0.0498275 0.0375502
          0.0265987 0.017706 0.0110748 0.00650841 0.00369788 0.0054074 0.00759726 0.0102557 0.0133025 0.0165805 0.0198631 0.0228807
          0.0253666 0.0271167 0.0280532 0.0282795 0.0281082 0.0280472 0.0287283 0.0307744 0.0346192 0.0403199 0.0474267 0.0549761
          0.0616497 0.0660773 0.0672018 0.0645779 0.0584939 0.0498723 0.0399929 0.0301494 0.0213612 0.0142217 0.00889636 0.00522855
          0.00224288 0.00327976 0.00460801 0.00622053 0.00806877 0.0100578 0.0120509 0.0138865 0.0154069 0.0164966 0.0171233 0.0173744
          0.0174764 0.0177863 0.0187426 0.0207718 0.0241594 0.0289142 0.0346728 0.0406962 0.0459872 0.0495174 0.0504991 0.048608
          0.0440731 0.0376006 0.030164 0.0227454 0.0161181 0.0107321 0.00671397 0.00394612 0.00130704 0.00191128 0.00268533 0.00362508
          0.00470231 0.00586189 0.00702472 0.00809785 0.00899207 0.00964524 0.0100482 0.0102677 0.0104595 0.0108633 0.0117699 0.0134593
          0.0161123 0.0197173 0.0240045 0.0284435 0.0323264 0.0349269 0.0356917 0.0343969 0.031211 0.0266396 0.021377 0.0161225
          0.0114262 0.00760869 0.00476021 0.00279791 0.000731809 0.00107013 0.00150353 0.00202973 0.00263297 0.00328251 0.00393438 0.00453728
          0.00504281 0.00541935 0.00566744 0.00583397 0.00602036 0.00637944 0.00709535 0.00834348 0.0102337 0.0127494 0.0157051 0.0187444
          0.0213952 0.0231751 0.0237182 0.0228784 0.0207706 0.0177344 0.014234 0.0107367 0.00760992 0.00506773 0.00317064 0.00186366
          0.000393673 0.000575671 0.000808821 0.00109191 0.00141647 0.00176605 0.00211717 0.00244262 0.00271725 0.00292577 0.00307162 0.00318524
          0.00332899 0.00359542 0.00409526 0.00493313 0.00617286 0.00780013 0.00969596 0.011636 0.0133245 0.0144604 0.0148158 0.0143007
          0.0129885 0.0110926 0.00890458 0.00671739 0.00476144 0.00317096 0.00198398 0.00116618 0.000203471 0.000297538 0.000418044 0.000564366
          0.000732148 0.000912912 0.00109461 0.00126339 0.00140669 0.00151748 0.00159913 0.00167001 0.00176631 0.00194109 0.00225747 0.00277474
          0.00352828 0.00450793 0.00564253 0.00679954 0.00780509 0.00848244 0.00869816 0.00839994 0.00763145 0.00651871 0.0052335 0.00394831
          0.00279879 0.00186396 0.00116625 0.000685529 0.000101041 0.000147753 0.000207596 0.000280262 0.000363593 0.000453396 0.000543728 0.000627805
          0.000699591 0.000755997 0.000799431 0.000840234 0.000898192 0.00100206 0.00118592 0.00148159 0.00190777 0.0024581 0.00309283 0.0037385
          0.00429905 0.004677 0.00479888 0.00463604 0.00421283 0.00359905 0.00288971 0.00218021 0.00154551 0.00102931 0.000644037 0.000378573
          4.8208e-05 7.04954e-05 9.90479e-05 0.000133719 0.000173483 0.000216345 0.000259487 0.00029971 0.000334219 0.000361705 0.000383622 0.000405407
          0.000437251 0.000493872 0.000592651 0.000749768 0.000974589 0.00126357 0.00159589 0.00193335 0.00222611 0.00242363 0.00248788 0.00240408
          0.00218497 0.00186681 0.00149898 0.00113098 0.000801751 0.000533978 0.000334111 0.000196396 0.00285124 0.00416933 0.00585769 0.00790705
          0.0102549 0.0127784 0.0152985 0.0175975 0.0194482 0.0206508 0.021068 0.0206508 0.0194482 0.0175975 0.0152985 0.0127784
          0.010255 0.00790716 0.00585783 0.00416951 0.00285145 0.00187363 0.00118288 0.000717542 0.000418221 0.000234223 0.000126047 6.51816e-05
          3.23913e-05 1.54689e-05 7.09963e-06 3.13163e-06 0.00451658 0.00660453 0.00927901 0.0125254 0.0162445 0.0202419 0.024234 0.0278757
          0.0308074 0.0327124 0.0333733 0.0327125 0.0308074 0.0278758 0.0242341 0.0202421 0.0162448 0.0125257 0.0092795 0.00660513
          0.00451729 0.00296838 0.0018742 0.00113705 0.00066287 0.000371349 0.000199926 0.000103448 5.14488e-05 2.45962e-05 1.13041e-05 4.99469e-06
          0.00687406 0.0100518 0.0141223 0.0190631 0.0247235 0.0308074 0.0368832 0.0424257 0.0468877 0.0497871 0.0507929 0.0497871
          0.0468878 0.0424259 0.0368835 0.030808 0.0247244 0.0190643 0.0141238 0.0100538 0.00687631 0.00451905 0.00285379 0.00173184
          0.00101004 0.000566182 0.000305086 0.000158052 7.87345e-05 3.77218e-05 1.73842e-05 7.70744e-06 0.0100518 0.0146986 0.0206508 0.0278757
          0.0361528 0.0450492 0.0539337 0.0620385 0.0685632 0.0728029 0.0742737 0.072803 0.0685635 0.0620391 0.0539347 0.0450508
          0.0361553 0.0278792 0.0206554 0.0147044 0.0100586 0.00661191 0.00417694 0.00253621 0.00148039 0.000830852 0.000448478 0.000232895
          0.000116393 5.6e-05 2.59463e-05 1.15795e-05 0.0141223 0.0206508 0.0290133 0.0391639 0.0507928 0.0632918 0.075774 0.0871609
          0.0963277 0.102284 0.104351 0.102285 0.0963286 0.0871626 0.0757769 0.0632964 0.0507998 0.0391737 0.0290263 0.0206669
          0.0141411 0.00929971 0.00587904 0.00357356 0.00208927 0.00117535 0.000636551 0.000332084 0.000166986 8.09815e-05 3.78953e-05 1.71163e-05
          0.0190631 0.0278757 0.0391639 0.0528657 0.0685632 0.085435 0.102284 0.117655 0.130029 0.13807 0.140859 0.138071
          0.130031 0.117659 0.102292 0.0854471 0.0685814 0.0528915 0.039198 0.0279182 0.0191128 0.0125799 0.00796331 0.00485039
          0.00284443 0.00160726 0.000875893 0.000460826 0.000234313 0.000115246 5.48658e-05 2.52871e-05 0.0247235 0.0361528 0.0507928 0.0685632
          0.0889216 0.110803 0.132656 0.15259 0.168638 0.179067 0.182685 0.179069 0.168644 0.152601 0.132674 0.110833
          0.0889668 0.0686269 0.0508773 0.0362579 0.0248464 0.0163795 0.0103941 0.00635485 0.00374751 0.00213453 0.00117617 0.000628001
          0.000325403 0.000163799 8.0126e-05 3.80681e-05 0.0308074 0.0450492 0.0632918 0.085435 0.110803 0.138069 0.165299 0.190139
          0.210137 0.223132 0.227641 0.223138 0.21015 0.190165 0.165343 0.138139 0.110908 0.0855832 0.0634881 0.0452936
          0.0310931 0.0205557 0.0131021 0.00806424 0.00480226 0.00277318 0.00155671 0.000851316 0.000454248 0.000236594 0.000120174 5.93878e-05
          0.0368832 0.0539337 0.075774 0.102284 0.132655 0.165299 0.197899 0.227638 0.25158 0.267139 0.27254 0.267151
          0.25161 0.227694 0.197994 0.165452 0.132885 0.102608 0.0762029 0.0544674 0.0375071 0.0249193 0.0160056 0.00996432
          0.00603131 0.00356127 0.00205751 0.00116549 0.000647561 0.000352352 0.000187115 9.65196e-05 0.0424257 0.0620385 0.0871609 0.117655
          0.15259 0.190139 0.227638 0.261847 0.289387 0.307286 0.313502 0.307312 0.289448 0.261961 0.227834 0.190453
          0.153061 0.118319 0.0880408 0.0631336 0.0437061 0.0292819 0.0190483 0.0120796 0.00750023 0.00457763 0.00275335 0.00163249
          0.000951833 0.000543166 0.000301507 0.000161742 0.0468877 0.0685632 0.0963276 0.130029 0.168638 0.210136 0.251579 0.289387
          0.319825 0.33961 0.346487 0.339659 0.319942 0.289607 0.251957 0.210741 0.169546 0.131309 0.0980238 0.070674
          0.0493556 0.0335179 0.0222447 0.0145064 0.00934195 0.00595967 0.00376658 0.00235043 0.00143928 0.000858319 0.000494685 0.000273675
          0.0497871 0.0728029 0.102284 0.138069 0.179066 0.223131 0.267137 0.307283 0.339607 0.360621 0.367936 0.36071
          0.339818 0.307682 0.267821 0.224225 0.18071 0.140388 0.105356 0.0766252 0.0542558 0.0376204 0.0257146 0.0174333
          0.0117679 0.00790911 0.00526979 0.00345464 0.00220822 0.00136433 0.000808717 0.000457225 0.0507928 0.0742736 0.104351 0.140859
          0.182684 0.227639 0.272535 0.313494 0.346475 0.367923 0.375407 0.368076 0.346834 0.314171 0.273698 0.229501
          0.18548 0.144802 0.109575 0.0807756 0.0583945 0.041722 0.0296818 0.0211271 0.0150482 0.0106713 0.00746738 0.0051029
          0.00337214 0.00213751 0.00129165 0.000740759 0.0497871 0.0728029 0.102284 0.138069 0.179067 0.223132 0.26714 0.307291
          0.339626 0.360665 0.368032 0.360909 0.3402 0.308374 0.268998 0.226107 0.183535 0.144371 0.110633 0.083193
          0.0619344 0.0460537 0.0344156 0.0258666 0.0194465 0.014477 0.0105472 0.00743824 0.00503302 0.00324605 0.00198627 0.00114947
          0.0468877 0.0685632 0.0963277 0.130029 0.168639 0.210139 0.251585 0.289402 0.319864 0.339701 0.346685 0.340067
          0.320727 0.291028 0.254375 0.214605 0.175347 0.139489 0.108861 0.0841607 0.065123 0.050835 0.0401116 0.0318235
          0.0251094 0.0194463 0.0146034 0.0105305 0.00723981 0.0047223 0.0029127 0.00169515 0.0424257 0.0620385 0.087161 0.117655
          0.152591 0.190142 0.227647 0.261871 0.289448 0.307427 0.31381 0.307943 0.290665 0.264164 0.231581 0.196441
          0.16205 0.130996 0.104835 0.0840345 0.0681417 0.0561192 0.0467375 0.0389169 0.0319359 0.0254785 0.0195477 0.0143095
          0.0099412 0.00653138 0.00404883 0.00236468 0.0368832 0.0539337 0.0757741 0.102285 0.132657 0.165304 0.197912 0.227672
          0.251663 0.267332 0.272961 0.268015 0.253275 0.230709 0.203123 0.173648 0.145188 0.119959 0.0991887 0.0830737
          0.0709513 0.0616505 0.0539027 0.0466955 0.0394754 0.0321676 0.0250433 0.0185161 0.012951 0.00854819 0.00531594 0.0031116
          0.0308074 0.0450493 0.0632919 0.0854356 0.110805 0.138075 0.165315 0.190181 0.210241 0.223375 0.228171 0.224225
          0.212247 0.193961 0.171801 0.148459 0.126401 0.107431 0.0924318 0.0813145 0.0732059 0.0668075 0.0608221 0.0543161
          0.046915 0.0387941 0.0305004 0.0226991 0.0159467 0.0105568 0.00657838 0.00385597 0.0247235 0.0361529 0.050793 0.0685639
          0.0889239 0.11081 0.132674 0.15264 0.168761 0.179352 0.183308 0.180346 0.171106 0.157059 0.140257 0.122951
          0.107157 0.0942791 0.0848609 0.0785513 0.0742923 0.0706852 0.0664237 0.0606606 0.0531934 0.0444279 0.0351598 0.0262802
          0.0185155 0.012281 0.00766291 0.00449575 0.0190631 0.0278758 0.0391641 0.0528665 0.0685656 0.0854423 0.102305 0.117709
          0.130164 0.138383 0.141544 0.139475 0.132739 0.122563 0.110633 0.0987762 0.0885908 0.0811092 0.0765804 0.0744413
          0.0735038 0.0723168 0.0695964 0.0645873 0.0572355 0.0481304 0.0382583 0.0286785 0.0202437 0.0134443 0.008396 0.00492879
          0.0141223 0.0206509 0.0290136 0.0391647 0.0507954 0.0632994 0.0757954 0.0872171 0.0964669 0.102608 0.105058 0.103735
          0.0991241 0.0922246 0.0843878 0.0770565 0.0714562 0.0683039 0.0676176 0.0686946 0.0702911 0.0709684 0.0695053 0.0652422
          0.0582392 0.049203 0.0392278 0.0294623 0.0208234 0.0138411 0.00864877 0.00507919 0.0100519 0.0146987 0.0206511 0.0278765
          0.0361553 0.0450566 0.0539544 0.062093 0.0686981 0.0731166 0.0749589 0.074209 0.0712736 0.0669465 0.0622824 0.0583905
          0.0561804 0.0561192 0.0580673 0.0612642 0.0644925 0.0663959 0.0658587 0.0623202 0.0559144 0.0473907 0.0378604 0.0284729
          0.0201415 0.0133956 0.00837367 0.00491895 0.00687408 0.0100519 0.0141225 0.0190638 0.0247258 0.0308141 0.036902 0.0424754
          0.0470106 0.0500727 0.0514168 0.0510674 0.0493556 0.0468945 0.0444848 0.0429548 0.0429589 0.0447791 0.0481904 0.0524503
          0.0564429 0.0589573 0.0590201 0.05617 0.0505766 0.0429627 0.0343716 0.0258728 0.0183133 0.0121845 0.00761866 0.00447627
          0.00451659 0.00660458 0.00927919 0.012526 0.0162464 0.0202477 0.0242501 0.0279182 0.0309125 0.0329568 0.033907 0.0338076
          0.0329183 0.031698 0.030736 0.0306321 0.031842 0.0345214 0.038419 0.0428698 0.046915 0.0495332 0.0499171 0.0477019
          0.0430606 0.0366361 0.0293394 0.0220991 0.0156487 0.0104146 0.00651321 0.00382727 0.00285125 0.00416937 0.00585783 0.00790754
          0.0102564 0.012783 0.0153115 0.0176316 0.0195327 0.0208472 0.0214969 0.0215308 0.0211444 0.0206688 0.020523 0.0211271
          0.0227879 0.0255814 0.0292723 0.0333093 0.0369194 0.0392899 0.0397869 0.0381338 0.0344861 0.029374 0.0235405 0.0177394
          0.0125653 0.00836417 0.00523158 0.00307445 0.00172937 0.00252886 0.00355298 0.00479624 0.00622108 0.00775397 0.00928879 0.0106992
          0.0118597 0.0126736 0.0131021 0.0131896 0.0130763 0.0129918 0.0132227 0.0140525 0.0156803 0.0181371 0.0212272 0.0245249
          0.0274453 0.0293797 0.0298573 0.0286785 0.0259695 0.022138 0.0177507 0.0133807 0.00947997 0.00631132 0.00394796 0.00232025
          0.00100779 0.00147369 0.0020705 0.00279505 0.00362547 0.00451905 0.00541426 0.00623817 0.00691926 0.00740423 0.00767613 0.00777014
          0.00778195 0.00786388 0.00820381 0.00898534 0.010333 0.0122552 0.0146034 0.0170712 0.0192431 0.0206898 0.0210814 0.0202811
          0.0183831 0.0156802 0.0125775 0.00948337 0.00671983 0.00447421 0.00279898 0.00164507 0.000564261 0.000825119 0.00115928 0.00156497
          0.00202998 0.00253047 0.00303217 0.00349468 0.00387889 0.00415678 0.00432224 0.00440053 0.00445356 0.00457763 0.00489041 0.00550566
          0.00649819 0.00786676 0.00950798 0.0112153 0.0127116 0.013712 0.0139988 0.0134832 0.0122301 0.0104365 0.00837367 0.00631484
          0.00447516 0.00297989 0.00186426 0.00109573 0.000303541 0.00044387 0.000623633 0.000841882 0.00109207 0.0013614 0.00163155 0.00188101
          0.00208927 0.00224227 0.00233856 0.0023948 0.00244889 0.00255871 0.0027944 0.00322323 0.0038882 0.00478544 0.00584811 0.00694587
          0.00790516 0.00854819 0.00873967 0.00842511 0.00764612 0.00652693 0.00523792 0.0039506 0.00279992 0.0018645 0.0011665 0.000685638
          0.000156886 0.000229415 0.000322328 0.000435135 0.00056446 0.000703714 0.000843472 0.000972745 0.00108118 0.00116203 0.00121548 0.0012517
          0.00129259 0.00137114 0.00152708 0.00179823 0.00220822 0.00275344 0.00339364 0.00405175 0.00462565 0.00501106 0.00512885 0.00494745
          0.00449176 0.00383521 0.00307826 0.00232194 0.00164574 0.00109597 0.000685696 0.000403043 7.79073e-05 0.000113925 0.000160064 0.000216085
          0.000280314 0.000349488 0.00041895 0.0004833 0.000537515 0.000578481 0.000606722 0.000628001 0.000654266 0.000703315 0.000796475 0.000953934
          0.00118809 0.00149637 0.00185621 0.00222482 0.00254579 0.00276163 0.0028288 0.00273004 0.00247931 0.00211729 0.00169959 0.0012821
          0.000908767 0.000605203 0.000378656 0.000222572 3.71707e-05 5.43551e-05 7.63693e-05 0.000103099 0.000133746 0.000166759 0.000199926 0.000230692
          0.000256711 0.000276594 0.00029077 0.000302285 0.000317281 0.000344834 0.000395783 0.000480342 0.000604692 0.000767303 0.000956316 0.00114947
          0.00131749 0.00143058 0.00146621 0.00141551 0.00128577 0.00109817 0.000881593 0.000665071 0.000471425 0.000313957 0.000196436 0.000115465
          0.00211225 0.00308872 0.00433948 0.00585769 0.00759701 0.00946646 0.0113334 0.0130365 0.0144076 0.0152985 0.0156076 0.0152985
          0.0144076 0.0130365 0.0113334 0.00946649 0.00759706 0.00585775 0.00433956 0.00308881 0.00211237 0.00138798 0.000876258 0.000531525
          0.000309787 0.000173483 9.33506e-05 4.82673e-05 2.39816e-05 1.145e-05 5.25348e-06 2.31641e-06 0.00334597 0.00489275 0.00687406 0.00927901
          0.0120342 0.0149956 0.017953 0.0206508 0.0228227 0.024234 0.0247235 0.024234 0.0228227 0.0206509 0.017953 0.0149957
          0.0120344 0.00927922 0.00687433 0.00489309 0.00334636 0.00219889 0.00138829 0.000842203 0.000490933 0.000274988 0.000148017 7.65668e-05
          3.80651e-05 1.81886e-05 8.35379e-06 3.68812e-06 0.00509243 0.00744658 0.0104621 0.0141223 0.0183156 0.0228227 0.0273237 0.0314298
          0.0347353 0.0368832 0.0376283 0.0368832 0.0347353 0.0314299 0.0273239 0.022823 0.0183161 0.0141229 0.0104629 0.00744765
          0.00509367 0.00334733 0.00211366 0.00128251 0.000747829 0.000419075 0.000225721 0.000116868 5.81718e-05 2.7841e-05 1.28135e-05 5.67156e-06
          0.00744658 0.010889 0.0152985 0.0206508 0.0267827 0.0333733 0.0399551 0.0459593 0.0507928 0.0539337 0.0550233 0.0539338
          0.050793 0.0459596 0.0399556 0.0333742 0.026784 0.0206528 0.0153011 0.0108922 0.00745029 0.00489683 0.00309292 0.00187748
          0.00109543 0.000614426 0.00033137 0.000171876 8.57602e-05 4.11754e-05 1.90272e-05 8.46409e-06 0.0104621 0.0152985 0.0214936 0.0290133
          0.0376283 0.0468877 0.0561348 0.0645704 0.0713613 0.0757741 0.0773049 0.0757743 0.0713618 0.0645713 0.0561364 0.0468902
          0.0376321 0.0290187 0.0215008 0.0153074 0.0104725 0.00688549 0.00435127 0.00264346 0.00154422 0.000867679 0.000469127 0.000244171
          0.000122399 5.91219e-05 2.75286e-05 1.23598e-05 0.0141223 0.0206508 0.0290133 0.0391639 0.0507928 0.0632918 0.075774 0.0871609
          0.0963277 0.102284 0.104351 0.102285 0.096329 0.0871633 0.0757782 0.0632985 0.0508029 0.0391781 0.0290322 0.0206743
          0.0141497 0.00930912 0.00588876 0.00358298 0.00209784 0.00118268 0.000642443 0.000336532 0.00017014 8.30825e-05 3.921e-05 1.78892e-05
          0.0183156 0.0267827 0.0376283 0.0507928 0.0658748 0.082085 0.0982736 0.113042 0.12493 0.132656 0.135336 0.132657
          0.124934 0.113048 0.098284 0.0821016 0.0658997 0.050828 0.0376749 0.0268407 0.0183835 0.0121088 0.0076739 0.00468235
          0.00275305 0.00156148 0.000855402 0.000453215 0.000232541 0.000115667 5.58058e-05 2.61128e-05 0.0228227 0.0333733 0.0468877 0.0632918
          0.082085 0.102284 0.122456 0.140859 0.155673 0.1653 0.16864 0.165303 0.15568 0.140873 0.122481 0.102323
          0.082143 0.0633736 0.0469961 0.0335082 0.0229805 0.0151688 0.00964524 0.00591497 0.00350373 0.00200835 0.00111622 0.000602724
          0.000316698 0.000162072 8.07661e-05 3.91391e-05 0.0273237 0.0399551 0.0561348 0.075774 0.0982736 0.122456 0.146607 0.168638
          0.186375 0.197901 0.201901 0.197908 0.186391 0.168669 0.14666 0.122541 0.0984004 0.0759528 0.0563716 0.0402498
          0.0276683 0.0183314 0.0117239 0.00725253 0.00435044 0.00253761 0.00144337 0.000802374 0.00043644 0.000232195 0.000120574 6.0896e-05
          0.0314298 0.0459593 0.0645703 0.0871609 0.113042 0.140859 0.168638 0.193981 0.214383 0.227642 0.232245 0.227656
          0.214416 0.194044 0.168747 0.141032 0.113302 0.0875277 0.0650563 0.046564 0.0321368 0.0214274 0.0138377 0.00868361
          0.00531488 0.00318469 0.0018738 0.00108413 0.00061632 0.000343224 0.000186338 9.8056e-05 0.0347353 0.0507928 0.0713613 0.0963277
          0.12493 0.155673 0.186374 0.214382 0.236931 0.251586 0.256678 0.251614 0.236996 0.214504 0.186583 0.156007
          0.125432 0.0970347 0.072298 0.0519586 0.0360982 0.0243195 0.015952 0.0102355 0.00645533 0.00401699 0.00247051 0.00149981
          0.00089505 0.000521817 0.000295107 0.00016079 0.0368832 0.0539337 0.075774 0.102284 0.132656 0.165299 0.1979 0.22764
          0.251585 0.26715 0.272563 0.267199 0.251701 0.22786 0.198277 0.165904 0.133563 0.103565 0.0774702 0.0560446
          0.0393511 0.0269444 0.018095 0.0119895 0.00787521 0.00513845 0.00332481 0.0021221 0.0013259 0.000804221 0.000469887 0.000262753
          0.0376283 0.0550232 0.0773048 0.104351 0.135335 0.168639 0.201898 0.23224 0.256671 0.272556 0.27809 0.27264
          0.25687 0.232615 0.20254 0.169667 0.13688 0.106528 0.08019 0.058614 0.0418263 0.0293341 0.0203645 0.0140771
          0.00971458 0.00667947 0.00454681 0.00303668 0.00197082 0.00123224 0.000737058 0.000419542 0.0368832 0.0539337 0.075774 0.102284
          0.132656 0.1653 0.197901 0.227644 0.251595 0.267174 0.272616 0.267309 0.251913 0.228242 0.198927 0.166943
          0.135123 0.105764 0.0803846 0.0596717 0.0435916 0.0316017 0.0229001 0.0166468 0.0121157 0.00876556 0.00623927 0.00432205
          0.0028859 0.00184341 0.00112019 0.000645047 0.0347353 0.0507928 0.0713613 0.0963278 0.124931 0.155674 0.186378 0.214391
          0.236953 0.251637 0.256788 0.251839 0.237429 0.215289 0.187918 0.158141 0.128635 0.101552 0.0782826 0.0594066
          0.0448058 0.033883 0.025819 0.0197989 0.0151629 0.011465 0.00845517 0.00601727 0.0040984 0.00265571 0.00163046 0.000945806
          0.0314298 0.0459593 0.0645704 0.0871611 0.113042 0.14086 0.168644 0.193994 0.214416 0.22772 0.232415 0.228005
          0.215088 0.19526 0.170816 0.144339 0.118266 0.0945286 0.074331 0.0581066 0.0456315 0.0362483 0.0291292 0.0235046
          0.0188095 0.0147273 0.0111485 0.00808506 0.00558072 0.00365023 0.00225581 0.00131463 0.0273237 0.0399551 0.0561348 0.0757743
          0.0982744 0.122459 0.146614 0.168657 0.186421 0.198007 0.202133 0.198385 0.187311 0.170334 0.149492 0.127067
          0.105195 0.0855347 0.0690656 0.0560477 0.0461379 0.0386163 0.0326527 0.0275374 0.02282 0.0183355 0.0141373 0.0103843
          0.00723103 0.00475837 0.00295298 0.00172598 0.0228227 0.0333733 0.0468878 0.0632921 0.0820861 0.102287 0.122465 0.140882
          0.155731 0.165434 0.168933 0.165904 0.156838 0.142969 0.126047 0.108022 0.0906988 0.0754391 0.0629803 0.0534009
          0.0462373 0.0407115 0.0359987 0.0314577 0.0267606 0.021901 0.0171004 0.0126682 0.00887243 0.00586142 0.00364732 0.00213581
          0.0183156 0.0267827 0.0376284 0.0507932 0.065876 0.0820887 0.098284 0.113069 0.124998 0.132813 0.13568 0.133363
          0.126293 0.115509 0.102472 0.0887934 0.0759453 0.0649945 0.0564425 0.0501973 0.0456901 0.0420992 0.0386164 0.0346728
          0.0300597 0.0249181 0.019623 0.0146197 0.0102781 0.00680745 0.00424341 0.00248788 0.0141223 0.0206509 0.0290135 0.0391643
          0.0507942 0.0632958 0.0757854 0.087191 0.0964022 0.102457 0.104729 0.103061 0.0978245 0.0898713 0.0803846 0.0706595
          0.0618531 0.0547614 0.0496767 0.0463668 0.0441873 0.042299 0.0399258 0.0365728 0.0321354 0.0268752 0.021287 0.0159198
          0.0112203 0.00744411 0.00464562 0.00272586 0.0104621 0.0152985 0.0214937 0.0290138 0.0376297 0.0468919 0.0561466 0.0646014
          0.0714382 0.0759528 0.0776952 0.0765752 0.0729056 0.0673668 0.0608917 0.0544893 0.0490396 0.045106 0.0428129 0.0418308
          0.0414814 0.0409422 0.039489 0.0367001 0.0325532 0.027391 0.0217813 0.0163314 0.01153 0.00765819 0.00478291 0.0028079
          0.00744659 0.0108891 0.0152986 0.0206513 0.026784 0.0333773 0.0399665 0.0459894 0.0508674 0.054107 0.0554017 0.0547102
          0.0522897 0.0486697 0.0445657 0.040741 0.037843 0.0362483 0.0359619 0.036605 0.0375116 0.0379127 0.0371568 0.0348933
          0.0311567 0.0263272 0.0209922 0.0157675 0.0111447 0.00740801 0.00462908 0.00271857 0.00509244 0.00744662 0.0104622 0.0141227
          0.0183169 0.0228264 0.0273341 0.0314572 0.0348031 0.0370409 0.0379729 0.0375902 0.0360982 0.0338976 0.0315217 0.0295311
          0.0283862 0.028324 0.0292763 0.0308612 0.0324669 0.033411 0.0331316 0.0313461 0.0281211 0.0238327 0.0190391 0.0143179
          0.0101282 0.00673594 0.00421064 0.00247345 0.00334597 0.00489278 0.00687416 0.00927935 0.0120353 0.0149988 0.0179619 0.0206743
          0.0228807 0.0243689 0.0250183 0.0248387 0.0239884 0.0227617 0.0215437 0.0207336 0.020648 0.0214264 0.0229667 0.0249204
          0.0267606 0.0279144 0.0279201 0.0265577 0.0239052 0.0203023 0.0162404 0.0122237 0.00865169 0.0057561 0.00359905 0.00211455
          0.00211226 0.00308874 0.00433956 0.00585796 0.00759787 0.00946901 0.0113406 0.0130554 0.0144542 0.0154069 0.0158444 0.0157845
          0.0153443 0.0147327 0.0142187 0.0140771 0.0145184 0.0156184 0.0172703 0.0191814 0.0209264 0.0220512 0.0221954 0.0211948
          0.0191239 0.016266 0.0130241 0.00980888 0.0069453 0.00462204 0.00289049 0.00169846 0.00128115 0.00187342 0.00263209 0.00355307
          0.00460847 0.00574362 0.00687946 0.00792128 0.00877385 0.00936086 0.00964524 0.00964583 0.00944571 0.00918738 0.00905196 0.00922198
          0.00983234 0.0109206 0.0123927 0.0140208 0.0154828 0.0164393 0.016624 0.0159198 0.0143895 0.0122525 0.00981725 0.00739698
          0.00523903 0.0034872 0.00218108 0.00128172 0.000746589 0.00109173 0.00153385 0.00207057 0.00268566 0.00334733 0.00400968 0.00461791
          0.00511739 0.00546537 0.00564333 0.00566744 0.00559381 0.00551571 0.00555021 0.00581385 0.00638994 0.00729494 0.00845517 0.00970549
          0.0108171 0.0115508 0.0117211 0.0112481 0.01018 0.00867505 0.00695432 0.00524155 0.0037132 0.00247192 0.00154621 0.000908699
          0.000418014 0.000611261 0.000858806 0.00115933 0.00150374 0.00187431 0.00224542 0.00258663 0.00286787 0.00306622 0.00317316 0.00320083
          0.00318524 0.00318469 0.00327164 0.00351737 0.00397132 0.00463951 0.0054694 0.00634926 0.00712642 0.0076424 0.00777501 0.00747291
          0.00676969 0.00577232 0.00462908 0.00348982 0.00247262 0.00164623 0.0010298 0.000605238 0.000224869 0.000328825 0.000461993 0.000623661
          0.000808957 0.00100835 0.00120813 0.00139205 0.00154422 0.00165285 0.0017144 0.00173709 0.00174282 0.00176631 0.00185032 0.00203655
          0.00235313 0.0028015 0.00334723 0.00391957 0.00442288 0.00475837 0.00485025 0.00466719 0.00423098 0.00360921 0.00289518 0.00218303
          0.00154691 0.00102998 0.000644344 0.000378708 0.000116224 0.000169954 0.000238783 0.000322344 0.000418124 0.00052121 0.000624539 0.000719783
          0.000798869 0.000855996 0.000889844 0.000905517 0.000915621 0.000939798 0.00100206 0.00112566 0.0013259 0.00160263 0.00193492 0.00228085
          0.00258411 0.00278681 0.00284469 0.00273968 0.00248492 0.00212043 0.00170128 0.00128297 0.000909202 0.00060541 0.000378751 0.000222614
          5.7715e-05 8.43968e-05 0.000118577 0.000160073 0.000207641 0.000258844 0.000310189 0.000357571 0.000397047 0.000425867 0.000443613 0.000453215
          0.000461524 0.000479075 0.000518678 0.000592651 0.00070896 0.000867115 0.00105527 0.00125014 0.00142061 0.00153477 0.0015683 0.00151137
          0.00137136 0.00117048 0.000939252 0.000708378 0.000502035 0.000334304 0.00020915 0.000122932 2.75367e-05 4.0267e-05 5.65748e-05 7.6374e-05
          9.90708e-05 0.000123506 0.000148017 0.000170659 0.000189578 0.000203514 0.000212369 0.000217702 0.000223027 0.000233695 0.00025618 0.000296683
          0.000359152 0.000443182 0.000542527 0.000645047 0.000734597 0.000794647 0.000812627 0.000783482 0.000711098 0.000607042 0.000487171 0.000367447
          0.000260425 0.000173422 0.0001085 6.37735e-05 0.00150344 0.00219846 0.00308872 0.00416933 0.00540733 0.00673795 0.00806679 0.00927901
          0.0102549 0.010889 0.011109 0.010889 0.0102549 0.00927902 0.0080668 0.00673796 0.00540735 0.00416936 0.00308876 0.00219851
          0.0015035 0.000987896 0.000623669 0.000378299 0.000220475 0.000123461 6.64288e-05 3.43436e-05 1.70612e-05 8.14429e-06 3.73585e-06 1.64674e-06
          0.00238156 0.00348252 0.00489275 0.00660453 0.00856561 0.0106734 0.0127784 0.0146986 0.0162445 0.017249 0.0175975 0.017249
          0.0162445 0.0146987 0.0127784 0.0106735 0.00856568 0.00660463 0.00489289 0.00348269 0.00238176 0.00156502 0.00098806 0.000599372
          0.000349356 0.000195664 0.000105302 5.44588e-05 2.70658e-05 1.29276e-05 5.93441e-06 2.61829e-06 0.00362464 0.00530026 0.00744658 0.0100518
          0.0130365 0.0162445 0.0194482 0.0223708 0.0247235 0.0262523 0.0267827 0.0262524 0.0247236 0.0223708 0.0194483 0.0162447
          0.0130368 0.0100522 0.00744703 0.00530081 0.00362529 0.00238227 0.00150417 0.00091259 0.000532042 0.00029808 0.000160497 8.30586e-05
          4.13167e-05 1.97576e-05 9.08346e-06 4.01522e-06 0.00530026 0.00775048 0.010889 0.0146986 0.0190631 0.0237541 0.0284388 0.0327124
          0.0361528 0.0383884 0.0391639 0.0383884 0.0361529 0.0327126 0.0284391 0.0237546 0.0190638 0.0146996 0.0108903 0.00775213
          0.00530218 0.00348463 0.00220064 0.00133555 0.000778979 0.000436718 0.000235367 0.000121965 6.07781e-05 2.91319e-05 1.34332e-05 5.95994e-06
          0.00744658 0.010889 0.0152985 0.0206508 0.0267827 0.0333733 0.0399551 0.0459593 0.0507928 0.0539337 0.0550233 0.0539338
          0.0507931 0.0459597 0.0399559 0.0333746 0.0267847 0.0206536 0.0153022 0.0108936 0.00745198 0.00489868 0.00309483 0.00187933
          0.00109712 0.00061587 0.00033253 0.000172752 8.63812e-05 4.15891e-05 1.92861e-05 8.61628e-06 0.0100518 0.0146986 0.0206508 0.0278757
          0.0361528 0.0450492 0.0539337 0.0620385 0.0685632 0.0728029 0.0742738 0.0728032 0.0685639 0.0620398 0.0539359 0.0450527
          0.0361581 0.0278831 0.0206606 0.0147108 0.0100661 0.00662015 0.00418545 0.00254445 0.00148789 0.000837271 0.000453636 0.000236789
          0.000119154 5.78391e-05 2.70972e-05 1.22561e-05 0.0130365 0.0190631 0.0267827 0.0361528 0.0468877 0.0584257 0.0699482 0.0804596
          0.0889217 0.0944204 0.0963281 0.0944211 0.0889234 0.0804628 0.0699536 0.0584343 0.0469006 0.0361711 0.0268069 0.0190932
          0.0130717 0.00860427 0.00544722 0.00331837 0.00194645 0.00110021 0.00059985 0.000315791 0.000160699 7.91195e-05 3.77128e-05 1.74059e-05
          0.0162445 0.0237541 0.0333733 0.0450492 0.0584257 0.0728029 0.0871609 0.100259 0.110803 0.117655 0.120033 0.117657
          0.110807 0.100266 0.0871734 0.0728229 0.0584558 0.0450917 0.0334295 0.0238241 0.0163264 0.0107633 0.00683069 0.00417666
          0.00246341 0.00140344 0.000773565 0.000413206 0.000214216 0.000107897 5.2818e-05 2.51133e-05 0.0194482 0.0284388 0.0399551 0.0539337
          0.0699482 0.0871609 0.104351 0.120032 0.132656 0.140859 0.143706 0.140863 0.132664 0.120048 0.104378 0.0872047
          0.070014 0.0540264 0.0400779 0.0285917 0.019627 0.0129747 0.00826936 0.0050891 0.00303002 0.00174932 0.000981647 0.000536607
          0.000286182 0.000148973 7.5623e-05 3.73489e-05 0.0223708 0.0327124 0.0459593 0.0620385 0.0804596 0.100259 0.120032 0.13807
          0.152591 0.162028 0.165304 0.162035 0.152608 0.138102 0.120088 0.100349 0.0805946 0.0622288 0.0462114 0.0330262
          0.0227376 0.0151015 0.00969467 0.00603088 0.00364653 0.00215006 0.00123994 0.000700864 0.000388482 0.000210859 0.000111705 5.74923e-05
          0.0247235 0.0361528 0.0507928 0.0685632 0.0889216 0.110803 0.132656 0.152591 0.16864 0.17907 0.182692 0.179084
          0.168673 0.152654 0.132764 0.110976 0.0891817 0.06893 0.0512788 0.0367576 0.0254306 0.0170211 0.0110561 0.00699646
          0.0043317 0.00263421 0.00157768 0.000931076 0.000540315 0.000306961 0.000169715 9.07347e-05 0.0262523 0.0383884 0.0539337 0.0728029
          0.0944203 0.117655 0.140859 0.162027 0.179069 0.190146 0.193996 0.190172 0.17913 0.162141 0.141055 0.117969
          0.0948912 0.0734671 0.0548136 0.0394835 0.0275327 0.0186552 0.0123398 0.00801069 0.0051291 0.00325004 0.00203918 0.00126337
          0.000768533 0.000455712 0.000261417 0.000144085 0.0267827 0.0391639 0.0550232 0.0742736 0.0963277 0.120032 0.143705 0.165301
          0.182689 0.193993 0.197926 0.194036 0.182792 0.165495 0.144038 0.120565 0.0971288 0.0754035 0.0565201 0.0410268
          0.0289606 0.0199894 0.0135769 0.0091299 0.00610443 0.00406131 0.0026795 0.00174113 0.00110474 0.00067854 0.00040038 0.000225583
          0.0262523 0.0383884 0.0539337 0.0728029 0.0944204 0.117655 0.14086 0.162029 0.179075 0.190159 0.194024 0.190229
          0.179239 0.16234 0.141392 0.118508 0.0957005 0.0746084 0.0563256 0.0413652 0.0297326 0.0210714 0.0148327 0.0104269
          0.00732905 0.00513176 0.00355119 0.00240469 0.00157785 0.000994833 0.000598791 0.000342417 0.0247235 0.0361528 0.0507929 0.0685632
          0.0889219 0.110804 0.132657 0.152595 0.168651 0.179096 0.182749 0.179201 0.168898 0.153061 0.133457 0.112083
          0.0908436 0.0712736 0.0543836 0.0406216 0.029948 0.0219825 0.016175 0.0119579 0.00884915 0.00649819 0.00468247 0.0032747
          0.00220219 0.00141401 0.000862489 0.000497995 0.0223708 0.0327124 0.0459593 0.0620386 0.0804599 0.10026 0.120034 0.138077
          0.152608 0.162068 0.165392 0.162216 0.152957 0.138733 0.121162 0.102064 0.08317 0.0658608 0.051023 0.0390144
          0.0297385 0.0227905 0.0176278 0.0137199 0.0106475 0.00813827 0.0060516 0.0043329 0.00296398 0.00192651 0.00118533 0.000688645
          0.0194482 0.0284388 0.0399551 0.0539338 0.0699487 0.0871622 0.104354 0.120041 0.13268 0.140915 0.143827 0.141111
          0.133141 0.120912 0.105847 0.0895528 0.073539 0.0589975 0.0466635 0.0367876 0.0292089 0.0234984 0.0191271 0.0156128
          0.0126119 0.00994516 0.00756719 0.00550763 0.00381117 0.00249712 0.00154506 0.000901184 0.0162445 0.0237541 0.0333733 0.0450494
          0.0584262 0.0728045 0.0871655 0.100271 0.110833 0.117725 0.120185 0.117969 0.111408 0.101354 0.0890237 0.0757797
          0.0628944 0.0513512 0.041722 0.0341443 0.0283919 0.0240147 0.0205027 0.017428 0.0145289 0.0117236 0.00906606 0.00667271
          0.00465287 0.00306468 0.00190312 0.00111285 0.0130365 0.0190631 0.0267827 0.036153 0.0468883 0.0584276 0.0699536 0.0804738
          0.0889568 0.0945021 0.0965064 0.094787 0.0896287 0.0817399 0.0721261 0.0619059 0.0521122 0.0435206 0.0365434 0.0312105
          0.0272382 0.0241631 0.0215 0.0188772 0.0161129 0.0132175 0.0103363 0.00766527 0.00537226 0.00355077 0.00221022 0.00129455
          0.0100518 0.0146987 0.0206509 0.0278759 0.0361535 0.0450513 0.0539396 0.0620541 0.0686018 0.0728928 0.0744699 0.0732057
          0.0693397 0.0634447 0.0563256 0.0488715 0.0418908 0.0359676 0.0313708 0.0280399 0.0256494 0.023735 0.0218436 0.0196593
          0.0170712 0.0141664 0.0111639 0.0083213 0.00585193 0.00387669 0.00241687 0.00141713 0.00744659 0.010889 0.0152986 0.0206511
          0.0267834 0.0333755 0.0399612 0.0459754 0.0508327 0.0540264 0.0552258 0.0543493 0.051594 0.0474101 0.0424229 0.0373169
          0.0327028 0.0289996 0.0263588 0.0246538 0.0235392 0.0225671 0.0213241 0.0195477 0.0171844 0.014376 0.0113891 0.0085187
          0.00600454 0.00398394 0.00248634 0.00145892 0.00530026 0.0077505 0.0108891 0.0146989 0.0190638 0.0237562 0.0284448 0.0327281
          0.0361915 0.0384783 0.0393602 0.0387913 0.0369294 0.0341186 0.0308308 0.0275764 0.0248011 0.0227905 0.021609 0.0210917
          0.0208978 0.020613 0.0198728 0.018464 0.0163746 0.0137763 0.0109541 0.00821285 0.00579808 0.003851 0.00240509 0.00141195
          0.00362465 0.00530027 0.00744664 0.010052 0.0130372 0.0162464 0.0194536 0.022385 0.0247587 0.0263342 0.0269614 0.0266192
          0.0254306 0.0236511 0.0216261 0.0197248 0.018261 0.0174196 0.0172073 0.0174476 0.0178263 0.0179791 0.0175961 0.0165094
          0.0147331 0.0124449 0.00992073 0.00745047 0.00526559 0.00349988 0.00218689 0.00128428 0.00238156 0.00348253 0.00489281 0.0066047
          0.00856616 0.0106751 0.012783 0.0147108 0.0162746 0.017319 0.0177504 0.0175628 0.0168493 0.0157938 0.0146412 0.0136502
          0.0130344 0.0129065 0.0132415 0.0138727 0.0145289 0.0149061 0.0147526 0.0139404 0.0124965 0.0105857 0.00845391 0.00635632
          0.00449575 0.00298972 0.00186876 0.00109772 0.00150344 0.00219847 0.00308876 0.00416947 0.00540777 0.00673927 0.0080705 0.00928879
          0.0102791 0.0109453 0.0112319 0.0111411 0.0107409 0.010159 0.00956364 0.0091299 0.00899808 0.0092331 0.00979712 0.0105472
          0.0112641 0.0117078 0.0116839 0.0110982 0.00998109 0.00847216 0.0067748 0.00509808 0.00360779 0.00240009 0.00150057 0.000881593
          0.000911884 0.00133344 0.00187343 0.00252893 0.00328005 0.00408777 0.00489555 0.00563539 0.00623817 0.00664699 0.00683069 0.00679483
          0.00658673 0.00629223 0.00602263 0.00589232 0.00599015 0.00635116 0.00693717 0.0076354 0.00827963 0.00869103 0.00872698 0.0083213
          0.00750143 0.00637682 0.00510404 0.00384315 0.00272078 0.00181047 0.00113214 0.000665218 0.000531399 0.000777061 0.00109174 0.00147374
          0.00191148 0.00238227 0.00285323 0.00328494 0.00363759 0.00387889 0.00399229 0.00398372 0.00388475 0.00375072 0.00365245 0.00366188
          0.00383324 0.00418411 0.00468247 0.00524582 0.00575591 0.00608716 0.00614056 0.00587169 0.00530242 0.00451238 0.00361422 0.00272257
          0.00192801 0.0012832 0.000802522 0.000471584 0.00029753 0.000435076 0.000611267 0.000825155 0.00107026 0.0013339 0.00159773 0.00183979
          0.00203806 0.00217498 0.00224227 0.00224482 0.0022027 0.00215006 0.00213012 0.00218631 0.00235043 0.00263065 0.00300321 0.00341191
          0.00377781 0.00401783 0.00406708 0.00389719 0.0035239 0.00300126 0.00240509 0.00181233 0.00128369 0.000854487 0.000534455 0.000314081
          0.000160055 0.000234047 0.000328829 0.000443892 0.000575755 0.000717607 0.000859606 0.000990011 0.00109712 0.00117178 0.00121006 0.00121548
          0.00120015 0.00118417 0.00119277 0.00125103 0.00137686 0.00157374 0.00182567 0.0020969 0.00233796 0.00249712 0.00253427 0.00243222
          0.00220137 0.001876 0.00150392 0.00113353 0.000803019 0.000534583 0.000334389 0.000196518 8.27245e-05 0.000120968 0.000169956 0.000229428
          0.000297587 0.000370917 0.000444347 0.000511843 0.000567431 0.000606528 0.00062737 0.000632219 0.000628001 0.000625986 0.000640204 0.0006845
          0.000768533 0.000893632 0.0010499 0.00121608 0.00136305 0.00146051 0.00148511 0.00142697 0.00129245 0.00110191 0.000883605 0.00066611
          0.000471942 0.000314204 0.000196549 0.000115515 4.10798e-05 6.00708e-05 8.43982e-05 0.000113932 0.00014778 0.000184202 0.000220683 0.000254245
          0.000281955 0.000301604 0.00031244 0.000315791 0.000315404 0.000317281 0.000328846 0.000357379 0.000407862 0.00048074 0.000570351 0.000664851
          0.000748141 0.000803546 0.000818244 0.000786889 0.000713084 0.000608153 0.000487769 0.000367756 0.000260579 0.000173495 0.000108533 6.37883e-05
          1.95997e-05 2.86607e-05 4.02677e-05 5.43588e-05 7.05095e-05 8.78892e-05 0.000105302 0.000121333 0.000134597 0.000144069 0.00014944 0.00015143
          0.000151951 0.000154036 0.000161416 0.000177732 0.000205438 0.000244656 0.000292377 0.000342417 0.000386418 0.000415749 0.000423789 0.000407802
          0.000369692 0.000315365 0.000252976 0.00019075 0.000135167 8.99987e-05 5.6302e-05 3.30911e-05 0.00102814 0.00150344 0.00211225 0.00285124
          0.00369786 0.00460782 0.00551656 0.00634556 0.00701293 0.00744658 0.00759701 0.00744658 0.00701293 0.00634556 0.00551657 0.00460783
          0.00369787 0.00285126 0.00211227 0.00150346 0.00102817 0.000675571 0.00042649 0.000258691 0.000150762 8.44202e-05 4.542e-05 2.34802e-05
          1.16631e-05 5.56668e-06 2.553e-06 1.12508e-06 0.00162866 0.00238156 0.00334597 0.00451658 0.00585769 0.00729913 0.00873865 0.0100518
          0.011109 0.0117959 0.0120342 0.0117959 0.011109 0.0100518 0.00873866 0.00729916 0.00585773 0.00451663 0.00334603 0.00238164
          0.00162876 0.00107021 0.000675651 0.000409844 0.000238871 0.000133773 7.19848e-05 3.72216e-05 1.84946e-05 8.83091e-06 4.0522e-06 1.78695e-06
          0.00247875 0.00362464 0.00509243 0.00687406 0.00891518 0.011109 0.0132999 0.0152985 0.0169075 0.017953 0.0183156 0.017953
          0.0169075 0.0152985 0.0132999 0.0111091 0.00891529 0.00687423 0.00509265 0.00362491 0.00247907 0.001629 0.0010285 0.000623946
          0.000363717 0.000203737 0.000109671 5.67348e-05 2.82083e-05 1.34804e-05 6.1924e-06 2.73443e-06 0.00362464 0.00530026 0.00744658 0.0100518
          0.0130365 0.0162445 0.0194482 0.0223708 0.0247235 0.0262523 0.0267827 0.0262524 0.0247236 0.0223709 0.0194484 0.0162447
          0.0130369 0.0100523 0.00744723 0.00530106 0.00362558 0.00238259 0.0015045 0.000912912 0.000532336 0.000298331 0.000160699 8.32108e-05
          4.14247e-05 1.98295e-05 9.12845e-06 4.04167e-06 0.00509243 0.00744658 0.0104621 0.0141223 0.0183156 0.0228227 0.0273237 0.0314298
          0.0347353 0.0368832 0.0376283 0.0368832 0.0347354 0.03143 0.0273241 0.0228233 0.0183166 0.0141237 0.0104639 0.00744883
          0.00509506 0.00334886 0.00211523 0.00128404 0.000749217 0.000420263 0.000226676 0.000117588 5.86825e-05 2.81812e-05 1.30264e-05 5.79671e-06
          0.00687406 0.0100518 0.0141223 0.0190631 0.0247235 0.0308074 0.0368832 0.0424257 0.0468877 0.0497871 0.0507929 0.0497872
          0.046888 0.0424264 0.0368842 0.0308091 0.0247261 0.0190667 0.0141271 0.0100578 0.00688099 0.00452419 0.0028591 0.00173698
          0.00101472 0.000570186 0.000308303 0.000160481 8.04567e-05 3.8869e-05 1.81021e-05 8.12948e-06 0.00891518 0.0130365 0.0183156 0.0247235
          0.0320647 0.0399551 0.0478349 0.0550232 0.0608101 0.0645704 0.065875 0.0645708 0.0608109 0.0550248 0.0478375 0.0399593
          0.032071 0.0247324 0.0183274 0.0130512 0.00893233 0.00587653 0.0037173 0.00226171 0.00132418 0.000746477 0.00040546 0.000212369
          0.000107351 5.24116e-05 2.47295e-05 1.12796e-05 0.011109 0.0162445 0.0228227 0.0308074 0.0399551 0.0497871 0.059606 0.0685632
          0.0757741 0.0804598 0.0820855 0.0804606 0.075776 0.0685668 0.0596121 0.0497968 0.0399697 0.0308281 0.0228501 0.0162786
          0.0111489 0.00734294 0.00465302 0.0028386 0.00166855 0.000946001 0.000517958 0.000274232 0.000140577 6.98454e-05 3.36537e-05 1.57241e-05
          0.0132999 0.0194482 0.0273237 0.0368832 0.0478349 0.059606 0.0713613 0.0820851 0.0907182 0.0963281 0.0982747 0.0963299
          0.0907223 0.0820929 0.0713746 0.0596273 0.0478669 0.0369284 0.0273836 0.0195227 0.013387 0.00883434 0.00561529 0.00344166
          0.00203698 0.00116624 0.000647167 0.00034874 0.000182785 9.32682e-05 4.63285e-05 2.23745e-05 0.0152985 0.0223708 0.0314298 0.0424257
          0.0550232 0.0685632 0.0820851 0.0944204 0.104351 0.110804 0.113044 0.110808 0.104359 0.0944363 0.0821124 0.068607
          0.055089 0.0425185 0.0315526 0.0225237 0.0154773 0.0102482 0.00654814 0.00404512 0.00242164 0.00140869 0.000798408 0.000441899
          0.000239151 0.000126534 6.53369e-05 3.28186e-05 0.0169075 0.0247235 0.0347353 0.0468877 0.0608101 0.0757741 0.0907181 0.104351
          0.115326 0.122458 0.124935 0.122465 0.115342 0.104382 0.0907708 0.0758585 0.0609368 0.0470665 0.0349721 0.0250183
          0.0172521 0.0114875 0.0074034 0.00463202 0.00282335 0.0016826 0.000983422 0.000564647 0.000318388 0.000175871 9.47546e-05 4.95243e-05
          0.017953 0.0262523 0.0368832 0.0497871 0.0645704 0.0804597 0.0963279 0.110804 0.122458 0.130032 0.132663 0.130045
          0.122487 0.110859 0.0964233 0.0806125 0.0647999 0.0501108 0.037312 0.0267861 0.0185769 0.0124812 0.00815364 0.00520189
          0.00325601 0.00200739 0.00122161 0.000733451 0.000433017 0.00024999 0.000140191 7.58531e-05 0.0183156 0.0267827 0.0376283 0.0507928
          0.0658748 0.0820851 0.098274 0.113043 0.124933 0.132662 0.135349 0.132683 0.124983 0.113137 0.0984364 0.0823451
          0.0662652 0.0513435 0.0383578 0.0276906 0.0193771 0.0132 0.00879977 0.00577357 0.00374662 0.00241132 0.00153827 0.000968672
          0.000598055 0.000359152 0.000208175 0.000115686 0.017953 0.0262523 0.0368832 0.0497871 0.0645704 0.0804598 0.0963283 0.110805
          0.122461 0.130038 0.132677 0.130073 0.122541 0.110956 0.0965878 0.0808753 0.0651943 0.050667 0.0380489 0.0277031
          0.0196491 0.0136588 0.00936857 0.00637944 0.00432818 0.00292446 0.0019585 0.00128969 0.000827448 0.000512737 0.000304614 0.000172512
          0.0169075 0.0247235 0.0347353 0.0468877 0.0608102 0.0757743 0.0907189 0.104353 0.115331 0.122471 0.124962 0.122522
          0.115452 0.10458 0.0911084 0.076398 0.0617468 0.0482087 0.0364853 0.0269014 0.0194537 0.0139055 0.00989818 0.00705004
          0.00502498 0.00356575 0.00249658 0.00170684 0.00112832 0.000715403 0.000432386 0.000248007 0.0152985 0.0223708 0.0314298 0.0424258
          0.0550234 0.0685636 0.0820864 0.0944238 0.104359 0.110824 0.113087 0.110896 0.104529 0.0947439 0.0826357 0.0694431
          0.0563442 0.0442886 0.0338976 0.0254421 0.0188893 0.0139955 0.0104144 0.00779245 0.00583362 0.00432711 0.00314342 0.00221201
          0.00149435 0.000962676 0.000588581 0.000340418 0.0132999 0.0194482 0.0273237 0.0368832 0.0478351 0.0596066 0.0713631 0.0820898
          0.0907297 0.0963551 0.0983335 0.0964505 0.0909548 0.0825139 0.0720908 0.0607717 0.0495849 0.0393511 0.0305931 0.0235171
          0.0180569 0.0139632 0.0109069 0.00857048 0.00670683 0.00516058 0.0038567 0.00277142 0.00190073 0.00123766 0.000762473 0.000443374
          0.011109 0.0162445 0.0228227 0.0308075 0.0399553 0.0497879 0.0596082 0.0685691 0.0757887 0.0804937 0.0821595 0.0806125
          0.0760688 0.0690969 0.0605138 0.0512379 0.042133 0.0338787 0.0268915 0.0213083 0.0170291 0.0138011 0.0113162 0.0092968
          0.00754881 0.00597565 0.0045594 0.00332487 0.0023038 0.00151087 0.000935421 0.000545846 0.00891518 0.0130365 0.0183157 0.0247236
          0.032065 0.039956 0.0478375 0.0550302 0.0608272 0.0646102 0.0659619 0.0647491 0.0611547 0.0556472 0.0488963 0.0416512
          0.0346109 0.0283143 0.0230726 0.0189567 0.0158365 0.0134593 0.0115408 0.00984449 0.00822838 0.00665195 0.00515064 0.00379422
          0.00264726 0.00174436 0.00108352 0.000633712 0.00687406 0.0100518 0.0141223 0.0190632 0.0247239 0.0308084 0.0368861 0.0424334
          0.0469065 0.0498309 0.0508885 0.0499834 0.0472662 0.043111 0.0380489 0.0326703 0.02752 0.0230068 0.0193468 0.0165538
          0.0144757 0.0128653 0.011465 0.0100781 0.00860941 0.00706627 0.00552805 0.00410055 0.00287439 0.00190003 0.00118279 0.000692812
          0.00509243 0.00744659 0.0104621 0.0141224 0.018316 0.0228238 0.0273267 0.0314376 0.0347547 0.0369284 0.037727 0.0370857
          0.0351257 0.0321368 0.0285265 0.0247447 0.0212009 0.0181912 0.0158524 0.014155 0.0129354 0.0119597 0.0109995 0.00989491
          0.00858951 0.00712642 0.00561522 0.00418508 0.00294297 0.00194953 0.00121537 0.000712621 0.00362464 0.00530027 0.00744662 0.0100519
          0.0130369 0.0162455 0.0194511 0.0223784 0.0247424 0.0262962 0.0268784 0.0264487 0.025102 0.0230561 0.020614 0.0181074
          0.015833 0.0139955 0.0126711 0.0118023 0.0112263 0.0107303 0.0101172 0.00926063 0.00813302 0.00679954 0.00538457 0.00402639
          0.00283756 0.00188246 0.00117473 0.000689264 0.00247875 0.00362465 0.00509246 0.00687416 0.00891549 0.0111099 0.0133025 0.0153054
          0.0169246 0.0179929 0.0184028 0.0181317 0.0172521 0.0159225 0.0143613 0.0128051 0.0114614 0.0104648 0.0098494 0.00954479
          0.00940011 0.00923028 0.00887107 0.00822522 0.00728476 0.00612362 0.00486643 0.00364732 0.00257432 0.00170955 0.00106757 0.000626685
          0.00162866 0.00238157 0.00334599 0.00451667 0.00585796 0.00729993 0.0087409 0.0100578 0.0111237 0.0118301 0.0121088 0.0119489
          0.0114037 0.0105856 0.00964653 0.00874993 0.00803559 0.00758791 0.00741482 0.00744533 0.00754881 0.00757212 0.00738395 0.00691175
          0.00615892 0.00519746 0.00414077 0.0031085 0.00219636 0.0014596 0.000911921 0.000535496 0.00102815 0.00150344 0.00211227 0.00285131
          0.00369808 0.00460847 0.00551837 0.00635032 0.00702472 0.007474 0.0076569 0.00756945 0.00724976 0.00677441 0.00624607 0.00577357
          0.00544786 0.00531913 0.00538167 0.00557229 0.00578512 0.00590005 0.00581681 0.00548317 0.00490771 0.00415325 0.00331482 0.00249135
          0.00176165 0.00117131 0.000732054 0.000429977 0.000623602 0.000911886 0.00128116 0.00172942 0.00224303 0.00279527 0.00334733 0.00385237
          0.00426246 0.00453728 0.00465302 0.00460933 0.00443233 0.00417249 0.00389663 0.00367474 0.00356383 0.00359222 0.00374903 0.00398322
          0.00421435 0.0043534 0.00432751 0.00410055 0.00368218 0.00312252 0.00249542 0.00187709 0.00132803 0.000883324 0.000552205 0.000324397
          0.000363403 0.000531401 0.000746597 0.00100782 0.00130714 0.001629 0.00195082 0.00224542 0.00248506 0.0026467 0.00271725 0.0026978
          0.00260552 0.00247242 0.00234033 0.00225264 0.00224373 0.00232875 0.00249658 0.0027093 0.00290963 0.00303525 0.00303598 0.0028879
          0.0025995 0.00220773 0.00176604 0.00132926 0.000940822 0.000625944 0.000391377 0.000229946 0.000203469 0.000297531 0.000418019 0.000564282
          0.000731879 0.000912112 0.00109237 0.00125748 0.00139205 0.00148344 0.00152479 0.00151748 0.0014723 0.00140869 0.00135183 0.00132754
          0.00135578 0.00144421 0.00158376 0.00174832 0.00189962 0.00199655 0.00200639 0.00191405 0.00172598 0.0014675 0.00117473 0.000884595
          0.000626285 0.00041676 0.000260618 0.000153135 0.000109455 0.000160055 0.000224872 0.000303554 0.000393717 0.000490686 0.000587689 0.000676602
          0.000749217 0.000798869 0.000822128 0.000820168 0.000799431 0.000771229 0.00075006 0.000750655 0.000784145 0.000854199 0.000954373 0.00106794
          0.00117088 0.00123766 0.00124815 0.00119328 0.00107747 0.000916869 0.000734339 0.000553158 0.000391717 0.000260705 0.000163046 9.58098e-05
          5.6572e-05 8.27248e-05 0.000116226 0.000156894 0.000203497 0.000253622 0.000303776 0.000349778 0.000387421 0.000413331 0.000425867 0.000425852
          0.00041694 0.000405407 0.000399229 0.00040645 0.000433017 0.000480601 0.000545077 0.000616442 0.000680551 0.000722477 0.000730526 0.000699539
          0.000632273 0.000538361 0.000431352 0.000325007 0.00023019 0.000153219 9.58305e-05 5.63152e-05 2.80928e-05 4.108e-05 5.77161e-05 7.79115e-05
          0.000101055 0.00012595 0.000150864 0.000173729 0.000192473 0.000205454 0.000211917 0.000212369 0.000208776 0.00020445 0.000203578 0.000210349
          0.000227808 0.00025668 0.00029455 0.000335826 0.000372687 0.000396921 0.000402129 0.00038553 0.000348713 0.000297053 0.000238076 0.000179414
          0.000127087 8.45983e-05 5.29148e-05 3.10968e-05 1.34035e-05 1.95998e-05 2.75372e-05 3.71729e-05 4.82154e-05 6.00942e-05 7.19848e-05 8.29031e-05
          9.18674e-05 9.81079e-05 0.000101289 0.000101695 0.000100325 9.88409e-05 9.93326e-05 0.00010388 0.000113974 0.000129917 0.000150405 0.000172512
          0.000192176 0.00020515 0.000208136 0.000199716 0.000180738 0.000154013 0.000123461 9.30521e-05 6.59188e-05 4.38827e-05 2.7449e-05 1.61315e-05
          0.000675539 0.00098783 0.00138785 0.0018734 0.00242967 0.00302755 0.00362464 0.00416933 0.00460782 0.00489275 0.00499159 0.00489275
          0.00460782 0.00416933 0.00362464 0.00302756 0.00242967 0.00187341 0.00138786 0.000987841 0.000675552 0.000443875 0.000280217 0.000169966
          9.90521e-05 5.5463e-05 2.98391e-05 1.54246e-05 7.66108e-06 3.65614e-06 1.67655e-06 7.38706e-07 0.0010701 0.0015648 0.00219846 0.00296761
          0.00384878 0.00479587 0.0057417 0.00660453 0.00729913 0.00775048 0.00790705 0.00775049 0.00729913 0.00660453 0.00574171 0.00479588
          0.00384879 0.00296763 0.00219849 0.00156483 0.00107015 0.000703158 0.000443912 0.000269265 0.00015693 8.78782e-05 4.72838e-05 2.44461e-05
          1.21446e-05 5.79749e-06 2.65946e-06 1.17234e-06 0.00162866 0.00238156 0.00334597 0.00451658 0.00585769 0.00729913 0.00873865 0.0100518
          0.011109 0.0117959 0.0120342 0.0117959 0.011109 0.0100518 0.00873867 0.00729917 0.00585774 0.00451666 0.00334606 0.00238168
          0.0016288 0.00107026 0.000675702 0.000409893 0.000238916 0.000133811 7.20157e-05 3.7245e-05 1.85112e-05 8.84194e-06 4.0591e-06 1.79101e-06
          0.00238156 0.00348252 0.00489275 0.00660453 0.00856561 0.0106734 0.0127784 0.0146986 0.0162445 0.017249 0.0175975 0.017249
          0.0162445 0.0146987 0.0127785 0.0106735 0.00856577 0.00660475 0.00489305 0.00348288 0.00238199 0.00156527 0.000988317 0.000599621
          0.000349583 0.000195858 0.000105458 5.45764e-05 2.71492e-05 1.29831e-05 5.96916e-06 2.63872e-06 0.00334597 0.00489275 0.00687406 0.00927901
          0.0120342 0.0149956 0.017953 0.0206508 0.0228227 0.024234 0.0247235 0.024234 0.0228228 0.0206509 0.0179531 0.0149959
          0.0120347 0.00927964 0.00687489 0.00489378 0.00334717 0.00219978 0.00138921 0.000843096 0.000491746 0.000275684 0.000148576 7.69889e-05
          3.83643e-05 1.83879e-05 8.47854e-06 3.76146e-06 0.00451658 0.00660453 0.00927901 0.0125254 0.0162445 0.0202419 0.024234 0.0278757
          0.0308074 0.0327125 0.0333733 0.0327125 0.0308076 0.027876 0.0242345 0.0202427 0.0162457 0.012527 0.0092812 0.00660724
          0.00451975 0.00297109 0.001877 0.00113976 0.000665336 0.000373458 0.000201621 0.000104727 5.23558e-05 2.52004e-05 1.16822e-05 5.21695e-06
          0.00585769 0.00856561 0.0120342 0.0162445 0.021068 0.0262523 0.0314298 0.0361528 0.0399551 0.0424258 0.0432829 0.0424259
          0.0399554 0.0361535 0.031431 0.0262543 0.0210709 0.0162486 0.0120396 0.00857233 0.00586554 0.0038574 0.00243857 0.0014823
          0.000866633 0.000487547 0.000264057 0.000137763 6.92772e-05 3.35993e-05 1.57243e-05 7.10309e-06 0.00729913 0.0106734 0.0149956 0.0202419
          0.0262523 0.0327124 0.0391639 0.0450492 0.0497871 0.0528658 0.0539339 0.0528662 0.049788 0.0450508 0.0391667 0.0327169
          0.0262591 0.0202514 0.0150081 0.010689 0.00731739 0.00481593 0.00304825 0.00185636 0.00108837 0.00061477 0.000334861 0.00017606
          8.94426e-05 4.39443e-05 2.08934e-05 9.61506e-06 0.00873865 0.0127784 0.017953 0.024234 0.0314298 0.0391639 0.0468877 0.0539337
          0.059606 0.063292 0.0645708 0.0632928 0.0596079 0.0539373 0.0468938 0.0391737 0.0314444 0.0242547 0.0179804 0.0128125
          0.00877854 0.00578551 0.00366984 0.00224227 0.00132104 0.000751431 0.00041329 0.000220134 0.000113713 5.70281e-05 2.77782e-05 1.31363e-05
          0.0100518 0.0146986 0.0206508 0.0278757 0.0361528 0.0450492 0.0539337 0.0620386 0.0685634 0.0728033 0.0742746 0.072805
          0.0685672 0.0620459 0.0539462 0.0450693 0.0361829 0.0279182 0.0207071 0.0147687 0.0101337 0.00669442 0.00426208 0.00261872
          0.00155552 0.000895113 0.000500114 0.000271872 0.000144032 7.44114e-05 3.74678e-05 1.83526e-05 0.011109 0.0162445 0.0228227 0.0308074
          0.0399551 0.0497871 0.059606 0.0685633 0.0757744 0.0804605 0.082087 0.0804637 0.0757819 0.0685774 0.0596301 0.0498257
          0.0400131 0.0308893 0.0229311 0.0163795 0.0112668 0.0074724 0.00478659 0.00296806 0.00178642 0.00104683 0.000598973 0.000335385
          0.000183942 9.87324e-05 5.17307e-05 2.6351e-05 0.0117959 0.017249 0.024234 0.0327124 0.0424258 0.0528658 0.0632919 0.0728031
          0.0804603 0.0854366 0.0871644 0.0854423 0.0804738 0.0728286 0.0633356 0.0529357 0.0425308 0.0328606 0.0244303 0.0174934
          0.0120816 0.00806424 0.00521647 0.00328136 0.00201505 0.00121262 0.000717219 0.000417423 0.000238783 0.000133793 7.30494e-05 3.86326e-05
          0.0120342 0.0175975 0.0247235 0.0333733 0.0432828 0.0539338 0.0645705 0.0742741 0.0820862 0.0871637 0.0889277 0.0871734
          0.0821092 0.0743174 0.0646449 0.0540528 0.0434616 0.0336254 0.0250575 0.0180131 0.0125202 0.00844077 0.00554225 0.00356127
          0.00225026 0.00140349 0.00086539 0.000526764 0.000315162 0.000184162 0.000104354 5.69482e-05 0.0117959 0.017249 0.024234 0.0327124
          0.0424258 0.0528658 0.0632921 0.0728036 0.0804615 0.0854394 0.0871706 0.085455 0.0804983 0.0728729 0.0634109 0.053056
          0.0427114 0.0331153 0.0247677 0.0179132 0.0125725 0.00860336 0.00577271 0.00382048 0.00250592 0.00163249 0.00105459 0.000672086
          0.000419367 0.000254087 0.000148328 8.28864e-05 0.011109 0.0162445 0.0228227 0.0308074 0.0399551 0.0497872 0.0596064 0.0685643
          0.0757769 0.0804663 0.0820997 0.0804897 0.075832 0.0686682 0.0597847 0.0500727 0.0403839 0.0314122 0.0236239 0.0172416
          0.0122747 0.00857945 0.00592879 0.00407511 0.0027944 0.001909 0.00129175 0.000858319 0.000554757 0.000345748 0.000206309 0.000117223
          0.0100518 0.0146986 0.0206508 0.0278757 0.0361529 0.0450494 0.0539343 0.0620402 0.0685672 0.0728123 0.0742943 0.0728453
          0.068645 0.0621867 0.0541858 0.0454521 0.0367576 0.0287286 0.0217807 0.0161048 0.0116958 0.00841007 0.00603219 0.00433437
          0.00311764 0.00223126 0.00157374 0.00108229 0.000718703 0.000457225 0.000277026 0.000159182 0.00873865 0.0127784 0.017953 0.024234
          0.0314299 0.0391642 0.0468885 0.0539359 0.0596113 0.0633043 0.0645978 0.063348 0.0597144 0.05413 0.0472217 0.0396976
          0.032231 0.0253638 0.0194498 0.0146412 0.0109165 0.00813366 0.00609253 0.00459041 0.00345905 0.00258017 0.00188272 0.00132932
          0.000900244 0.00058097 0.000355653 0.000205884 0.00729913 0.0106734 0.0149956 0.020242 0.0262525 0.0327128 0.0391649 0.0450519
          0.0497938 0.0528813 0.0539678 0.0529357 0.049922 0.0452936 0.0395796 0.0333767 0.0272495 0.0216481 0.0168584 0.0129918
          0.0100096 0.00777271 0.00609889 0.00481314 0.00378055 0.00291751 0.00218517 0.00157274 0.00107984 0.000703691 0.000433752 0.000252322
          0.00585769 0.00856561 0.0120342 0.0162446 0.0210681 0.0262528 0.031431 0.036156 0.0399629 0.042444 0.0433227 0.0425076
          0.0401128 0.0364385 0.0319157 0.0270289 0.0222337 0.0178885 0.0142121 0.0112761 0.00902652 0.00732905 0.00602042 0.00495395
          0.00402761 0.00319127 0.00243656 0.00177765 0.00123213 0.000808229 0.000500475 0.000292073 0.00451658 0.00660453 0.00927903 0.0125254
          0.0162447 0.0202424 0.0242353 0.0278792 0.030816 0.0327325 0.0334171 0.0328023 0.0309807 0.0281895 0.0247677 0.0210948
          0.0175248 0.0143309 0.011671 0.00958136 0.00799686 0.00678994 0.00581707 0.00495861 0.00414244 0.00334758 0.0025914 0.00190862
          0.00133151 0.000877301 0.000544913 0.000318687 0.00334597 0.00489276 0.00687408 0.00927907 0.0120344 0.0149961 0.0179543 0.0206544
          0.0228316 0.0242547 0.0247687 0.0243267 0.0230015 0.0209745 0.0185036 0.0158755 0.0133552 0.0111419 0.00934195 0.00796409
          0.00693672 0.00614213 0.0054567 0.00478544 0.00408129 0.00334599 0.00261563 0.00193922 0.00135889 0.000898044 0.000558954 0.000327369
          0.00238156 0.00348252 0.00489277 0.00660458 0.00856577 0.0106739 0.0127797 0.0147021 0.0162531 0.0172691 0.0176413 0.0173389
          0.0164178 0.0150124 0.0133121 0.0115263 0.00984593 0.00841007 0.00728471 0.00645936 0.00586184 0.00538713 0.0049315 0.00442149
          0.00382943 0.00317233 0.00249712 0.0018599 0.00130731 0.000865756 0.000539621 0.000316356 0.00162866 0.00238156 0.00334598 0.00451663
          0.00585783 0.00729956 0.00873985 0.010055 0.0111169 0.0118142 0.0120741 0.0118778 0.0112668 0.0103375 0.0092246 0.00807569
          0.00702344 0.00616055 0.00552387 0.005092 0.00479748 0.00455038 0.00426629 0.00389001 0.0034076 0.00284413 0.00224982 0.00168114
          0.0011842 0.000785361 0.000489993 0.000287457 0.0010701 0.0015648 0.00219847 0.00296764 0.0038489 0.00479624 0.00574273 0.00660724
          0.00730585 0.0077661 0.00794117 0.00782049 0.00743408 0.00684888 0.00615736 0.00546009 0.00484589 0.00437376 0.00406131 0.00388316
          0.00378055 0.00367995 0.00351519 0.00324605 0.00286733 0.0024062 0.00191011 0.00143058 0.00100924 0.000670009 0.000418312 0.000245522
          0.000675539 0.000987832 0.00138786 0.00187343 0.00242977 0.00302785 0.00362547 0.00417151 0.00461322 0.00490531 0.00501901 0.00494901
          0.00471625 0.00436567 0.00395863 0.00356127 0.00323087 0.00300328 0.0028847 0.00285069 0.00285344 0.00283582 0.00274809 0.00256191
          0.00227694 0.00191831 0.00152668 0.0011453 0.000808861 0.000537371 0.000335666 0.000197081 0.000409735 0.000599151 0.00084178 0.0011363
          0.00147374 0.00183653 0.00219908 0.00253047 0.00279886 0.00297708 0.00304825 0.00301007 0.00287663 0.00267703 0.00245057 0.00223918
          0.00207845 0.00198915 0.00197165 0.00200531 0.0020537 0.00207476 0.00203281 0.00190862 0.00170404 0.00143979 0.00114797 0.00086223
          0.000609425 0.000405087 0.000253126 0.000148655 0.000238773 0.000349154 0.000490547 0.000662179 0.000858831 0.00107026 0.00128159 0.00147484
          0.00163155 0.00173609 0.00177898 0.00175948 0.0016867 0.00157876 0.00145992 0.00135578 0.00128763 0.00126694 0.00129175 0.00134627
          0.00140452 0.00143721 0.00142 0.00134039 0.00120075 0.00101672 0.000811749 0.000610231 0.00043156 0.00028697 0.000179365 0.000105356
          0.000133688 0.000195491 0.000274657 0.000370755 0.000480864 0.000599254 0.000717607 0.000825883 0.000913807 0.000972745 0.000997605 0.000988327
          0.000950544 0.000895113 0.0008364 0.000789452 0.000766507 0.000773615 0.000808371 0.000859713 0.000910243 0.000940718 0.000935403 0.000886512
          0.000796154 0.000675196 0.000539621 0.000405922 0.000287194 0.000191026 0.00011942 7.01545e-05 7.1917e-05 0.000105163 0.00014775 0.000199446
          0.000258681 0.000322375 0.000386059 0.000444347 0.000491746 0.000523676 0.000537515 0.000533427 0.000514736 0.000487671 0.000460398 0.000441397
          0.000437432 0.00045155 0.00048174 0.000520823 0.000557872 0.00058097 0.00058049 0.00055181 0.000496499 0.000421563 0.000337168 0.000253752
          0.000179588 0.000119477 7.47019e-05 4.38887e-05 3.71704e-05 5.43539e-05 7.63651e-05 0.000103085 0.000133701 0.000166625 0.000199548 0.000229696
          0.000254245 0.000270862 0.00027825 0.000276594 0.00026776 0.000255165 0.00024325 0.000236594 0.000238783 0.000251289 0.000272708 0.000298707
          0.000322849 0.000338179 0.000339134 0.000323108 0.000291128 0.000247405 0.000197985 0.000149056 0.000105517 7.02095e-05 4.39024e-05 2.57953e-05
          1.84583e-05 2.69914e-05 3.79219e-05 5.11905e-05 6.63948e-05 8.27454e-05 9.90987e-05 0.00011408 0.000126294 0.000134597 0.000138375 0.000137763
          0.000133758 0.000128145 0.000123233 0.000121386 0.000124427 0.000133037 0.000146353 0.000161936 0.000176225 0.000185401 0.000186429 0.000177916
          0.000160473 0.00013646 0.000109246 8.22695e-05 5.82483e-05 3.87622e-05 2.42401e-05 1.42432e-05 8.80671e-06 1.2878e-05 1.80931e-05 2.44238e-05
          3.16782e-05 3.94799e-05 4.72838e-05 5.44356e-05 6.02729e-05 6.42562e-05 6.61034e-05 6.58986e-05 6.4145e-05 6.17324e-05 5.98046e-05 5.95266e-05
          6.17847e-05 6.6885e-05 7.43462e-05 8.28864e-05 9.06549e-05 9.56791e-05 9.63991e-05 9.21083e-05 8.31394e-05 7.07314e-05 5.66423e-05 4.26633e-05
          3.02101e-05 2.01054e-05 1.25737e-05 7.38846e-06 0.000426457 0.000623601 0.000876127 0.00118265 0.00153381 0.00191125 0.00228818 0.00263203
          0.00290884 0.00308872 0.00315111 0.00308872 0.00290884 0.00263203 0.00228818 0.00191125 0.00153381 0.00118265 0.000876131 0.000623606
          0.000426462 0.000280208 0.000176893 0.000107294 6.25273e-05 3.50106e-05 1.88351e-05 9.73587e-06 4.83533e-06 2.3074e-06 1.05796e-06 4.6609e-07
          0.000675539 0.00098783 0.00138785 0.0018734 0.00242967 0.00302755 0.00362464 0.00416933 0.00460782 0.00489275 0.00499159 0.00489275
          0.00460782 0.00416933 0.00362464 0.00302756 0.00242968 0.00187341 0.00138786 0.000987847 0.000675558 0.000443882 0.000280224 0.000169972
          9.90582e-05 5.54683e-05 2.98433e-05 1.54277e-05 7.66332e-06 3.65763e-06 1.67748e-06 7.39255e-07 0.00102814 0.00150344 0.00211225 0.00285124
          0.00369786 0.00460782 0.00551656 0.00634556 0.00701293 0.00744658 0.00759701 0.00744658 0.00701293 0.00634557 0.00551657 0.00460784
          0.00369789 0.00285128 0.0021123 0.00150349 0.00102821 0.000675607 0.000426527 0.000258727 0.000150795 8.44481e-05 4.54425e-05 2.34971e-05
          1.16751e-05 5.57468e-06 2.558e-06 1.12802e-06 0.00150344 0.00219846 0.00308872 0.00416933 0.00540733 0.00673795 0.00806679 0.00927901
          0.0102549 0.010889 0.011109 0.010889 0.0102549 0.00927903 0.00806682 0.00673799 0.0054074 0.00416943 0.00308884 0.00219861
          0.00150362 0.000988033 0.00062381 0.000378436 0.000220599 0.000123568 6.65146e-05 3.44084e-05 1.71071e-05 8.17486e-06 3.75498e-06 1.65799e-06
          0.00211225 0.00308872 0.00433948 0.00585769 0.00759701 0.00946646 0.0113334 0.0130365 0.0144076 0.0152985 0.0156076 0.0152985
          0.0144076 0.0130366 0.0113335 0.00946659 0.0075972 0.00585796 0.00433984 0.00308916 0.00211277 0.00138842 0.000876714 0.000531967
          0.000310189 0.000173827 9.36272e-05 4.84761e-05 2.41296e-05 1.15486e-05 5.3152e-06 2.3527e-06 0.00285124 0.00416933 0.00585769 0.00790705
          0.0102549 0.0127784 0.0152985 0.0175975 0.0194482 0.0206508 0.021068 0.0206509 0.0194483 0.0175976 0.0152987 0.0127787
          0.0102554 0.00790776 0.00585863 0.0041705 0.00285261 0.0018749 0.00118419 0.000718811 0.000419377 0.000235212 0.000126841 6.57812e-05
          3.28165e-05 1.57521e-05 7.27685e-06 3.23582e-06 0.00369786 0.00540733 0.00759701 0.0102549 0.0132999 0.0165727 0.0198411 0.0228227
          0.025223 0.0267827 0.0273238 0.0267828 0.0252231 0.022823 0.0198416 0.0165735 0.0133011 0.0102566 0.00759934 0.00541022
          0.00370124 0.00243338 0.00153764 0.000934014 0.000545511 0.000306429 0.000165609 8.61478e-05 4.31522e-05 2.08234e-05 9.68416e-06 4.3416e-06
          0.00460782 0.00673795 0.00946646 0.0127784 0.0165727 0.0206508 0.0247235 0.0284388 0.0314298 0.0333733 0.0340476 0.0333735
          0.0314302 0.0284395 0.0247247 0.0206528 0.0165756 0.0127825 0.00947186 0.00674467 0.00461568 0.00303618 0.00192015 0.00116786
          0.000683394 0.000384952 0.000208867 0.000109238 5.51119e-05 2.68409e-05 1.26262e-05 5.73858e-06 0.00551656 0.00806679 0.0113334 0.0152985
          0.0198411 0.0247235 0.0295994 0.0340475 0.0376283 0.0399552 0.0407624 0.0399555 0.0376291 0.034049 0.0296021 0.0247277
          0.0198474 0.0153074 0.0113452 0.00808146 0.00553372 0.00364348 0.00230762 0.00140669 0.000825923 0.000467502 0.000255387 0.000134803
          6.8833e-05 3.40342e-05 1.63052e-05 7.56924e-06 0.00634556 0.00927901 0.0130365 0.0175975 0.0228227 0.0284388 0.0340475 0.0391639
          0.0432829 0.0459595 0.0468881 0.0459602 0.0432846 0.0391671 0.0340529 0.0284475 0.0228356 0.0176157 0.0130607 0.00930912
          0.00638076 0.00420799 0.00267192 0.00163507 0.000965506 0.000550986 0.000304396 0.000163086 8.48671e-05 4.29393e-05 2.11275e-05 1.01012e-05
          0.00701293 0.0102549 0.0144076 0.0194482 0.025223 0.0314298 0.0376283 0.0432829 0.0478351 0.0507932 0.0518198 0.0507946
          0.0478383 0.0432889 0.0376387 0.0314464 0.0252479 0.0194834 0.0144542 0.0103129 0.00708078 0.00468235 0.00298573 0.00183883
          0.001096 0.000633695 0.000356307 0.000195256 0.000104443 5.45497e-05 2.77891e-05 1.37734e-05 0.00744658 0.010889 0.0152985 0.0206508
          0.0267827 0.0333733 0.0399551 0.0459594 0.0507931 0.0539344 0.0550248 0.0539369 0.050799 0.0459703 0.0399739 0.0334034
          0.0268279 0.0207146 0.015383 0.0109941 0.00756945 0.0050277 0.00322794 0.00200835 0.00121459 0.000716348 0.000413266 0.000233695
          0.000129596 7.03764e-05 3.73008e-05 1.92065e-05 0.00759701 0.011109 0.0156076 0.021068 0.0273237 0.0340475 0.0407623 0.0468879
          0.0518194 0.0550244 0.0561374 0.0550286 0.0518293 0.0469065 0.0407943 0.0340987 0.0274006 0.0211764 0.0157512 0.0112878
          0.00780602 0.00522114 0.00338795 0.00214079 0.00132278 0.000802374 0.000479111 0.000281816 0.000162989 9.22989e-05 5.08834e-05 2.71364e-05
          0.00744658 0.010889 0.0152985 0.0206508 0.0267827 0.0333733 0.0399552 0.0459596 0.0507937 0.0539356 0.0550274 0.0539423
          0.0508095 0.0459894 0.0400063 0.0334551 0.0269055 0.0208241 0.0155281 0.0111747 0.00778058 0.00525957 0.00346718 0.00224022
          0.00142571 0.000896931 0.000558369 0.000343224 0.000207264 0.000122114 6.96776e-05 3.82399e-05 0.00701293 0.0102549 0.0144076 0.0194482
          0.025223 0.0314298 0.0376284 0.0432833 0.0478361 0.0507957 0.0518252 0.0508058 0.0478599 0.043328 0.0377051 0.0315526
          0.0254074 0.0197083 0.0147522 0.0106838 0.00751431 0.00515848 0.00347698 0.00231496 0.00152953 0.00100451 0.000654265 0.000420167
          0.000263928 0.00016079 9.42726e-05 5.28571e-05 0.00634556 0.00927901 0.0130365 0.0175975 0.0228227 0.0284389 0.0340477 0.0391646
          0.0432846 0.0459633 0.0468966 0.0459775 0.043318 0.0392276 0.0341559 0.0286121 0.0230828 0.0179643 0.0135225 0.0098838
          0.00705262 0.00494588 0.00343323 0.00237296 0.00163736 0.00112566 0.000766157 0.000511641 0.00033203 0.000207585 0.00012416 7.06711e-05
          0.00551656 0.00806679 0.0113334 0.0152985 0.0198411 0.0247237 0.0295998 0.0340484 0.0376306 0.0399605 0.040774 0.0399793
          0.0376749 0.0341319 0.0297431 0.0249531 0.0201857 0.0157845 0.0119772 0.00886799 0.00645327 0.00465341 0.0033496 0.00241662
          0.00174547 0.00125403 0.000887382 0.000611858 0.000407116 0.000259379 0.000157322 9.04689e-05 0.00460782 0.00673795 0.00946647 0.0127784
          0.0165727 0.020651 0.024724 0.02844 0.0314327 0.03338 0.0340621 0.0334034 0.0314878 0.0285439 0.0249023 0.0209365
          0.0170015 0.0133832 0.0102677 0.00773506 0.00577357 0.00430788 0.00323221 0.00243955 0.00184129 0.00137535 0.00100467 0.000709944
          0.000481077 0.000310594 0.000190195 0.000110126 0.00369786 0.00540733 0.00759702 0.0102549 0.0132999 0.0165729 0.0198416 0.0228241
          0.0252264 0.0267905 0.0273409 0.0268179 0.0252908 0.0229456 0.0200501 0.0169067 0.0138013 0.010962 0.00853372 0.00657308
          0.00506076 0.00392652 0.00307817 0.00242715 0.00190503 0.00146929 0.00109999 0.000791456 0.000543291 0.000353988 0.000218173 0.000126906
          0.00285124 0.00416933 0.0058577 0.00790708 0.010255 0.0127786 0.0152991 0.017599 0.0194519 0.0206595 0.0210868 0.0206895
          0.0195227 0.0177324 0.0155281 0.0131452 0.0108056 0.00868361 0.00688646 0.00544965 0.00434809 0.00351737 0.0028788 0.00236128
          0.00191486 0.00151437 0.00115467 0.000841628 0.000582974 0.000382236 0.000236617 0.000138058 0.00211225 0.00308872 0.00433949 0.00585771
          0.00759708 0.00946667 0.011334 0.0130381 0.0144114 0.0153074 0.015627 0.0153384 0.0144845 0.0131758 0.0115702 0.00984492
          0.00816515 0.00665889 0.00540091 0.00440968 0.00365662 0.003084 0.00262612 0.00222755 0.00185403 0.00149435 0.0011547 0.000849412
          0.000592079 0.000389884 0.000242072 0.000141535 0.00150344 0.00219846 0.00308872 0.00416935 0.0054074 0.00673815 0.00806736 0.00928051
          0.0102586 0.0108977 0.0111278 0.0109277 0.0103294 0.00941396 0.00829634 0.00710477 0.00595799 0.00494588 0.00411748 0.00347878
          0.00300029 0.0026318 0.00231975 0.0020222 0.00171726 0.00140373 0.00109516 0.000810867 0.000567699 0.000374948 0.000233276 0.000136586
          0.00102814 0.00150344 0.00211226 0.00285126 0.00369793 0.00460801 0.00551708 0.00634692 0.00701631 0.00745444 0.00761417 0.00748179
          0.00708078 0.00646843 0.00572557 0.00494181 0.00419925 0.0035583 0.00304896 0.00266919 0.00239104 0.00217239 0.00197082 0.00175551
          0.00151363 0.00125014 0.000982104 0.000730526 0.000513034 0.000339552 0.000211555 0.000123991 0.000675539 0.000987831 0.00138785 0.00187342
          0.00242972 0.00302771 0.00362508 0.0041705 0.00461071 0.00489947 0.00500627 0.00492286 0.00466586 0.00427442 0.00380341 0.00331323
          0.00285852 0.00247818 0.00218905 0.00198495 0.00184129 0.00172418 0.00160117 0.00145027 0.00126479 0.00105257 0.000831035 0.000620199
          0.00043651 0.000289331 0.000180448 0.000105833 0.000426457 0.000623602 0.000876131 0.00118266 0.00153385 0.00191137 0.00228853 0.00263297
          0.00291116 0.00309411 0.0031629 0.00311291 0.00295548 0.00271648 0.00243182 0.00214079 0.0018784 0.0016686 0.00151991 0.00142481
          0.00136316 0.00130897 0.00123831 0.00113606 0.000999225 0.000836211 0.000662618 0.000495688 0.000349427 0.000231855 0.000144705 8.4912e-05
          0.000258659 0.000378234 0.000531401 0.000717322 0.000930335 0.00115933 0.00138812 0.00159711 0.00176605 0.00187748 0.00192015 0.00189166
          0.0017995 0.00166015 0.00149628 0.0013325 0.00119042 0.00108413 0.00101735 0.000983014 0.00096572 0.000946506 0.000908492 0.000841628
          0.000744982 0.000626013 0.000497377 0.000372722 0.000263045 0.000174671 0.000109072 6.40259e-05 0.000150733 0.000220415 0.000309673 0.000418019
          0.000542155 0.000675607 0.000808957 0.000930805 0.00102939 0.00109461 0.00112009 0.00110467 0.00105311 0.000975504 0.000885656 0.000798408
          0.00072658 0.000678125 0.000654265 0.000649269 0.000652114 0.000649698 0.000630661 0.000588581 0.00052348 0.000441227 0.00035125 0.000263553
          0.000186156 0.000123684 7.7263e-05 4.53655e-05 8.43953e-05 0.00012341 0.000173386 0.000234049 0.000303554 0.000378278 0.000452954 0.00052121
          0.000576484 0.000613178 0.000627805 0.00061988 0.000592285 0.000550986 0.000504047 0.000460081 0.000426408 0.000407317 0.000402933 0.000409088
          0.000418387 0.00042227 0.000413468 0.00038805 0.000346365 0.000292606 0.000233276 0.000175199 0.000123825 8.23046e-05 5.14285e-05 3.02024e-05
          4.54e-05 6.63879e-05 9.3272e-05 0.000125906 0.000163297 0.000203497 0.000243675 0.000280411 0.000310189 0.000330025 0.000338094 0.000334219
          0.000320077 0.000299044 0.000275648 0.000254688 0.000240177 0.000234334 0.000236919 0.000245161 0.000254407 0.000259379 0.000255667 0.000240971
          0.000215663 0.0001825 0.000145653 0.000109467 7.74039e-05 5.14648e-05 3.21648e-05 1.88921e-05 2.34651e-05 3.43127e-05 4.82078e-05 6.50748e-05
          8.44008e-05 0.00010518 0.00012595 0.000144946 0.000160358 0.000170659 0.000174931 0.000173125 0.000166171 0.0001559 0.000144745 0.000135273
          0.000129596 0.000128817 0.000132654 0.000139408 0.000146334 0.000150363 0.000148961 0.000140848 0.000126309 0.000107021 8.54825e-05 6.4279e-05
          4.54668e-05 3.02372e-05 1.89007e-05 1.11026e-05 1.16524e-05 1.70392e-05 2.39393e-05 3.23153e-05 4.19125e-05 5.22315e-05 6.25473e-05 7.19848e-05
          7.96486e-05 8.47863e-05 8.69543e-05 8.61478e-05 8.28587e-05 7.80341e-05 7.29273e-05 6.88508e-05 6.68717e-05 6.75168e-05 7.05748e-05 7.50782e-05
          7.9507e-05 8.21798e-05 8.17225e-05 7.74552e-05 6.95629e-05 5.89956e-05 4.71503e-05 3.54684e-05 2.50944e-05 1.66915e-05 1.04347e-05 6.13e-06
          5.55952e-06 8.12963e-06 1.14218e-05 1.54181e-05 1.99972e-05 2.49208e-05 2.98433e-05 3.43478e-05 3.80085e-05 4.0469e-05 4.15227e-05 4.11754e-05
          3.96738e-05 3.74861e-05 3.52284e-05 3.35428e-05 3.29458e-05 3.36804e-05 3.56159e-05 3.82399e-05 4.0762e-05 4.23152e-05 4.21956e-05 4.0061e-05
          3.60176e-05 3.05666e-05 2.44398e-05 1.83897e-05 1.30133e-05 8.6568e-06 5.41226e-06 3.17967e-06 0.000258659 0.000378233 0.000531398 0.000717312
          0.000930303 0.00115923 0.00138785 0.00159641 0.0017643 0.0018734 0.00191125 0.0018734 0.0017643 0.00159641 0.00138785 0.00115923
          0.000930304 0.000717313 0.000531399 0.000378235 0.000258661 0.000169954 0.00010729 6.50756e-05 3.79235e-05 2.1234e-05 1.14232e-05 5.9045e-06
          2.93234e-06 1.39922e-06 6.41508e-07 2.82593e-07 0.000409735 0.000599149 0.000841773 0.00113627 0.00147367 0.0018363 0.00219846 0.00252883
          0.00279479 0.00296761 0.00302755 0.00296761 0.00279479 0.00252883 0.00219846 0.00183631 0.00147367 0.00113628 0.000841779 0.000599156
          0.000409743 0.000269224 0.00016996 0.000103089 6.00779e-05 3.36398e-05 1.80981e-05 9.35534e-06 4.64659e-06 2.2175e-06 1.01684e-06 4.48025e-07
          0.000623601 0.000911882 0.00128115 0.00172937 0.00224287 0.00279479 0.00334597 0.00384878 0.00425356 0.00451658 0.00460782 0.00451658
          0.00425356 0.00384878 0.00334597 0.00279479 0.00224288 0.00172938 0.00128116 0.000911903 0.000623626 0.000409762 0.000258687 0.000156912
          9.14492e-05 5.12097e-05 2.75536e-05 1.42452e-05 7.07672e-06 3.37814e-06 1.54959e-06 6.83052e-07 0.000911882 0.00133343 0.0018734 0.00252883
          0.00327971 0.00408677 0.00489275 0.00562801 0.00621991 0.00660453 0.00673795 0.00660453 0.00621991 0.00562801 0.00489277 0.00408679
          0.00327974 0.00252887 0.00187345 0.00133349 0.000911957 0.000599231 0.000378318 0.000229492 0.000133763 7.49157e-05 4.03174e-05 2.08503e-05
          1.03622e-05 4.94914e-06 2.27178e-06 1.00225e-06 0.00128115 0.0018734 0.00263203 0.00355287 0.00460782 0.0057417 0.00687406 0.00790705
          0.00873865 0.00927902 0.00946647 0.00927902 0.00873866 0.00790707 0.00687409 0.00574175 0.0046079 0.00355298 0.00263217 0.00187358
          0.00128136 0.000842003 0.000531635 0.000322539 0.000188034 0.000105342 5.67157e-05 2.93478e-05 1.45968e-05 6.97888e-06 3.20774e-06 1.41753e-06
          0.00172937 0.00252883 0.00355287 0.00479587 0.00621991 0.00775048 0.00927901 0.0106734 0.0117959 0.0125254 0.0127784 0.0125254
          0.011796 0.0106735 0.0092791 0.00775062 0.00622011 0.00479616 0.00355325 0.0025293 0.00172992 0.00113688 0.000717937 0.000435677
          0.000254089 0.000142427 7.6743e-05 3.97549e-05 1.98025e-05 9.4864e-06 4.37125e-06 1.9377e-06 0.00224287 0.00327971 0.00460782 0.00621991
          0.00806679 0.0100518 0.0120342 0.0138427 0.0152985 0.0162445 0.0165727 0.0162445 0.0152986 0.0138428 0.0120344 0.0100522
          0.00806729 0.00622062 0.00460876 0.00328088 0.00224423 0.00147517 0.00093185 0.000565757 0.000330185 0.000185273 9.99768e-05 5.18964e-05
          2.59215e-05 1.24624e-05 5.76883e-06 2.57164e-06 0.00279479 0.00408677 0.0057417 0.00775048 0.0100518 0.0125254 0.0149956 0.017249
          0.0190631 0.0202419 0.0206509 0.020242 0.0190633 0.0172493 0.0149961 0.0125261 0.010053 0.00775213 0.00574388 0.00408949
          0.00279796 0.00183979 0.00116283 0.000706594 0.000412909 0.000232124 0.000125591 6.5431e-05 3.2842e-05 1.589e-05 7.41427e-06 3.33723e-06
          0.00334597 0.00489275 0.00687406 0.00927901 0.0120342 0.0149956 0.017953 0.0206508 0.0228227 0.024234 0.0247236 0.0242341
          0.022823 0.0206515 0.017954 0.0149973 0.0120368 0.00928261 0.00687883 0.00489868 0.0033529 0.00220607 0.0013957 0.000849386
          0.000497474 0.000280583 0.000152513 7.99601e-05 4.04713e-05 1.97914e-05 9.35684e-06 4.27778e-06 0.00384878 0.00562801 0.00790705 0.0106734
          0.0138427 0.017249 0.0206508 0.0237541 0.0262524 0.0278758 0.028439 0.0278761 0.0262531 0.0237554 0.020653 0.0172525
          0.0138479 0.0106808 0.00791683 0.00564017 0.003863 0.00254445 0.00161252 0.000983891 0.000578481 0.000328092 0.000179726 9.52183e-05
          4.88522e-05 2.42971e-05 1.17213e-05 5.48404e-06 0.00425356 0.00621991 0.00873865 0.0117959 0.0152985 0.0190631 0.0228227 0.0262524
          0.0290134 0.0308076 0.0314301 0.0308081 0.0290147 0.0262548 0.0228269 0.0190698 0.0153086 0.0118102 0.00875749 0.00624336
          0.00428097 0.0028249 0.00179537 0.00110021 0.000651017 0.000372603 0.000206668 0.000111301 5.8293e-05 2.97189e-05 1.47478e-05 7.1153e-06
          0.00451658 0.00660453 0.00927901 0.0125254 0.0162445 0.0202419 0.024234 0.0278757 0.0308075 0.0327127 0.0333739 0.0327137
          0.0308099 0.0278802 0.0242416 0.0202541 0.0162628 0.0125511 0.00931313 0.00664699 0.00456622 0.00302213 0.00192965 0.0011908
          0.000711806 0.000413206 0.000233559 0.000128835 6.94511e-05 3.65883e-05 1.88086e-05 9.40634e-06 0.00460782 0.00673795 0.00946646 0.0127784
          0.0165727 0.0206508 0.0247236 0.0284389 0.03143 0.0333738 0.0340485 0.0333755 0.031434 0.0284464 0.0247365 0.0206715
          0.0166037 0.0128222 0.0095245 0.00681018 0.00469227 0.0031203 0.00200694 0.00125198 0.000759985 0.000450464 0.000261507 0.000148973
          8.32884e-05 4.56105e-05 2.43719e-05 1.26435e-05 0.00451658 0.00660453 0.00927901 0.0125254 0.0162445 0.0202419 0.024234 0.0278758
          0.0308077 0.0327132 0.033375 0.0327159 0.0308141 0.0278879 0.0242547 0.020275 0.0162942 0.0125954 0.00937176 0.00671995
          0.00465153 0.00311581 0.00202631 0.00128448 0.000797107 0.000486168 0.000292186 0.000173089 0.000100832 5.74923e-05 3.189e-05 1.70965e-05
          0.00425356 0.00621991 0.00873865 0.0117959 0.0152985 0.0190631 0.0228228 0.0262525 0.0290138 0.0308086 0.0314323 0.0308126
          0.0290234 0.0262706 0.0228538 0.0191128 0.015373 0.011901 0.00887787 0.00639318 0.00445613 0.00301727 0.00199385 0.00129259
          0.000826177 0.000522426 0.000327054 0.000202173 0.000122731 7.26439e-05 4.16096e-05 2.29065e-05 0.00384878 0.00562801 0.00790706 0.0106734
          0.0138427 0.0172491 0.0206509 0.0237544 0.0262531 0.0278773 0.0284424 0.0278831 0.0262666 0.0237799 0.0206946 0.017319
          0.0139478 0.0108216 0.0081034 0.00587236 0.00413445 0.00284258 0.00192012 0.00128203 0.000849936 0.000560281 0.000366295 0.000236047
          0.000148715 9.08201e-05 5.33504e-05 2.99565e-05 0.00334597 0.00489275 0.00687406 0.00927902 0.0120342 0.0149956 0.0179531 0.0206512
          0.0228236 0.0242361 0.0247283 0.0242437 0.0228415 0.0206849 0.018011 0.0150883 0.0121735 0.00947536 0.00713418 0.00521647
          0.00372443 0.00261412 0.0018167 0.00125743 0.000869004 0.00059837 0.000407862 0.000272708 0.00017715 0.000110839 6.63329e-05 3.77723e-05
          0.00279479 0.00408677 0.0057417 0.00775049 0.0100519 0.0125254 0.0149958 0.0172495 0.0190643 0.0202446 0.0206568 0.0202541
          0.0190866 0.0172915 0.0150678 0.0126408 0.0102251 0.00799484 0.00606542 0.00448964 0.00326579 0.0023536 0.00169295 0.0012204
          0.000880739 0.000632281 0.000447126 0.000308138 0.000204947 0.000130537 7.91584e-05 4.55134e-05 0.00224287 0.00327971 0.00460782 0.00621992
          0.00806681 0.0100519 0.0120344 0.0138432 0.0152999 0.0162477 0.0165796 0.0162587 0.0153259 0.0138923 0.0121187 0.0101868
          0.00826936 0.00650559 0.00498628 0.00375072 0.00279353 0.00207845 0.00155428 0.00116904 0.00087948 0.00065511 0.000477501 0.000336867
          0.000227996 0.000147073 9.00059e-05 5.20921e-05 0.00172937 0.00252883 0.00355287 0.00479588 0.00621994 0.00775057 0.00927924 0.010674
          0.0117974 0.0125288 0.012786 0.012541 0.011826 0.0107279 0.00937176 0.00789869 0.0064424 0.00510963 0.00396853 0.00304612
          0.00233415 0.0018005 0.00140262 0.00109929 0.000858319 0.000659252 0.000492024 0.000353225 0.000242086 0.000157559 9.70329e-05 5.64107e-05
          0.00128115 0.0018734 0.00263203 0.00355288 0.00460785 0.00574178 0.0068743 0.00790768 0.00874019 0.00928261 0.00947432 0.00929513
          0.00876971 0.00796331 0.00696975 0.00589461 0.00483737 0.00387658 0.00306088 0.00240712 0.00190513 0.00152708 0.00123846 0.00100762
          0.000811804 0.000638881 0.000485426 0.000352955 0.000244069 0.00015984 9.8866e-05 5.76521e-05 0.000911882 0.00133343 0.0018734 0.00252883
          0.00327974 0.00408685 0.00489298 0.00562861 0.00622141 0.00660801 0.00674556 0.00662015 0.00625002 0.00568253 0.0049855 0.00423498
          0.0035022 0.00284258 0.00228906 0.00185073 0.00151666 0.00126337 0.00106354 0.000893632 0.00073847 0.000592149 0.000455926 0.000334568
          0.000232821 0.000153139 9.50066e-05 5.55182e-05 0.000623601 0.000911883 0.00128115 0.00172937 0.00224289 0.00279486 0.00334617 0.00384933
          0.00425492 0.00451975 0.00461475 0.0045308 0.00428097 0.00389842 0.00343041 0.00292973 0.00244544 0.00201505 0.00165961 0.00138289
          0.00117426 0.00101452 0.000882638 0.000761666 0.000642084 0.000522192 0.000405999 0.000299911 0.000209644 0.000138317 8.59922e-05 5.03243e-05
          0.000409735 0.00059915 0.000841775 0.00113628 0.00147369 0.00183637 0.00219864 0.0025293 0.00279595 0.00297032 0.00303348 0.00297977
          0.00281824 0.00257129 0.00227069 0.00195173 0.00164694 0.00138063 0.00116549 0.00100202 0.000880739 0.000786512 0.000703669 0.000620377
          0.000531074 0.000436504 0.000341809 0.000253705 0.000177916 0.00011764 7.32465e-05 4.29096e-05 0.000258659 0.000378234 0.000531399 0.000717317
          0.00093032 0.00115928 0.00138799 0.00159679 0.00176524 0.00187558 0.00191601 0.00188318 0.00178314 0.00163053 0.00144589 0.00125198
          0.00106953 0.000913656 0.000791511 0.000701949 0.000637121 0.000585611 0.000536142 0.000480733 0.000416384 0.000344948 0.000271535 0.000202247
          0.00014216 9.41449e-05 5.86803e-05 3.44018e-05 0.000156885 0.00022941 0.00032231 0.000435076 0.00056427 0.000703147 0.000841882 0.000968556
          0.00107081 0.00113792 0.00116283 0.00114365 0.00108433 0.000994024 0.000885583 0.000773117 0.000669353 0.00058328 0.000518653 0.000473764
          0.000442563 0.000416837 0.000388789 0.000353225 0.000308679 0.000257232 0.000203271 0.000151789 0.000106873 7.08569e-05 4.41991e-05 2.5926e-05
          9.14243e-05 0.000133688 0.000187826 0.00025354 0.000328829 0.000409762 0.000490619 0.00056446 0.000624103 0.00066333 0.000678089 0.000667395
          0.000633687 0.00058252 0.000521608 0.000459378 0.000403344 0.000358632 0.000327054 0.000306961 0.000294001 0.000282557 0.00026747 0.000245487
          0.00021598 0.000180777 0.000143266 0.000107182 7.55598e-05 5.01378e-05 3.12927e-05 1.83626e-05 5.11883e-05 7.4852e-05 0.000105163 0.000141957
          0.000184112 0.000229428 0.000274705 0.000316062 0.000349488 0.000371521 0.000379932 0.000374229 0.000355872 0.000328092 0.000295348 0.00026248
          0.000233749 0.000211964 0.000197909 0.000190276 0.000186133 0.000181841 0.000174145 0.000161086 0.00014245 0.000119626 9.50066e-05 7.11768e-05
          5.02236e-05 3.33465e-05 2.08214e-05 1.22215e-05 2.75365e-05 4.02662e-05 5.65722e-05 7.63651e-05 9.90425e-05 0.000123421 0.00014778 0.000170036
          0.000188034 0.000199926 0.000204531 0.000201621 0.000192029 0.000177564 0.000160699 0.000144104 0.000130105 0.000120174 0.000114611 0.000112497
          0.000111983 0.000110839 0.000107112 9.96738e-05 8.84834e-05 7.44912e-05 5.9255e-05 4.44387e-05 3.13782e-05 2.08434e-05 1.30185e-05 7.64314e-06
          1.42323e-05 2.08117e-05 2.92394e-05 3.94695e-05 5.11905e-05 6.37913e-05 7.63828e-05 8.78892e-05 9.72006e-05 0.000103367 0.000105788 0.000104363
          9.95492e-05 9.23149e-05 8.3977e-05 7.59502e-05 6.94511e-05 6.52235e-05 6.33586e-05 6.32739e-05 6.38757e-05 6.38739e-05 6.21567e-05 5.81032e-05
          5.173e-05 4.36306e-05 3.47479e-05 2.60795e-05 1.84241e-05 1.22426e-05 7.64835e-06 4.49103e-06 7.06753e-06 1.03348e-05 1.45199e-05 1.96e-05
          2.54206e-05 3.16782e-05 3.79316e-05 4.36472e-05 4.82753e-05 5.13463e-05 5.25675e-05 5.18964e-05 4.95723e-05 4.60914e-05 4.21255e-05 3.8393e-05
          3.5505e-05 3.38227e-05 3.33623e-05 3.37847e-05 3.44833e-05 3.4754e-05 3.39976e-05 3.18883e-05 2.84519e-05 2.40301e-05 1.91546e-05 1.43844e-05
          1.01658e-05 6.75673e-06 4.22186e-06 2.47932e-06 3.37202e-06 4.93086e-06 6.92764e-06 9.35146e-06 1.21286e-05 1.51143e-05 1.80981e-05 2.08258e-05
          2.30356e-05 2.45046e-05 2.50951e-05 2.479e-05 2.37085e-05 2.20939e-05 2.02739e-05 1.85978e-05 1.73603e-05 1.67301e-05 1.6703e-05 1.70965e-05
          1.75951e-05 1.78366e-05 1.75155e-05 1.64693e-05 1.47175e-05 1.24424e-05 9.92428e-06 7.4558e-06 5.2706e-06 3.50375e-06 2.18954e-06 1.28593e-06
          0.000150733 0.000220415 0.000309671 0.000418012 0.000542133 0.000675539 0.000808767 0.000930303 0.00102814 0.00109172 0.00111378 0.00109172
          0.00102814 0.000930303 0.000808767 0.000675539 0.000542133 0.000418013 0.000309672 0.000220415 0.000150734 9.90397e-05 6.25225e-05 3.79222e-05
          2.20994e-05 1.23737e-05 6.65655e-06 3.44059e-06 1.70864e-06 8.1528e-07 3.73765e-07 1.64638e-07 0.000238772 0.000349153 0.000490542 0.000662162
          0.000858778 0.0010701 0.00128115 0.00147367 0.00162866 0.00172937 0.0017643 0.00172937 0.00162866 0.00147367 0.00128115 0.0010701
          0.000858779 0.000662164 0.000490544 0.000349156 0.000238775 0.000156888 9.90421e-05 6.00733e-05 3.50087e-05 1.96022e-05 1.05456e-05 5.45098e-06
          2.7072e-06 1.29185e-06 5.92315e-07 2.60942e-07 0.000363402 0.000531398 0.000746586 0.00100779 0.00130703 0.00162866 0.00194986 0.00224287
          0.00247875 0.00263203 0.0026852 0.00263203 0.00247875 0.00224287 0.00194986 0.00162866 0.00130703 0.00100779 0.000746592 0.000531406
          0.000363412 0.000238783 0.000150744 9.14347e-05 5.32868e-05 2.9838e-05 1.60533e-05 8.29874e-06 4.12208e-06 1.96736e-06 9.02239e-07 3.97589e-07
          0.000531398 0.000777055 0.00109172 0.00147367 0.00191125 0.00238156 0.00285124 0.00327971 0.00362464 0.00384878 0.00392653 0.00384878
          0.00362464 0.00327971 0.00285125 0.00238157 0.00191126 0.00147368 0.00109174 0.000777079 0.000531426 0.000349184 0.000220447 0.000133719
          7.79349e-05 4.3644e-05 2.34845e-05 1.21426e-05 6.03297e-06 2.88038e-06 1.32155e-06 5.82692e-07 0.000746586 0.00109172 0.00153381 0.00207043
          0.0026852 0.00334597 0.00400585 0.00460782 0.00509243 0.00540733 0.00551657 0.00540733 0.00509243 0.00460783 0.00400586 0.00334598
          0.00268523 0.00207047 0.00153387 0.00109179 0.000746665 0.000490629 0.000309761 0.000187912 0.000109534 6.13515e-05 3.30217e-05 1.70803e-05
          8.49059e-06 4.05651e-06 1.86279e-06 8.22226e-07 0.00100779 0.00147367 0.00207043 0.00279479 0.00362464 0.00451658 0.00540733 0.00621991
          0.00687406 0.00729913 0.00744659 0.00729914 0.00687407 0.00621993 0.00540736 0.00451663 0.00362472 0.00279489 0.00207057 0.00147385
          0.00100799 0.000662392 0.000418249 0.000253767 0.000147958 8.29031e-05 4.46448e-05 2.3109e-05 1.14987e-05 5.50072e-06 2.53015e-06 1.11909e-06
          0.00130703 0.00191125 0.0026852 0.00362464 0.00470091 0.00585769 0.00701293 0.00806679 0.00891518 0.00946647 0.0096577 0.00946648
          0.0089152 0.00806683 0.00701301 0.00585782 0.0047011 0.00362491 0.00268556 0.00191169 0.00130755 0.000859347 0.00054272 0.000329389
          0.000192137 0.00010773 5.80707e-05 3.00987e-05 1.50037e-05 7.19449e-06 3.31925e-06 1.47361e-06 0.00162866 0.00238156 0.00334597 0.00451658
          0.00585769 0.00729913 0.00873865 0.0100518 0.011109 0.0117959 0.0120342 0.011796 0.0111091 0.0100519 0.00873883 0.00729943
          0.00585813 0.00451721 0.00334679 0.00238259 0.00162986 0.00107143 0.000676904 0.000411058 0.000239977 0.000134719 7.27447e-05 3.77952e-05
          1.89014e-05 9.10187e-06 4.22176e-06 1.88663e-06 0.00194986 0.00285124 0.00400585 0.00540733 0.00701293 0.00873865 0.0104621 0.0120342
          0.0132999 0.0141223 0.0144076 0.0141224 0.0133 0.0120345 0.0104625 0.00873929 0.0070139 0.00540869 0.00400766 0.00285349
          0.00195249 0.00128404 0.000811748 0.000493431 0.000288493 0.000162304 8.79084e-05 4.58659e-05 2.30664e-05 1.11883e-05 5.23669e-06 2.36589e-06
          0.00224287 0.00327971 0.00460782 0.00621991 0.00806679 0.0100518 0.0120342 0.0138427 0.0152985 0.0162445 0.0165727 0.0162447
          0.0152988 0.0138431 0.0120351 0.0100532 0.00806877 0.00622271 0.00461153 0.00328433 0.00224827 0.0014796 0.00093642 0.000570186
          0.000334219 0.000188723 0.000102749 5.3989e-05 2.74053e-05 1.34509e-05 6.3874e-06 2.93527e-06 0.00247875 0.00362464 0.00509243 0.00687406
          0.00891518 0.011109 0.0132999 0.0152985 0.0169075 0.017953 0.0183158 0.0179532 0.016908 0.0152994 0.0133015 0.0111115
          0.00891901 0.00687946 0.00509958 0.00363354 0.00248916 0.00164008 0.00103994 0.000635029 0.000373808 0.000212369 0.000116606 6.19703e-05
          3.19208e-05 1.59535e-05 7.74e-06 3.64422e-06 0.00263203 0.00384878 0.00540733 0.00729913 0.00946646 0.0117959 0.0141223 0.0162445
          0.017953 0.0190632 0.0194485 0.0190636 0.0179539 0.0162462 0.0141252 0.0118006 0.00947339 0.00730891 0.00542028 0.00386489
          0.00265087 0.00175006 0.00111307 0.000682857 0.000404716 0.000232167 0.000129173 6.98454e-05 3.67617e-05 1.88498e-05 9.41375e-06 4.57215e-06
          0.0026852 0.00392653 0.00551656 0.00744658 0.0096577 0.0120342 0.0144076 0.0165727 0.0183157 0.0194484 0.0198415 0.019449
          0.0183172 0.0165756 0.0144125 0.0120421 0.00966949 0.00746321 0.00553859 0.00395394 0.00271725 0.0017995 0.0011501 0.000710741
          0.000425721 0.00024783 0.0001406 7.7912e-05 4.22238e-05 2.23745e-05 1.15713e-05 5.82109e-06 0.00263203 0.00384878 0.00540733 0.00729913
          0.00946646 0.0117959 0.0141223 0.0162446 0.0179531 0.0190634 0.0194489 0.0190644 0.0179555 0.0162491 0.0141302 0.0118085
          0.0094853 0.0073257 0.00544253 0.00389259 0.00268325 0.00178562 0.00114976 0.000718416 0.000437093 0.00025986 0.000151425 8.66422e-05
          4.86724e-05 2.67841e-05 1.43789e-05 7.491e-06 0.00247875 0.00362464 0.00509243 0.00687406 0.00891518 0.011109 0.0132999 0.0152986
          0.0169077 0.0179534 0.0183166 0.017955 0.0169113 0.0153054 0.0133117 0.0111278 0.00894346 0.00691395 0.00514528 0.00369041
          0.00255564 0.0017131 0.00111527 0.000708047 0.000440292 0.000269235 0.0001623 9.64615e-05 5.63787e-05 3.2246e-05 1.79356e-05 9.63789e-06
          0.00224287 0.00327971 0.00460782 0.00621991 0.00806679 0.0100519 0.0120343 0.0138428 0.0152988 0.0162451 0.016574 0.0162473
          0.0153039 0.0138524 0.0120509 0.0100784 0.00810668 0.00627616 0.00468235 0.00337246 0.0023513 0.00159276 0.00105317 0.000683346
          0.000437251 0.000276852 0.000173562 0.000107442 6.5309e-05 3.87002e-05 2.2188e-05 1.2224e-05 0.00194986 0.00285124 0.00400585 0.00540733
          0.00701293 0.00873867 0.0104621 0.0120344 0.0133002 0.0141231 0.0144094 0.014126 0.013307 0.0120472 0.0104841 0.00877385
          0.00706577 0.00548185 0.00410458 0.00297411 0.0020935 0.00143891 0.000971541 0.000648308 0.000429511 0.000282923 0.000184828 0.000119025
          7.49437e-05 4.5746e-05 2.68624e-05 1.5079e-05 0.00162866 0.00238156 0.00334597 0.00451658 0.0058577 0.00729916 0.00873871 0.010052
          0.0111094 0.011797 0.0120365 0.0118006 0.0111179 0.010068 0.00876606 0.00734294 0.00592346 0.00460933 0.00346883 0.00253447
          0.00180743 0.00126645 0.000878115 0.000606079 0.000417545 0.000286601 0.000194786 0.000129917 8.42252e-05 5.26169e-05 3.14528e-05 1.78949e-05
          0.00130703 0.00191125 0.0026852 0.00362464 0.00470092 0.00585772 0.00701301 0.008067 0.0089157 0.00946767 0.00966033 0.00947186
          0.00892558 0.00808563 0.00704498 0.00590891 0.0047778 0.00373307 0.00282885 0.00209002 0.00151603 0.00108833 0.000778968 0.000558369
          0.000400626 0.00028606 0.000201363 0.000138261 9.17024e-05 5.82869e-05 3.5292e-05 2.02694e-05 0.00100779 0.00147367 0.00207043 0.00279479
          0.00362465 0.00451661 0.00540742 0.00622014 0.00687463 0.00730045 0.00744947 0.00730506 0.00688549 0.0062406 0.00544253 0.00457283
          0.00370909 0.00291387 0.00222819 0.00167001 0.00123733 0.000914273 0.000678125 0.000505648 0.000377297 0.000279068 0.000202268 0.000142089
          9.5868e-05 6.17029e-05 3.77005e-05 2.17947e-05 0.000746586 0.00109172 0.00153381 0.00207043 0.00268521 0.003346 0.00400594 0.00460806
          0.00509302 0.00540869 0.00551955 0.00541345 0.00510422 0.00462917 0.00404217 0.003404 0.00277233 0.0021933 0.00169659 0.0012943
          0.000983422 0.000750655 0.000578041 0.000447938 0.00034629 0.00026386 0.000195742 0.000139908 9.55884e-05 6.20761e-05 3.81705e-05 2.21665e-05
          0.000531398 0.000777055 0.00109172 0.00147367 0.00191126 0.00238159 0.00285133 0.00327994 0.00362521 0.0038501 0.00392942 0.00385471
          0.00363607 0.00330041 0.00288645 0.00243781 0.00199569 0.00159276 0.00124949 0.000973398 0.000760947 0.000601263 0.000480528 0.000385799
          0.000307456 0.000239964 0.000181232 0.000131216 9.04689e-05 5.91269e-05 3.65197e-05 2.12746e-05 0.000363402 0.000531398 0.000746587 0.00100779
          0.00130704 0.00162868 0.00194993 0.00224308 0.00247927 0.00263323 0.00268783 0.00263743 0.00248916 0.00226171 0.00198191 0.00167988
          0.00138392 0.00111622 0.000890234 0.000710171 0.000572409 0.000468321 0.000387569 0.000320973 0.000262284 0.000208603 0.000159695 0.000116725
          8.10079e-05 5.31844e-05 3.2953e-05 1.92393e-05 0.000238772 0.000349153 0.000490543 0.000662165 0.000858786 0.00107013 0.00128121 0.00147385
          0.0016291 0.0017304 0.00176655 0.00173398 0.00163756 0.00148979 0.00130856 0.00111391 0.000924545 0.000754908 0.000613411 0.000502066
          0.000417545 0.000353228 0.000301615 0.000256414 0.000213779 0.000172512 0.000133412 9.81957e-05 6.8473e-05 4.51013e-05 2.80076e-05 1.63776e-05
          0.000150733 0.000220415 0.000309672 0.000418014 0.000542139 0.000675558 0.000808821 0.000930447 0.0010285 0.00109255 0.00111558 0.00109543
          0.0010353 0.000943253 0.000830796 0.000710741 0.000594978 0.000492536 0.000408399 0.000343283 0.000294381 0.000256805 0.000225296 0.000195688
          0.000165747 0.000135242 0.000105384 7.79638e-05 5.45535e-05 3.60176e-05 2.24028e-05 1.31148e-05 9.14243e-05 0.000133688 0.000187825 0.000253539
          0.000328825 0.00040975 0.000490583 0.000564366 0.00062387 0.000662787 0.000676904 0.000664963 0.000628999 0.000574033 0.00050717 0.000436307
          0.00036871 0.000309791 0.000262349 0.000226434 0.000199856 0.000179159 0.00016079 0.000142089 0.000121835 0.000100251 7.85607e-05 5.834e-05
          4.09258e-05 2.70666e-05 1.68551e-05 9.87519e-06 5.32773e-05 7.79067e-05 0.000109455 0.000147749 0.000191623 0.000238783 0.000285892 0.000328897
          0.000363593 0.000386317 0.000394637 0.00038786 0.00036723 0.000335752 0.000297654 0.000257615 0.000219905 0.000187638 0.0001623 0.000143674
          0.000130167 0.000119452 0.000109226 9.78498e-05 8.47001e-05 7.01402e-05 5.51978e-05 4.11056e-05 2.88898e-05 1.91306e-05 1.19234e-05 6.98995e-06
          2.98299e-05 4.36198e-05 6.12837e-05 8.27248e-05 0.00010729 0.000133695 0.000160073 0.000184157 0.000203595 0.000216345 0.000221059 0.000217373
          0.000206018 0.000188723 0.000167909 0.00014624 0.00012613 0.000109296 9.6486e-05 8.743e-05 8.10492e-05 7.58531e-05 7.0412e-05 6.3758e-05
          5.55926e-05 4.62588e-05 3.65197e-05 2.7253e-05 1.91806e-05 1.27131e-05 7.92868e-06 4.65013e-06 1.60468e-05 2.34651e-05 3.29673e-05 4.45014e-05
          5.77161e-05 7.19212e-05 8.61123e-05 9.90708e-05 0.000109534 0.000116408 0.000118974 0.000117051 0.00011105 0.000101928 9.10155e-05 7.97716e-05
          6.9506e-05 6.11294e-05 5.49963e-05 5.08807e-05 4.80991e-05 4.5746e-05 4.29759e-05 3.92395e-05 3.44048e-05 2.87329e-05 2.27377e-05 1.69947e-05
          1.19732e-05 7.94151e-06 4.95515e-06 2.90712e-06 8.29382e-06 1.21279e-05 1.70392e-05 2.30006e-05 2.98307e-05 3.71729e-05 4.45081e-05 5.12071e-05
          5.66185e-05 6.01786e-05 6.15207e-05 6.05567e-05 5.75099e-05 5.2887e-05 4.73905e-05 4.17879e-05 3.67617e-05 3.27758e-05 2.99894e-05 2.82448e-05
          2.71364e-05 2.61439e-05 2.47915e-05 2.2781e-05 2.00585e-05 1.67977e-05 1.33165e-05 9.96467e-06 7.02578e-06 4.66241e-06 2.91016e-06 1.70776e-06
          4.11859e-06 6.02256e-06 8.46141e-06 1.14218e-05 1.48136e-05 1.84596e-05 2.21025e-05 2.54298e-05 2.81185e-05 2.98899e-05 3.05635e-05 3.00987e-05
          2.86108e-05 2.63575e-05 2.36943e-05 2.10083e-05 1.86412e-05 1.68201e-05 1.56132e-05 1.49231e-05 1.45244e-05 1.41347e-05 1.34997e-05 1.24647e-05
          1.10097e-05 9.23866e-06 7.33369e-06 5.49247e-06 3.87477e-06 2.57233e-06 1.606e-06 9.42611e-07 1.96504e-06 2.87345e-06 4.03706e-06 5.4495e-06
          7.06777e-06 8.80741e-06 1.05456e-05 1.21333e-05 1.34168e-05 1.42634e-05 1.45877e-05 1.43717e-05 1.36722e-05 1.26146e-05 1.13714e-05 1.01296e-05
          9.05352e-06 8.25012e-06 7.74735e-06 7.491e-06 7.36351e-06 7.22019e-06 6.93234e-06 6.42343e-06 5.68657e-06 4.77886e-06 3.79709e-06 2.84554e-06
          2.00826e-06 1.33358e-06 8.32754e-07 4.88833e-07 8.43952e-05 0.00012341 0.000173384 0.000234044 0.000303539 0.000378233 0.000452827 0.000520875
          0.000575656 0.000611253 0.000623601 0.000611253 0.000575656 0.000520875 0.000452827 0.000378233 0.000303539 0.000234044 0.000173385 0.00012341
          8.43955e-05 5.54519e-05 3.5006e-05 2.12324e-05 1.23732e-05 6.92785e-06 3.72687e-06 1.92629e-06 9.56601e-07 4.5643e-07 2.09243e-07 9.21644e-08
          0.000133688 0.00019549 0.000274654 0.000370744 0.000480828 0.000599149 0.000717312 0.000825105 0.000911882 0.00096827 0.00098783 0.00096827
          0.000911882 0.000825105 0.000717312 0.000599149 0.000480829 0.000370744 0.000274654 0.000195491 0.000133689 8.78406e-05 5.54528e-05 3.36343e-05
          1.96007e-05 1.09747e-05 5.90403e-06 3.05168e-06 1.51554e-06 7.23157e-07 3.31543e-07 1.46046e-07 0.000203468 0.000297529 0.000418012 0.000564257
          0.000731802 0.000911882 0.00109172 0.00125578 0.00138785 0.00147367 0.00150344 0.00147367 0.00138785 0.00125578 0.00109172 0.000911883
          0.000731804 0.000564259 0.000418014 0.000297532 0.000203472 0.000133692 8.4399e-05 5.1192e-05 2.98333e-05 1.67046e-05 8.98691e-06 4.64545e-06
          2.30724e-06 1.10105e-06 5.04867e-07 2.22436e-07 0.000297529 0.000435072 0.000611253 0.000825105 0.0010701 0.00133343 0.00159641 0.0018363
          0.00202943 0.00215492 0.00219846 0.00215492 0.00202943 0.00183631 0.00159641 0.00133343 0.00107011 0.00082511 0.00061126 0.00043508
          0.000297539 0.000195501 0.000123421 7.48629e-05 4.36299e-05 2.44313e-05 1.3145e-05 6.79565e-06 3.37573e-06 1.61131e-06 7.39049e-07 3.25729e-07
          0.000418012 0.000611253 0.000858778 0.00115923 0.00150344 0.0018734 0.00224287 0.00257991 0.00285124 0.00302755 0.00308872 0.00302756
          0.00285125 0.00257991 0.00224287 0.00187341 0.00150345 0.00115924 0.000858798 0.000611277 0.000418041 0.000274685 0.000173416 0.000105194
          6.13118e-05 3.43368e-05 1.84777e-05 9.55486e-06 4.74793e-06 2.26727e-06 1.04049e-06 4.58907e-07 0.000564257 0.000825105 0.00115923 0.0015648
          0.00202943 0.00252883 0.00302755 0.00348252 0.00384878 0.00408677 0.00416933 0.00408677 0.00384878 0.00348252 0.00302757 0.00252884
          0.00202946 0.00156483 0.00115928 0.000825169 0.000564332 0.000370826 0.000234129 0.000142037 8.27987e-05 4.63809e-05 2.49673e-05 1.29166e-05
          6.42242e-06 3.06942e-06 1.4101e-06 6.2274e-07 0.000731802 0.0010701 0.00150344 0.00202943 0.00263203 0.00327971 0.00392653 0.00451658
          0.00499159 0.00530026 0.00540733 0.00530026 0.0049916 0.0045166 0.00392656 0.00327976 0.0026321 0.00202953 0.00150357 0.00107026
          0.000731987 0.000481031 0.000303748 0.000184309 0.000107472 6.0228e-05 3.24413e-05 1.67975e-05 8.36178e-06 4.00237e-06 1.84229e-06 8.15578e-07
          0.000911882 0.00133343 0.0018734 0.00252883 0.00327971 0.00408677 0.00489275 0.00562801 0.00621991 0.00660453 0.00673795 0.00660454
          0.00621993 0.00562805 0.00489282 0.00408688 0.00327987 0.00252905 0.0018737 0.0013338 0.000912311 0.000599621 0.00037872 0.000229882
          0.000134118 7.52192e-05 4.05613e-05 2.10344e-05 1.04927e-05 5.0361e-06 2.3262e-06 1.03424e-06 0.00109172 0.00159641 0.00224287 0.00302755
          0.00392653 0.00489275 0.00585769 0.00673795 0.00744659 0.00790706 0.0080668 0.00790708 0.00744663 0.00673803 0.00585783 0.00489298
          0.00392687 0.00302804 0.00224351 0.00159721 0.00109266 0.000718342 0.00045389 0.000275684 0.000160992 9.04163e-05 4.88521e-05 2.54027e-05
          1.2718e-05 6.13319e-06 2.84997e-06 1.27643e-06 0.00125578 0.0018363 0.00257991 0.00348252 0.00451658 0.00562801 0.00673795 0.00775049
          0.00856561 0.00909529 0.00927904 0.00909533 0.00856571 0.00775066 0.00673824 0.00562848 0.00451729 0.00348352 0.00258123 0.00183795
          0.0012577 0.000827219 0.000523056 0.000318041 0.000186031 0.000104727 5.67746e-05 2.96589e-05 1.49404e-05 7.26212e-06 3.40795e-06 1.54449e-06
          0.00138785 0.00202943 0.00285124 0.00384878 0.00499159 0.00621991 0.00744658 0.00856561 0.00946647 0.0100519 0.0102549 0.0100519
          0.00946665 0.00856594 0.00744715 0.00622082 0.00499296 0.0038507 0.00285379 0.0020326 0.00139156 0.000915957 0.000579861 0.000353228
          0.000207179 0.000117095 6.38336e-05 3.35993e-05 1.7094e-05 8.41381e-06 4.00913e-06 1.84964e-06 0.00147367 0.00215492 0.00302755 0.00408677
          0.00530026 0.00660453 0.00790706 0.00909528 0.0100519 0.0106734 0.0108891 0.0106736 0.0100522 0.00909588 0.00790808 0.00660617
          0.00530273 0.00409026 0.00303217 0.00216067 0.00148039 0.000975648 0.000618866 0.000378122 0.000222769 0.000126713 6.96906e-05 3.71186e-05
          1.91733e-05 9.61506e-06 4.68318e-06 2.21453e-06 0.00150344 0.00219846 0.00308872 0.00416933 0.00540733 0.00673795 0.00806679 0.00927903
          0.0102549 0.0108891 0.0111091 0.0108893 0.0102555 0.00928004 0.00806854 0.00674075 0.00541153 0.00417526 0.00309657 0.00220823
          0.00151487 0.00100038 0.000636551 0.000390785 0.000231843 0.000133185 7.42424e-05 4.02416e-05 2.12434e-05 1.09303e-05 5.47928e-06 2.67165e-06
          0.00147367 0.00215492 0.00302755 0.00408677 0.00530026 0.00660453 0.00790706 0.0090953 0.0100519 0.0106735 0.0108893 0.0106739
          0.0100527 0.00909692 0.00790985 0.006609 0.00530698 0.00409625 0.00304011 0.00217054 0.00149193 0.000988327 0.000631947 0.000390801
          0.000234313 0.000136587 7.76249e-05 4.31077e-05 2.34202e-05 1.24441e-05 6.45355e-06 3.25528e-06 0.00138785 0.00202943 0.00285124 0.00384878
          0.0049916 0.00621991 0.00744659 0.00856564 0.00946653 0.010052 0.0102552 0.0100525 0.00946783 0.00856808 0.00745079 0.00622663
          0.00500168 0.003863 0.00287009 0.00205288 0.00141527 0.000941992 0.000606722 0.000379263 0.000230884 0.000137372 8.0126e-05 4.58976e-05
          2.58148e-05 1.42231e-05 7.64447e-06 3.98675e-06 0.00125578 0.0018363 0.00257991 0.00348252 0.00451658 0.00562801 0.00673796 0.00775052
          0.00856571 0.0090955 0.0092795 0.00909628 0.00856753 0.00775397 0.00674388 0.00563748 0.0045308 0.00350257 0.00260648 0.00186937
          0.00129444 0.000867567 0.000564685 0.000358389 0.000222768 0.00013615 8.20238e-05 4.8718e-05 2.84553e-05 1.6265e-05 9.04183e-06 4.85648e-06
          0.00109172 0.00159641 0.00224287 0.00302756 0.00392653 0.00489276 0.00585771 0.006738 0.00744671 0.00790735 0.00806743 0.00790838
          0.00744913 0.00674256 0.00586554 0.00490531 0.00394537 0.00305413 0.00227807 0.00164022 0.00114294 0.000773565 0.000510866 0.000330907
          0.000211273 0.000133424 8.34098e-05 5.14882e-05 3.12155e-05 1.84551e-05 1.05608e-05 5.80942e-06 0.000911882 0.00133343 0.0018734 0.00252883
          0.00327971 0.00408678 0.00489278 0.00562807 0.00622007 0.00660489 0.00673875 0.00660617 0.00622308 0.00563375 0.00490253 0.00410239
          0.00330316 0.0025619 0.00191721 0.00138795 0.000975625 0.000669158 0.000450464 0.000299418 0.000197432 0.000129375 8.40763e-05 5.38813e-05
          3.37847e-05 2.05519e-05 1.20357e-05 6.74217e-06 0.000731802 0.0010701 0.00150344 0.00202943 0.00263203 0.00327972 0.00392656 0.00451666
          0.00499178 0.00530069 0.00540827 0.00530218 0.0049953 0.0045233 0.00393796 0.00329797 0.00265945 0.00206809 0.00155466 0.00113385
          0.000806326 0.000562677 0.000387986 0.000265954 0.000181811 0.000123813 8.35337e-05 5.53641e-05 3.57096e-05 2.22199e-05 1.32425e-05 7.51744e-06
          0.000564257 0.000825105 0.00115923 0.0015648 0.00202943 0.00252884 0.00302759 0.0034826 0.00384898 0.00408724 0.00417036 0.00408889
          0.00385285 0.0034899 0.00304011 0.00254888 0.00205954 0.00160726 0.00121548 0.000895113 0.000646106 0.000460636 0.000326791 0.000231848
          0.000164572 0.000116326 8.11694e-05 5.53402e-05 3.65053e-05 2.31089e-05 1.39505e-05 7.99486e-06 0.000418012 0.000611253 0.000858778 0.00115923
          0.00150344 0.00187341 0.0022429 0.00258 0.00285145 0.00302804 0.00308978 0.00302974 0.00285545 0.00258753 0.00225582 0.0018941
          0.00153451 0.00120304 0.000916817 0.000683484 0.000502459 0.0003674 0.000269075 0.000197909 0.00014573 0.000106543 7.64973e-05 5.33504e-05
          3.58036e-05 2.29548e-05 1.39864e-05 8.06943e-06 0.000297529 0.000435072 0.000611253 0.000825106 0.00107011 0.00133344 0.00159644 0.00183639
          0.00202963 0.0021554 0.00219949 0.00215704 0.00203351 0.00184368 0.00160896 0.00135349 0.00110021 0.000867567 0.000667506 0.00050508
          0.000379377 0.000285383 0.000216156 0.000164745 0.000125468 9.44312e-05 6.93915e-05 4.92527e-05 3.34823e-05 2.16666e-05 1.32893e-05 7.70366e-06
          0.000203468 0.000297529 0.000418012 0.000564258 0.000731806 0.000911892 0.00109175 0.00125585 0.00138803 0.0014741 0.00150438 0.00147559
          0.00139156 0.0012625 0.00110315 0.000930145 0.000759218 0.00060292 0.000469232 0.000361272 0.000277992 0.000215537 0.000168842 0.000133037
          0.000104354 8.04452e-05 6.02039e-05 4.33061e-05 2.97217e-05 1.9363e-05 1.19329e-05 6.94064e-06 0.000133688 0.00019549 0.000274654 0.000370744
          0.000480831 0.000599158 0.000717336 0.000825169 0.00091204 0.000968637 0.000988632 0.000969916 0.000915056 0.000830852 0.000727087 0.00061477
          0.000504278 0.000403813 0.000318464 0.000250013 0.000197432 0.000157848 0.000127682 0.000103642 8.33431e-05 6.54965e-05 4.97135e-05 3.61208e-05
          2.49651e-05 1.63439e-05 1.01068e-05 5.8926e-06 8.43952e-05 0.00012341 0.000173385 0.000234045 0.000303541 0.00037824 0.000452847 0.000520927
          0.000575783 0.000611548 0.000624246 0.000612576 0.000578206 0.000525493 0.000460682 0.000390785 0.000322382 0.000260617 0.000208587 0.00016722
          0.000135615 0.000111705 9.30448e-05 7.74855e-05 6.35923e-05 5.07378e-05 3.89291e-05 2.84984e-05 1.9799e-05 1.30082e-05 8.06393e-06 4.7097e-06
          5.11883e-05 7.48519e-05 0.000105163 0.000141956 0.000184108 0.000229415 0.000274668 0.000315966 0.000349249 0.000370966 0.00037872 0.000371742
          0.000351078 0.000319412 0.000280583 0.000238885 0.000198329 0.000162013 0.000131735 0.000107922 8.98507e-05 7.60954e-05 6.50422e-05 5.53402e-05
          4.61669e-05 3.72715e-05 2.88326e-05 2.1226e-05 1.48032e-05 9.75142e-06 6.05595e-06 3.5414e-06 2.98299e-05 4.36198e-05 6.12836e-05 8.27245e-05
          0.000107289 0.000133692 0.000160064 0.000184133 0.000203536 0.000216208 0.00022076 0.000216758 0.000204833 0.000186577 0.000164258 0.000140407
          0.000117373 9.69472e-05 8.0126e-05 6.70697e-05 5.72456e-05 4.97099e-05 4.3439e-05 3.76148e-05 3.1789e-05 2.58985e-05 2.01597e-05 1.49039e-05
          1.04238e-05 6.87981e-06 4.27828e-06 2.50417e-06 1.67017e-05 2.44227e-05 3.43126e-05 4.63173e-05 6.00708e-05 7.48543e-05 8.96209e-05 0.000103099
          0.000113967 0.000121071 0.00012364 0.000121438 0.000114831 0.000104727 9.24146e-05 7.93273e-05 6.67885e-05 5.57917e-05 4.68644e-05 4.00437e-05
          3.49645e-05 3.10316e-05 2.76221e-05 2.42596e-05 2.07114e-05 1.6992e-05 1.32893e-05 9.8558e-06 6.9078e-06 4.56581e-06 2.84209e-06 1.66468e-06
          8.98459e-06 1.3138e-05 1.84583e-05 2.49162e-05 3.23148e-05 4.02677e-05 4.82116e-05 5.5463e-05 6.13118e-05 6.51389e-05 6.65315e-05 6.53682e-05
          6.18525e-05 5.64819e-05 4.99599e-05 4.30668e-05 3.65187e-05 3.08451e-05 2.6313e-05 2.29134e-05 2.04132e-05 1.84551e-05 1.66769e-05 1.48122e-05
          1.27458e-05 1.05129e-05 8.25147e-06 6.13412e-06 4.30616e-06 2.84928e-06 1.7749e-06 1.04013e-06 4.6437e-06 6.79041e-06 9.54019e-06 1.2878e-05
          1.6702e-05 2.08125e-05 2.49186e-05 2.8667e-05 3.16911e-05 3.36718e-05 3.43971e-05 3.38066e-05 3.2009e-05 2.92659e-05 2.59463e-05 2.2458e-05
          1.91733e-05 1.63634e-05 1.41577e-05 1.25371e-05 1.13622e-05 1.043e-05 9.5392e-06 8.5471e-06 7.39931e-06 6.12783e-06 4.82262e-06 3.5915e-06
          2.52423e-06 1.67155e-06 1.04183e-06 6.10762e-07 2.30599e-06 3.37202e-06 4.73752e-06 6.39502e-06 8.29399e-06 1.03352e-05 1.23743e-05 1.4236e-05
          1.57383e-05 1.67231e-05 1.70858e-05 1.67975e-05 1.59138e-05 1.45667e-05 1.29419e-05 1.1244e-05 9.65877e-06 8.31985e-06 7.28756e-06 6.54562e-06
          6.01631e-06 5.59013e-06 5.16082e-06 4.65512e-06 4.04839e-06 3.36289e-06 2.65189e-06 1.97752e-06 1.39108e-06 9.21721e-07 5.74711e-07 3.37013e-07
          1.10022e-06 1.60884e-06 2.26034e-06 3.05115e-06 3.95718e-06 4.93111e-06 5.90403e-06 6.79233e-06 7.50933e-06 7.97971e-06 8.15382e-06 8.01833e-06
          7.60039e-06 6.96394e-06 6.19849e-06 5.40256e-06 4.66522e-06 4.04974e-06 3.58328e-06 3.25528e-06 3.02511e-06 2.83697e-06 2.63753e-06 2.39087e-06
          2.08619e-06 1.73675e-06 1.37154e-06 1.02373e-06 7.20595e-07 4.77663e-07 2.97918e-07 1.74735e-07
        </DataArray>
      </PointData>
      <CellData></CellData>
    </Piece>
  </ImageData>
</VTKFile>
